luts/A_v_log/C-8120-VLOG.cube
# Copyright: (C) Copyright 2010-2019 by IWLTBAP SAS
# Cannot be resold, shared or otherwise redistributed
# Website: https://luts.iwltbap.com
TITLE "IWLTBAP 8120 (V-Log L)"
LUT_3D_SIZE 33
0.000000 0.000000 0.000000
0.003778 0.000000 0.003778
0.011306 0.003656 0.007556
0.029563 0.007434 0.007800
0.048550 0.011300 0.007800
0.074119 0.021672 0.007800
0.100744 0.036256 0.011050
0.130431 0.051466 0.020941
0.157850 0.066675 0.032350
0.190072 0.081884 0.043781
0.226950 0.097094 0.055144
0.272669 0.112238 0.066544
0.329388 0.132350 0.080413
0.383181 0.159784 0.102569
0.434781 0.187969 0.129169
0.485894 0.214609 0.153684
0.539200 0.243150 0.178450
0.594334 0.269863 0.201388
0.644106 0.290975 0.218669
0.689694 0.308338 0.232253
0.729375 0.323488 0.242163
0.755738 0.337356 0.249781
0.771069 0.346319 0.256119
0.778694 0.350097 0.259897
0.785275 0.353900 0.263700
0.788200 0.356900 0.266700
0.788200 0.356900 0.266700
0.788200 0.356900 0.266700
0.788200 0.356900 0.266700
0.788200 0.356900 0.266700
0.788200 0.356900 0.266700
0.788200 0.356900 0.266700
0.788200 0.356900 0.266700
0.000000 0.007556 0.000000
0.003778 0.007556 0.000118
0.007673 0.007671 0.003778
0.022264 0.011300 0.004022
0.040897 0.015090 0.004022
0.069735 0.025532 0.004022
0.100035 0.036983 0.007193
0.130431 0.051466 0.020093
0.157850 0.063841 0.032350
0.187356 0.078106 0.043781
0.223172 0.093249 0.055144
0.268891 0.108426 0.064064
0.323248 0.128572 0.078996
0.377868 0.156006 0.102569
0.431003 0.184191 0.129169
0.482116 0.212838 0.153684
0.537311 0.243150 0.178450
0.594334 0.269863 0.201388
0.644106 0.290975 0.218669
0.688159 0.308338 0.230718
0.725597 0.323488 0.239801
0.751959 0.337356 0.249781
0.768471 0.346319 0.256119
0.778694 0.350097 0.259897
0.785275 0.353900 0.263700
0.788200 0.356900 0.266700
0.788200 0.356900 0.266700
0.788200 0.356900 0.266700
0.788200 0.356900 0.266700
0.788200 0.356900 0.266700
0.788200 0.356900 0.266700
0.788200 0.356900 0.266700
0.788200 0.356900 0.266700
0.000000 0.015206 0.000000
0.003778 0.015206 0.000000
0.007556 0.015206 0.003656
0.018715 0.018746 0.003900
0.036994 0.022525 0.003900
0.069022 0.029884 0.003900
0.100013 0.037692 0.007069
0.130431 0.051466 0.020066
0.157850 0.063750 0.032350
0.187269 0.077984 0.043781
0.223050 0.093125 0.055144
0.266369 0.108303 0.063984
0.319394 0.128450 0.078950
0.374041 0.155884 0.104740
0.427225 0.184069 0.132825
0.480280 0.212781 0.157341
0.537250 0.243150 0.180278
0.594334 0.269863 0.201388
0.644106 0.290975 0.218669
0.686624 0.308338 0.230669
0.721819 0.323488 0.239725
0.749438 0.337356 0.249781
0.768388 0.346319 0.256119
0.778694 0.350097 0.259897
0.785275 0.353900 0.263700
0.788200 0.356900 0.266700
0.788200 0.356900 0.266700
0.788200 0.356900 0.266700
0.788200 0.356900 0.266700
0.788200 0.356900 0.266700
0.788200 0.356900 0.266700
0.788200 0.356900 0.266700
0.788200 0.356900 0.266700
0.000000 0.029928 0.000000
0.000354 0.029928 0.000000
0.000708 0.029928 0.003656
0.011425 0.030259 0.000697
0.029681 0.033706 0.000366
0.058857 0.040783 0.003348
0.089319 0.048414 0.007069
0.122499 0.059327 0.011782
0.156060 0.068168 0.019028
0.192349 0.081519 0.029553
0.230119 0.094229 0.043408
0.273278 0.108303 0.055641
0.324010 0.128450 0.076265
0.375233 0.155884 0.104884
0.426981 0.184069 0.133069
0.480166 0.212781 0.157584
0.539017 0.243150 0.180400
0.597911 0.269863 0.201388
0.647692 0.290975 0.218669
0.690059 0.308338 0.232105
0.725109 0.323488 0.241934
0.751598 0.337356 0.249781
0.768388 0.346319 0.256119
0.778694 0.350097 0.259897
0.785275 0.353900 0.263700
0.788200 0.356900 0.266700
0.788200 0.356900 0.266700
0.788200 0.356900 0.266700
0.788200 0.356900 0.266700
0.788200 0.356900 0.266700
0.788200 0.356900 0.266700
0.788200 0.356900 0.266700
0.788200 0.356900 0.266700
0.000000 0.045138 0.003413
0.000000 0.045138 0.003413
0.000000 0.045138 0.007069
0.007522 0.045138 0.000686
0.022464 0.045564 0.000000
0.050971 0.052206 0.003291
0.081388 0.059773 0.007069
0.117519 0.067780 0.008191
0.155022 0.075472 0.011656
0.195328 0.086257 0.018741
0.234323 0.097816 0.031869
0.279691 0.111746 0.048989
0.329205 0.129730 0.070388
0.378794 0.153858 0.100050
0.428474 0.180656 0.129656
0.481979 0.209322 0.154172
0.540906 0.239694 0.176944
0.598281 0.266409 0.199528
0.649555 0.289006 0.218669
0.693838 0.308338 0.232253
0.728888 0.323488 0.242163
0.755250 0.337356 0.249781
0.770734 0.346319 0.256119
0.778694 0.350097 0.259897
0.785275 0.353900 0.263700
0.788200 0.356900 0.266700
0.788200 0.356900 0.266700
0.788200 0.356900 0.266700
0.788200 0.356900 0.266700
0.788200 0.356900 0.266700
0.788200 0.356900 0.266700
0.788200 0.356900 0.266700
0.788200 0.356900 0.266700
0.000000 0.063638 0.007191
0.000000 0.063638 0.007191
0.000000 0.063638 0.010926
0.007069 0.063638 0.007012
0.018658 0.066517 0.003702
0.043927 0.070733 0.006581
0.071089 0.075101 0.007686
0.104398 0.079548 0.007800
0.139185 0.086406 0.010800
0.181566 0.094412 0.015041
0.226123 0.104894 0.020258
0.278212 0.116715 0.028437
0.331932 0.131178 0.044412
0.382572 0.153569 0.076858
0.431978 0.180169 0.113043
0.483780 0.208828 0.143979
0.539505 0.239200 0.173159
0.594951 0.265916 0.197680
0.646431 0.287248 0.215294
0.692371 0.306334 0.230249
0.729375 0.323488 0.242163
0.755738 0.337356 0.249781
0.771069 0.346319 0.256119
0.778694 0.350097 0.259897
0.785275 0.353900 0.263700
0.788200 0.356900 0.266700
0.788200 0.356900 0.266700
0.788200 0.356900 0.266700
0.788200 0.356900 0.266700
0.788200 0.356900 0.266700
0.788200 0.356900 0.266700
0.788200 0.356900 0.266700
0.788200 0.356900 0.266700
0.000000 0.079456 0.014219
0.000000 0.079456 0.014219
0.000000 0.079456 0.014922
0.004197 0.082328 0.014289
0.012184 0.086038 0.010806
0.033723 0.087142 0.010936
0.057200 0.090425 0.011050
0.089322 0.094218 0.011050
0.123519 0.098609 0.011613
0.166197 0.105394 0.012326
0.216169 0.113466 0.010800
0.273529 0.121802 0.008905
0.333155 0.134581 0.016614
0.388313 0.154856 0.050989
0.438961 0.180169 0.094527
0.487036 0.208828 0.132792
0.537616 0.239200 0.167756
0.591166 0.265916 0.194219
0.642644 0.286975 0.211500
0.688841 0.305963 0.226709
0.726206 0.323488 0.238963
0.752569 0.337356 0.247648
0.768890 0.346319 0.256119
0.778694 0.350097 0.259897
0.785275 0.353900 0.263700
0.788200 0.356900 0.266700
0.788200 0.356900 0.266700
0.788200 0.356900 0.266700
0.788200 0.356900 0.266700
0.788200 0.356900 0.266700
0.788200 0.356900 0.266700
0.788200 0.356900 0.266700
0.788200 0.356900 0.266700
0.000000 0.100759 0.021794
0.000000 0.100759 0.021794
0.000000 0.100759 0.021794
0.000773 0.101533 0.019033
0.005031 0.105025 0.015334
0.020315 0.105513 0.014847
0.037177 0.111157 0.014847
0.072779 0.113126 0.014847
0.110595 0.116313 0.014847
0.154034 0.122919 0.014847
0.202930 0.130529 0.012151
0.260281 0.138124 0.006315
0.326797 0.150625 0.007418
0.391846 0.170466 0.030718
0.451754 0.192010 0.066032
0.503071 0.214773 0.103047
0.552563 0.240763 0.142158
0.602890 0.267380 0.177831
0.648431 0.290100 0.204294
0.688681 0.309088 0.222931
0.722428 0.325441 0.236321
0.749838 0.337356 0.247156
0.768388 0.346319 0.256119
0.778694 0.350097 0.259897
0.785275 0.353900 0.263700
0.788200 0.356900 0.266700
0.788200 0.356900 0.266700
0.788200 0.356900 0.266700
0.788200 0.356900 0.266700
0.788200 0.356900 0.266700
0.788200 0.356900 0.266700
0.788200 0.356900 0.266700
0.788200 0.356900 0.266700
0.000000 0.123525 0.029425
0.000000 0.120691 0.029425
0.000000 0.120600 0.029425
0.000000 0.120600 0.025891
0.000853 0.121453 0.022047
0.006755 0.124043 0.021550
0.020581 0.130898 0.021550
0.057197 0.132375 0.019265
0.096081 0.135319 0.016431
0.141802 0.141906 0.017802
0.190913 0.149531 0.015944
0.248046 0.157119 0.007621
0.318016 0.169613 0.004509
0.391863 0.187716 0.016527
0.461141 0.207100 0.041066
0.517738 0.225065 0.074775
0.570088 0.245588 0.116175
0.619707 0.272087 0.157118
0.660752 0.296825 0.190298
0.696472 0.314624 0.214416
0.726328 0.328941 0.230988
0.752203 0.339325 0.244231
0.770398 0.346319 0.253194
0.778694 0.350097 0.256972
0.785275 0.353900 0.260756
0.788200 0.356900 0.263700
0.788200 0.356900 0.263700
0.788200 0.356900 0.263700
0.788200 0.356900 0.264075
0.788200 0.356900 0.266700
0.788200 0.356900 0.266700
0.788200 0.356900 0.266700
0.788200 0.356900 0.266700
0.000000 0.143488 0.034203
0.000000 0.142425 0.034203
0.000000 0.142391 0.034203
0.000000 0.142391 0.028128
0.000000 0.142391 0.024000
0.000925 0.143316 0.023500
0.009240 0.147570 0.023500
0.042657 0.150759 0.020453
0.078806 0.154313 0.016675
0.126563 0.160894 0.018503
0.178677 0.168519 0.018846
0.240335 0.176106 0.014486
0.312870 0.188600 0.010629
0.390511 0.204461 0.015529
0.463213 0.222309 0.030298
0.525699 0.237736 0.054938
0.585784 0.255531 0.090070
0.642179 0.279338 0.127864
0.686747 0.301578 0.160906
0.721542 0.318981 0.188797
0.749403 0.332728 0.212847
0.770945 0.343748 0.232935
0.784280 0.351947 0.245512
0.788401 0.354987 0.253982
0.790252 0.356757 0.259775
0.791075 0.359090 0.262700
0.790536 0.356900 0.262700
0.788200 0.356900 0.262700
0.788200 0.356900 0.263200
0.788200 0.356900 0.266700
0.788200 0.356900 0.266700
0.788200 0.356900 0.266700
0.788200 0.356900 0.266700
0.000000 0.167906 0.040663
0.000000 0.167906 0.040663
0.000000 0.167906 0.040663
0.000000 0.167906 0.033594
0.000000 0.167906 0.029423
0.000000 0.167906 0.028931
0.004159 0.168896 0.026753
0.029484 0.172196 0.023149
0.060719 0.177992 0.019356
0.108316 0.185293 0.021184
0.163391 0.191047 0.024172
0.229477 0.199580 0.022427
0.305352 0.211300 0.018625
0.384675 0.223886 0.018610
0.460866 0.238692 0.025415
0.530311 0.252326 0.040184
0.598278 0.268269 0.066159
0.662574 0.288471 0.097127
0.714121 0.306903 0.125552
0.751944 0.322759 0.155000
0.778395 0.337512 0.185819
0.794936 0.350608 0.212824
0.802066 0.359560 0.232932
0.802171 0.362263 0.245101
0.799573 0.362567 0.252402
0.797563 0.362042 0.257338
0.796825 0.356900 0.257840
0.792783 0.356900 0.260019
0.788200 0.356900 0.260510
0.788200 0.356900 0.263950
0.788200 0.356900 0.264122
0.788200 0.356900 0.266700
0.788200 0.356900 0.266700
0.000000 0.199666 0.055963
0.000000 0.199666 0.055963
0.000000 0.199666 0.055963
0.000000 0.199666 0.051213
0.000000 0.199666 0.047309
0.000000 0.199666 0.044662
0.003169 0.201745 0.038961
0.017335 0.203272 0.034664
0.040733 0.209416 0.030878
0.084898 0.215204 0.027188
0.138308 0.219388 0.027070
0.208187 0.228307 0.029957
0.290215 0.239694 0.030406
0.371922 0.251113 0.026864
0.449497 0.263261 0.026312
0.526777 0.275232 0.034428
0.604542 0.288005 0.052369
0.674991 0.303220 0.072258
0.731389 0.317971 0.090022
0.773099 0.329642 0.113350
0.801572 0.341788 0.143006
0.819005 0.355616 0.172952
0.825847 0.364578 0.199162
0.824750 0.367259 0.217137
0.820972 0.366620 0.228444
0.816913 0.363554 0.235988
0.811651 0.359459 0.243249
0.805169 0.359459 0.248907
0.798183 0.359459 0.251929
0.795464 0.359459 0.258061
0.790661 0.359299 0.262950
0.788200 0.356900 0.266700
0.788200 0.356900 0.266700
0.000000 0.241175 0.079888
0.000000 0.238814 0.077526
0.000000 0.238738 0.077450
0.000000 0.238738 0.076125
0.000000 0.238738 0.072575
0.000000 0.240794 0.066688
0.003169 0.244344 0.059320
0.009261 0.245075 0.054754
0.022903 0.249144 0.049134
0.058305 0.251578 0.040147
0.106643 0.254681 0.033898
0.178712 0.265219 0.037494
0.267273 0.277436 0.041738
0.353285 0.287396 0.038007
0.433221 0.296410 0.033441
0.517057 0.305436 0.036001
0.604681 0.315694 0.044094
0.681928 0.326619 0.051062
0.742016 0.336419 0.059215
0.787406 0.344859 0.074836
0.820477 0.353572 0.097600
0.842285 0.364331 0.126456
0.851530 0.373294 0.155188
0.853811 0.375975 0.178164
0.849988 0.375000 0.193759
0.845348 0.371208 0.204019
0.837294 0.368113 0.215169
0.827320 0.367732 0.224914
0.817850 0.365675 0.233333
0.811284 0.365446 0.241172
0.801552 0.362994 0.250852
0.795499 0.359261 0.256964
0.793138 0.356900 0.259325
0.004631 0.286766 0.101838
0.004631 0.285231 0.100303
0.004631 0.285181 0.100253
0.002533 0.283083 0.098155
0.002316 0.282866 0.094525
0.002316 0.284202 0.089326
0.005484 0.287619 0.083997
0.007453 0.288350 0.078081
0.014913 0.291305 0.069081
0.038759 0.292291 0.058056
0.075816 0.296564 0.049375
0.146995 0.307290 0.049017
0.238706 0.319240 0.051122
0.330857 0.328305 0.051201
0.417695 0.335912 0.049946
0.504535 0.341055 0.046404
0.595786 0.347252 0.042338
0.680372 0.355619 0.039699
0.747645 0.363223 0.042592
0.798021 0.370829 0.053331
0.834459 0.377563 0.069816
0.859681 0.384268 0.093228
0.872906 0.391672 0.117884
0.878532 0.394353 0.138427
0.878632 0.392799 0.153790
0.875738 0.387275 0.165191
0.867431 0.383317 0.176611
0.856006 0.378535 0.187987
0.845104 0.373291 0.198889
0.837355 0.372919 0.206852
0.828127 0.369088 0.218148
0.818375 0.365309 0.228138
0.810053 0.361531 0.240947
0.010050 0.334588 0.123019
0.010050 0.334588 0.120894
0.010050 0.334588 0.120825
0.006465 0.331002 0.119279
0.006094 0.330631 0.115706
0.006094 0.330631 0.113742
0.009308 0.333846 0.110300
0.010050 0.334588 0.101717
0.014288 0.335867 0.090669
0.027860 0.337871 0.079278
0.052324 0.343850 0.067557
0.117559 0.354031 0.062292
0.208323 0.365463 0.060131
0.305946 0.374519 0.064242
0.400787 0.382100 0.067631
0.490088 0.384366 0.061386
0.582494 0.386141 0.050856
0.672246 0.391598 0.042955
0.746532 0.398038 0.041180
0.803632 0.404728 0.046111
0.845291 0.409556 0.056196
0.874369 0.413983 0.072239
0.890386 0.418881 0.090221
0.899039 0.421563 0.105986
0.903419 0.420161 0.118630
0.901713 0.414131 0.129047
0.893818 0.406142 0.136998
0.884178 0.398198 0.148394
0.873287 0.389170 0.159325
0.865883 0.384956 0.167051
0.859891 0.380950 0.176768
0.846514 0.375116 0.192556
0.837263 0.371338 0.211544
0.018016 0.386066 0.143713
0.016008 0.386066 0.139934
0.015944 0.386066 0.139813
0.012367 0.384366 0.139813
0.011997 0.384191 0.138213
0.011997 0.382398 0.137984
0.015204 0.385316 0.134816
0.015944 0.386066 0.124866
0.018869 0.387620 0.113474
0.026836 0.389451 0.100601
0.044304 0.393904 0.085919
0.096817 0.403438 0.075699
0.178210 0.416164 0.069154
0.279216 0.428457 0.073903
0.381083 0.438892 0.079862
0.472806 0.442263 0.077830
0.566061 0.441284 0.071459
0.659433 0.441070 0.061040
0.740185 0.443472 0.051700
0.805472 0.448278 0.050130
0.854941 0.452074 0.054077
0.887506 0.455900 0.062772
0.904040 0.459713 0.074598
0.914324 0.462394 0.087250
0.919969 0.461419 0.097620
0.919169 0.455913 0.104141
0.914831 0.444833 0.109012
0.907232 0.434601 0.118427
0.899875 0.421663 0.127307
0.892445 0.412262 0.132865
0.886265 0.404131 0.139110
0.875238 0.392698 0.154033
0.867681 0.386913 0.169006
0.027450 0.441200 0.162700
0.023672 0.439311 0.158922
0.023550 0.439250 0.158800
0.021783 0.441017 0.158800
0.021600 0.441200 0.158800
0.021600 0.437867 0.158800
0.023184 0.438875 0.155631
0.023550 0.440773 0.147244
0.026475 0.445588 0.136288
0.031691 0.447050 0.120664
0.045484 0.448391 0.103566
0.084436 0.456744 0.089027
0.152200 0.470613 0.078175
0.252205 0.486950 0.080348
0.360666 0.501834 0.087641
0.457841 0.508886 0.094370
0.554875 0.509800 0.097075
0.652870 0.507058 0.087803
0.738250 0.504803 0.074134
0.808634 0.506692 0.067045
0.863963 0.508581 0.064700
0.899575 0.511158 0.066728
0.917406 0.514969 0.073038
0.927672 0.517650 0.081170
0.933838 0.516188 0.089225
0.935300 0.509219 0.092577
0.933828 0.497788 0.095206
0.927145 0.485755 0.100609
0.924763 0.470838 0.104388
0.918864 0.457378 0.107988
0.911259 0.442169 0.110291
0.903717 0.427144 0.117956
0.898050 0.417650 0.127450
0.035056 0.492631 0.176203
0.031278 0.488853 0.172425
0.029442 0.487017 0.172303
0.030985 0.490438 0.172303
0.031156 0.490803 0.172303
0.031156 0.489055 0.172303
0.031156 0.488731 0.169096
0.031156 0.491778 0.162263
0.034081 0.498516 0.151706
0.037859 0.500478 0.136016
0.048493 0.500478 0.117524
0.077513 0.508222 0.099882
0.134692 0.522061 0.086511
0.231125 0.539569 0.085680
0.343925 0.557417 0.092516
0.451437 0.570092 0.105240
0.558431 0.578292 0.116222
0.661144 0.580151 0.115078
0.746760 0.577950 0.106328
0.816166 0.576465 0.096080
0.872299 0.572905 0.086368
0.910428 0.570674 0.081699
0.931327 0.572053 0.082507
0.942881 0.574734 0.085626
0.949534 0.572784 0.090931
0.952459 0.564353 0.093856
0.950988 0.552922 0.093902
0.944327 0.540897 0.093814
0.942519 0.525772 0.092531
0.940100 0.510197 0.094344
0.934311 0.491567 0.094591
0.928541 0.478252 0.098426
0.924763 0.468638 0.102441
0.040906 0.533044 0.182106
0.037128 0.529266 0.179981
0.034950 0.525488 0.179913
0.038347 0.528778 0.179913
0.038713 0.529144 0.178420
0.038713 0.529144 0.178206
0.037326 0.529144 0.174992
0.037006 0.532191 0.169455
0.039931 0.538969 0.159295
0.043741 0.540944 0.145112
0.052932 0.542117 0.128372
0.076093 0.549245 0.109900
0.125792 0.562477 0.095823
0.217320 0.579981 0.092721
0.329881 0.599985 0.097065
0.445672 0.618567 0.111069
0.562972 0.634306 0.127809
0.669484 0.643512 0.136962
0.754940 0.645325 0.137015
0.823278 0.642849 0.127209
0.878809 0.635629 0.112823
0.918746 0.628284 0.102454
0.941663 0.625877 0.098775
0.955146 0.626213 0.099392
0.962994 0.624263 0.101517
0.965919 0.615831 0.103163
0.964446 0.604728 0.102111
0.957453 0.594118 0.097213
0.954163 0.579170 0.095144
0.953957 0.565247 0.093613
0.951725 0.548187 0.093750
0.947946 0.535281 0.095753
0.944125 0.527725 0.094100
0.043100 0.564072 0.184300
0.042431 0.560294 0.184300
0.042409 0.558001 0.184300
0.045944 0.559955 0.184300
0.046309 0.560172 0.180888
0.046309 0.560172 0.180400
0.043141 0.560172 0.177231
0.042409 0.561981 0.173375
0.044146 0.568382 0.166102
0.048710 0.571486 0.152684
0.058340 0.575730 0.137503
0.077950 0.581535 0.120787
0.121070 0.592494 0.107219
0.205219 0.609425 0.101853
0.312889 0.630640 0.103437
0.429625 0.652201 0.116811
0.551203 0.672744 0.135727
0.661423 0.688498 0.149872
0.750926 0.695036 0.155789
0.823590 0.695009 0.150304
0.882419 0.689804 0.137594
0.925282 0.682623 0.125532
0.949275 0.679884 0.119347
0.963371 0.676758 0.119347
0.972784 0.673659 0.118951
0.975709 0.665552 0.117763
0.974544 0.656141 0.116597
0.969132 0.647598 0.111547
0.966975 0.634213 0.111052
0.965553 0.622568 0.107435
0.965309 0.608831 0.105863
0.961579 0.593768 0.104256
0.959278 0.583103 0.100478
0.044600 0.587750 0.182838
0.048439 0.585389 0.182838
0.049934 0.585313 0.182838
0.052234 0.585313 0.182838
0.052463 0.585313 0.180705
0.052463 0.585313 0.180400
0.049294 0.585313 0.177231
0.048563 0.585313 0.173375
0.048563 0.588969 0.169575
0.054169 0.594042 0.158394
0.064475 0.600981 0.144655
0.080065 0.606009 0.129922
0.116323 0.614725 0.117150
0.193104 0.630788 0.109541
0.293430 0.651146 0.108734
0.405286 0.674049 0.120213
0.526206 0.698281 0.139931
0.639328 0.718143 0.156679
0.734623 0.729463 0.165431
0.814672 0.733338 0.165645
0.879997 0.731486 0.158888
0.927434 0.728400 0.148394
0.954363 0.727181 0.140193
0.969481 0.723403 0.139188
0.978938 0.719000 0.138578
0.981863 0.712814 0.136750
0.981405 0.706393 0.136019
0.979425 0.698416 0.132850
0.978930 0.688433 0.132363
0.975463 0.678428 0.128579
0.975219 0.668169 0.124741
0.971563 0.653005 0.120928
0.971563 0.639213 0.117150
0.049781 0.604056 0.177684
0.052261 0.604056 0.177684
0.054740 0.604056 0.177684
0.054900 0.604056 0.177684
0.054900 0.604056 0.177684
0.054900 0.604056 0.177684
0.052821 0.604056 0.175605
0.052341 0.604056 0.173074
0.052341 0.604056 0.169575
0.056983 0.609663 0.160191
0.066913 0.617288 0.148788
0.080903 0.622316 0.134797
0.113238 0.630172 0.122025
0.182067 0.645719 0.112969
0.273970 0.664706 0.109800
0.379185 0.687856 0.120213
0.497711 0.714448 0.141150
0.612010 0.736169 0.160259
0.710737 0.750356 0.170908
0.796857 0.757501 0.174420
0.868793 0.758800 0.172793
0.922273 0.759638 0.164700
0.953282 0.758419 0.155738
0.971919 0.755018 0.153056
0.981375 0.752538 0.153056
0.984300 0.750059 0.153056
0.984300 0.746585 0.152325
0.984300 0.739184 0.149156
0.983980 0.732914 0.148664
0.981741 0.726569 0.144982
0.981581 0.719904 0.142498
0.979181 0.707404 0.139916
0.979181 0.697272 0.136138
0.056119 0.614238 0.171281
0.056119 0.614238 0.171281
0.056119 0.614238 0.171281
0.056119 0.614238 0.171281
0.056119 0.614238 0.171281
0.056119 0.614238 0.171281
0.056119 0.614238 0.171281
0.056119 0.614238 0.171281
0.056119 0.614238 0.168356
0.058922 0.618968 0.159848
0.067293 0.626250 0.148788
0.080903 0.631278 0.135597
0.112476 0.637494 0.123263
0.172560 0.652056 0.113477
0.254506 0.670358 0.109800
0.355692 0.693009 0.119565
0.472325 0.720225 0.139931
0.586544 0.744309 0.159041
0.687750 0.760518 0.171371
0.777340 0.768735 0.178579
0.854188 0.772988 0.180156
0.912636 0.776188 0.174081
0.948544 0.775350 0.165919
0.970700 0.773506 0.163238
0.980461 0.773506 0.163238
0.984300 0.773506 0.163238
0.984300 0.772272 0.162506
0.984300 0.766316 0.159338
0.984452 0.762525 0.158994
0.985519 0.758774 0.156588
0.985443 0.755932 0.156511
0.984300 0.749555 0.155285
0.984300 0.743113 0.152688
0.058800 0.619600 0.168600
0.058800 0.619600 0.168600
0.058800 0.619600 0.168600
0.058800 0.619600 0.168600
0.058800 0.619600 0.168600
0.058800 0.619600 0.168600
0.058800 0.619600 0.168600
0.058800 0.619600 0.168600
0.058800 0.619600 0.165675
0.061603 0.622403 0.159094
0.068131 0.628931 0.148788
0.080903 0.633959 0.137356
0.109411 0.640878 0.125988
0.161579 0.655195 0.114594
0.235655 0.671531 0.109800
0.335416 0.693009 0.118141
0.454434 0.721600 0.136702
0.569750 0.748316 0.155263
0.670956 0.765919 0.169246
0.762725 0.775016 0.179669
0.843178 0.781629 0.183249
0.904564 0.786522 0.178791
0.944746 0.786522 0.172397
0.966914 0.786522 0.169697
0.977332 0.786522 0.169697
0.983203 0.786522 0.169697
0.983409 0.785785 0.169171
0.984300 0.782156 0.166894
0.984788 0.779294 0.166894
0.988200 0.775819 0.166894
0.987956 0.775575 0.166650
0.984300 0.771831 0.162994
0.984300 0.769116 0.162994
0.059775 0.620575 0.168600
0.059775 0.620575 0.168600
0.059775 0.620575 0.168600
0.059775 0.620575 0.168600
0.059775 0.620575 0.168600
0.059775 0.620575 0.168600
0.059775 0.620575 0.168600
0.059775 0.620575 0.168600
0.059775 0.620575 0.165675
0.061877 0.622677 0.159094
0.067461 0.628931 0.149458
0.079928 0.633959 0.138348
0.104278 0.642675 0.126972
0.150028 0.655784 0.115569
0.219295 0.670556 0.110227
0.316354 0.691503 0.117623
0.437263 0.719625 0.134325
0.555394 0.746341 0.151484
0.657027 0.764808 0.166683
0.750146 0.777294 0.179471
0.833206 0.787628 0.185275
0.897930 0.793175 0.182594
0.940248 0.793175 0.176233
0.963390 0.793175 0.173500
0.974475 0.793175 0.173500
0.980400 0.793175 0.173500
0.980948 0.792430 0.173500
0.983325 0.789200 0.173500
0.983813 0.788834 0.173500
0.987225 0.786275 0.173500
0.986981 0.786030 0.173255
0.983325 0.782350 0.169575
0.983325 0.782350 0.169575
0.062700 0.623500 0.168600
0.062700 0.623500 0.168600
0.062700 0.623500 0.168600
0.062700 0.623500 0.168600
0.062700 0.623500 0.168600
0.062700 0.623500 0.168600
0.062700 0.623500 0.168600
0.062700 0.623500 0.168600
0.062700 0.623500 0.165675
0.062700 0.623500 0.159707
0.065450 0.628345 0.152923
0.075869 0.633666 0.143036
0.097264 0.642675 0.131098
0.139309 0.654047 0.118840
0.204886 0.667151 0.111506
0.296237 0.685678 0.116069
0.412742 0.711556 0.130973
0.530447 0.738245 0.147696
0.634569 0.760142 0.163233
0.733059 0.776787 0.178878
0.821532 0.788725 0.188200
0.889183 0.796100 0.185812
0.933851 0.796100 0.180034
0.960659 0.796100 0.177113
0.974475 0.796100 0.176500
0.980400 0.796100 0.176500
0.980400 0.795529 0.176500
0.980400 0.793053 0.176500
0.980781 0.793053 0.176500
0.983447 0.793053 0.176500
0.983256 0.792858 0.176305
0.980400 0.789928 0.173375
0.980400 0.789928 0.173375
0.062700 0.623500 0.168600
0.062700 0.623500 0.168600
0.062700 0.623500 0.168600
0.062700 0.623500 0.168600
0.062700 0.623500 0.168600
0.062700 0.623500 0.168600
0.062700 0.623500 0.168600
0.062700 0.623500 0.168600
0.062700 0.623500 0.165675
0.062700 0.623500 0.162422
0.064934 0.625734 0.158850
0.071081 0.631881 0.149888
0.087999 0.641475 0.136019
0.125505 0.652577 0.121255
0.186409 0.663964 0.112154
0.272540 0.679930 0.115282
0.382728 0.703169 0.127969
0.499104 0.729759 0.143483
0.608331 0.754650 0.160744
0.711524 0.774247 0.178147
0.803493 0.787994 0.188024
0.876578 0.795620 0.187603
0.927169 0.796329 0.183813
