luts/A_v_log/C-8120-VLOG.cube
# Copyright: (C) Copyright 2010-2019 by IWLTBAP SAS
# Cannot be resold, shared or otherwise redistributed
# Website: https://luts.iwltbap.com
TITLE "IWLTBAP 8120 (V-Log L)"
LUT_3D_SIZE 5
0.000000 0.000000 0.000000
0.157850 0.066675 0.032350
0.539200 0.243150 0.178450
0.785275 0.353900 0.263700
0.788200 0.356900 0.266700
0.000000 0.123525 0.029425
0.096081 0.135319 0.016431
0.570088 0.245588 0.116175
0.785275 0.353900 0.260756
0.788200 0.356900 0.266700
0.027450 0.441200 0.162700
0.026475 0.445588 0.136288
0.554875 0.509800 0.097075
0.933838 0.516188 0.089225
0.898050 0.417650 0.127450
0.059775 0.620575 0.168600
0.059775 0.620575 0.165675
0.437263 0.719625 0.134325
0.974475 0.793175 0.173500
0.983325 0.782350 0.169575
0.062700 0.623500 0.168600
0.062700 0.623500 0.168600
0.211750 0.674500 0.117600
0.953900 0.800000 0.183325
0.980400 0.800000 0.180400
0.003900 0.020575 0.271550
0.145319 0.031156 0.272825
0.518138 0.201000 0.169138
0.782350 0.350956 0.262950
0.788200 0.356900 0.266700
0.000000 0.152950 0.244125
0.038488 0.141602 0.207658
0.565319 0.244103 0.172406
0.782350 0.350956 0.260756
0.788200 0.356900 0.266700
0.011275 0.449000 0.232813
0.013709 0.453941 0.194734
0.540206 0.492150 0.099506
0.929928 0.495103 0.091184
0.891175 0.408838 0.134800
0.059775 0.620575 0.168600
0.059775 0.620575 0.165675
0.390200 0.707109 0.125450
0.969839 0.792242 0.172519
0.983325 0.780156 0.169575
0.062700 0.623500 0.168600
0.062700 0.623500 0.168600
0.194588 0.665675 0.115650
0.950975 0.796100 0.180400
0.980400 0.800000 0.180400
0.017650 0.103900 0.490200
0.035300 0.142638 0.602475
0.424525 0.134325 0.631375
0.764213 0.236775 0.452925
0.747050 0.266650 0.286250
0.002925 0.197025 0.618613
0.012016 0.185297 0.612756
0.404906 0.138731 0.624256
0.755509 0.238275 0.416538
0.744125 0.274500 0.282350
0.000000 0.515700 0.652950
0.000000 0.506875 0.631863
0.240200 0.497050 0.582850
0.866919 0.541669 0.462481
0.834300 0.429425 0.328425
0.010775 0.691700 0.495100
0.012247 0.686991 0.479897
0.182863 0.724031 0.351969
0.967159 0.823550 0.303459
0.986250 0.787250 0.202925
0.031350 0.662750 0.354900
0.033350 0.654900 0.322575
0.115700 0.677450 0.235300
0.944150 0.811750 0.205400
0.980400 0.801950 0.182350
0.032375 0.146075 0.608800
0.036763 0.148269 0.616169
0.158800 0.200000 0.754900
0.657119 0.208800 0.808800
0.691175 0.211800 0.811800
0.034569 0.150463 0.619094
0.035117 0.148817 0.617280
0.152938 0.200000 0.753913
0.657850 0.208800 0.808800
0.694100 0.213994 0.814725
0.000000 0.429400 0.750013
0.000000 0.417553 0.744978
0.018131 0.371319 0.771306
0.678084 0.317138 0.837166
0.711288 0.249525 0.823550
0.000000 0.710775 0.839200
0.000000 0.707850 0.836275
0.000000 0.742631 0.859813
0.863964 0.932045 0.964519
0.912263 0.911538 0.942669
0.000975 0.721600 0.847100
0.000000 0.720600 0.843100
0.000000 0.735288 0.849538
0.795819 0.943644 0.932844
0.961775 0.956825 0.857825
0.035300 0.149000 0.611800
0.035300 0.149000 0.611800
0.119600 0.201950 0.749000
0.623550 0.204875 0.804875
0.678400 0.211800 0.815700
0.035300 0.149000 0.611800
0.035300 0.149000 0.611800
0.117600 0.198538 0.749000
0.620625 0.203900 0.804875
0.678400 0.211800 0.815700
0.000000 0.335300 0.741200
0.003900 0.323988 0.735300
0.018625 0.281375 0.748025
0.611263 0.234813 0.808825
0.680400 0.215700 0.815700
0.000000 0.698025 0.829450
0.000000 0.691931 0.833350
0.000000 0.700500 0.841163
0.757619 0.874006 0.963725
0.859825 0.808800 0.959825
0.003900 0.721600 0.847100
0.003900 0.721600 0.847100
0.001950 0.721600 0.847100
0.543125 0.913750 0.959825
0.988200 0.988200 0.988200
