luts/A_v_log/C-8120-VLOG.cube
# Copyright: (C) Copyright 2010-2019 by IWLTBAP SAS
# Cannot be resold, shared or otherwise redistributed
# Website: https://luts.iwltbap.com
TITLE "IWLTBAP 8120 (V-Log L)"
LUT_3D_SIZE 9
0.000000 0.000000 0.000000
0.048550 0.011300 0.007800
0.157850 0.066675 0.032350
0.329388 0.132350 0.080413
0.539200 0.243150 0.178450
0.729375 0.323488 0.242163
0.785275 0.353900 0.263700
0.788200 0.356900 0.266700
0.788200 0.356900 0.266700
0.000000 0.045138 0.003413
0.022464 0.045564 0.000000
0.155022 0.075472 0.011656
0.329205 0.129730 0.070388
0.540906 0.239694 0.176944
0.728888 0.323488 0.242163
0.785275 0.353900 0.263700
0.788200 0.356900 0.266700
0.788200 0.356900 0.266700
0.000000 0.123525 0.029425
0.000853 0.121453 0.022047
0.096081 0.135319 0.016431
0.318016 0.169613 0.004509
0.570088 0.245588 0.116175
0.726328 0.328941 0.230988
0.785275 0.353900 0.260756
0.788200 0.356900 0.264075
0.788200 0.356900 0.266700
0.000000 0.241175 0.079888
0.000000 0.238738 0.072575
0.022903 0.249144 0.049134
0.267273 0.277436 0.041738
0.604681 0.315694 0.044094
0.820477 0.353572 0.097600
0.849988 0.375000 0.193759
0.817850 0.365675 0.233333
0.793138 0.356900 0.259325
0.027450 0.441200 0.162700
0.021600 0.441200 0.158800
0.026475 0.445588 0.136288
0.152200 0.470613 0.078175
0.554875 0.509800 0.097075
0.863963 0.508581 0.064700
0.933838 0.516188 0.089225
0.924763 0.470838 0.104388
0.898050 0.417650 0.127450
0.044600 0.587750 0.182838
0.052463 0.585313 0.180705
0.048563 0.588969 0.169575
0.116323 0.614725 0.117150
0.526206 0.698281 0.139931
0.879997 0.731486 0.158888
0.978938 0.719000 0.138578
0.978930 0.688433 0.132363
0.971563 0.639213 0.117150
0.059775 0.620575 0.168600
0.059775 0.620575 0.168600
0.059775 0.620575 0.165675
0.104278 0.642675 0.126972
0.437263 0.719625 0.134325
0.833206 0.787628 0.185275
0.974475 0.793175 0.173500
0.983813 0.788834 0.173500
0.983325 0.782350 0.169575
0.062700 0.623500 0.168600
0.062700 0.623500 0.168600
0.062700 0.623500 0.166041
0.073520 0.632070 0.142480
0.326994 0.695363 0.115450
0.764895 0.784825 0.186958
0.963725 0.800000 0.176500
0.980400 0.800000 0.180400
0.980400 0.800000 0.180400
0.062700 0.623500 0.168600
0.062700 0.623500 0.168600
0.062700 0.623500 0.168600
0.062700 0.626000 0.162263
0.211750 0.674500 0.117600
0.697538 0.772050 0.178388
0.953900 0.800000 0.183325
0.980400 0.800000 0.180400
0.980400 0.800000 0.180400
0.007313 0.007313 0.139713
0.037238 0.018625 0.137811
0.153925 0.048050 0.060397
0.315705 0.121258 0.074325
0.525988 0.237494 0.178450
0.729375 0.323488 0.242163
0.785275 0.353900 0.263700
0.788200 0.356900 0.266700
0.788200 0.356900 0.266700
0.000000 0.052450 0.102025
0.005252 0.049038 0.091910
0.155403 0.067521 0.036632
0.316933 0.124670 0.072523
0.525561 0.235087 0.174562
0.722550 0.323488 0.239763
0.785275 0.353900 0.263700
0.788200 0.356900 0.266700
0.788200 0.356900 0.266700
0.000000 0.127425 0.083228
0.000000 0.124013 0.059383
0.089969 0.135319 0.028585
0.321941 0.168013 0.004509
0.560316 0.243625 0.118552
0.722428 0.325810 0.231673
0.785275 0.353900 0.263332
0.788200 0.354275 0.266372
0.788200 0.356900 0.266700
0.000000 0.237580 0.082789
0.000000 0.236933 0.075869
0.015095 0.239834 0.042629
0.260808 0.269742 0.039022
0.583500 0.305146 0.037025
0.816728 0.347000 0.100038
0.849050 0.371587 0.192259
0.811922 0.365370 0.237098
0.793138 0.356900 0.257520
0.021600 0.435300 0.162700
0.019850 0.429919 0.158800
0.024769 0.440456 0.134388
0.155369 0.461273 0.075646
0.556244 0.502344 0.095100
0.862165 0.501973 0.060983
0.931705 0.506681 0.088433
0.920819 0.463969 0.102438
0.894594 0.415456 0.127450
0.048563 0.587750 0.180705
0.050330 0.583873 0.180240
0.049050 0.583850 0.171000
0.107720 0.610344 0.120867
0.509069 0.694019 0.134813
0.873294 0.726023 0.154948
0.972407 0.717172 0.136384
0.977156 0.688250 0.128455
0.971563 0.646867 0.113250
0.059775 0.620575 0.168600
0.059775 0.620575 0.168600
0.059775 0.620575 0.165675
0.100369 0.642675 0.130900
0.419991 0.714009 0.132863
0.827450 0.784309 0.188163
0.973622 0.793175 0.173500
0.986418 0.786595 0.173500
0.983325 0.782350 0.169575
0.062700 0.623500 0.168600
0.062700 0.623500 0.168600
0.062700 0.623500 0.168280
0.073216 0.631883 0.145626
0.318831 0.692095 0.117613
0.775683 0.788527 0.186794
0.967159 0.800000 0.179913
0.980400 0.800000 0.180400
0.980400 0.800000 0.180400
0.062700 0.623500 0.168600
0.062700 0.623500 0.168600
0.062700 0.623500 0.168600
0.062700 0.623500 0.159825
0.211750 0.668850 0.115650
0.692967 0.772050 0.174975
0.956825 0.800000 0.183325
0.980400 0.800000 0.180400
0.980400 0.800000 0.180400
0.003900 0.020575 0.271550
0.005750 0.019600 0.283934
0.145319 0.031156 0.272825
0.335434 0.071319 0.180888
0.518138 0.201000 0.169138
0.720113 0.314225 0.239209
0.782350 0.350956 0.262950
0.788200 0.354275 0.264075
0.788200 0.356900 0.266700
0.000000 0.063875 0.267869
0.000107 0.057691 0.261775
0.113369 0.037499 0.258838
0.326661 0.070221 0.165604
0.505623 0.193738 0.161250
0.713728 0.312214 0.232863
0.783081 0.350956 0.263700
0.788200 0.356572 0.266372
0.788200 0.356900 0.266700
0.000000 0.152950 0.244125
0.000000 0.145783 0.233813
0.038488 0.141602 0.207658
0.319719 0.164349 0.140980
0.565319 0.244103 0.172406
0.721849 0.318034 0.232120
0.782350 0.350956 0.260756
0.788200 0.356900 0.266700
0.788200 0.356900 0.266700
0.000000 0.272550 0.231013
0.000000 0.265697 0.222188
0.002109 0.259678 0.180880
0.226917 0.266581 0.122861
0.616730 0.309381 0.065428
0.815128 0.346623 0.119810
0.838604 0.367747 0.200152
0.807550 0.368783 0.244417
0.791309 0.356900 0.257825
0.011275 0.449000 0.232813
0.009069 0.447055 0.225256
0.013709 0.453941 0.194734
0.121647 0.453259 0.109991
0.540206 0.492150 0.099506
0.855808 0.495581 0.059581
0.929928 0.495103 0.091184
0.919977 0.458472 0.105131
0.891175 0.408838 0.134800
0.042772 0.585678 0.195453
0.041647 0.583850 0.196451
0.043862 0.579888 0.183306
0.101598 0.606863 0.124003
0.503198 0.687506 0.135788
0.867725 0.720113 0.151825
0.974709 0.707488 0.133307
0.974975 0.681351 0.125485
0.969125 0.644125 0.113250
0.059775 0.620575 0.168600
0.059409 0.620575 0.168600
0.059775 0.620575 0.165675
0.089291 0.636976 0.133825
0.390200 0.707109 0.125450
0.816531 0.781377 0.185275
0.969839 0.792242 0.172519
0.983447 0.786275 0.170066
0.983325 0.780156 0.169575
0.062700 0.623500 0.168600
0.062700 0.623500 0.168600
0.062700 0.623500 0.168600
0.070403 0.630055 0.147861
0.304658 0.691230 0.119106
0.757830 0.784456 0.183020
0.966229 0.800000 0.177841
0.980400 0.800000 0.180400
0.980400 0.800000 0.177841
0.062700 0.623500 0.168600
0.062700 0.623500 0.168600
0.062700 0.623500 0.168600
0.062700 0.624125 0.162263
0.194588 0.665675 0.115650
0.676963 0.772050 0.172050
0.950975 0.796100 0.180400
0.980400 0.800000 0.180400
0.980400 0.800000 0.180400
0.003900 0.047550 0.384325
0.005850 0.052425 0.389017
0.037628 0.069116 0.425475
0.251611 0.068064 0.432484
0.530406 0.138456 0.313488
0.681438 0.249025 0.253622
0.746938 0.303897 0.254900
0.766167 0.326663 0.255875
0.783325 0.348025 0.264200
0.002438 0.054042 0.385605
0.002597 0.051460 0.385765
0.031793 0.068445 0.426863
0.260592 0.061178 0.419414
0.518625 0.131875 0.319604
0.676998 0.252262 0.248708
0.748063 0.304444 0.256363
0.766167 0.325623 0.256507
0.779425 0.348025 0.260263
0.000000 0.182372 0.425888
0.000000 0.175628 0.411315
0.000274 0.164989 0.403214
0.203869 0.133655 0.391969
0.536027 0.162548 0.284808
0.682403 0.255084 0.244518
0.748794 0.308169 0.254900
0.773330 0.334313 0.258937
0.782350 0.348025 0.260263
0.000000 0.314213 0.417698
0.000000 0.302942 0.415924
0.000000 0.305261 0.398053
0.103692 0.275286 0.358266
0.553584 0.309220 0.275658
0.791200 0.362589 0.259129
0.806324 0.384121 0.285994
0.797241 0.357715 0.256736
0.787309 0.353486 0.261786
0.000731 0.487744 0.412500
0.000000 0.484795 0.400902
0.000000 0.481005 0.383958
0.034616 0.473538 0.313463
0.464344 0.494100 0.256250
0.887170 0.514195 0.147769
0.930572 0.509066 0.166778
0.908669 0.448625 0.131912
0.885813 0.401950 0.152181
0.029411 0.613263 0.320148
0.028131 0.609795 0.321611
0.026425 0.605386 0.306511
0.059189 0.623125 0.243818
0.424901 0.690443 0.203084
0.855971 0.727356 0.187569
0.971047 0.705921 0.149395
0.974975 0.666395 0.128006
0.966102 0.624989 0.107850
0.047053 0.635178 0.249050
0.046004 0.632741 0.245572
0.046805 0.632375 0.239809
0.075044 0.648969 0.193854
0.362689 0.708995 0.152089
0.809051 0.785281 0.193183
0.969594 0.789200 0.174906
0.984605 0.785784 0.173009
0.983934 0.776575 0.167747
0.056363 0.629445 0.204588
0.052950 0.629876 0.200803
0.052950 0.626984 0.194779
0.062416 0.629445 0.175508
0.272780 0.685275 0.119704
0.737230 0.781888 0.184333
0.960303 0.799771 0.178816
0.980400 0.800000 0.178534
0.980400 0.796588 0.176988
0.060263 0.623500 0.175975
0.060263 0.623500 0.173538
0.060263 0.623500 0.173538
0.060263 0.623500 0.166163
0.162494 0.660800 0.119338
0.650925 0.762688 0.169613
0.944272 0.797075 0.180400
0.980400 0.800000 0.180400
0.980400 0.800000 0.180400
0.017650 0.103900 0.490200
0.017650 0.103900 0.490200
0.035300 0.142638 0.602475
0.091413 0.140663 0.624281
0.424525 0.134325 0.631375
0.699019 0.181850 0.557100
0.764213 0.236775 0.452925
0.754413 0.251444 0.362494
0.747050 0.266650 0.286250
0.014238 0.103656 0.490200
0.017223 0.102163 0.487214
0.031388 0.139225 0.592638
0.088391 0.136763 0.619802
0.411628 0.136275 0.637275
0.699750 0.182398 0.550002
0.758988 0.237263 0.437075
0.754413 0.254900 0.363543
0.747050 0.274013 0.286250
0.002925 0.197025 0.618613
0.003425 0.189591 0.606864
0.012016 0.185297 0.612756
0.059142 0.163048 0.617588
0.404906 0.138731 0.624256
0.693131 0.182277 0.540742
0.755509 0.238275 0.416538
0.754656 0.255394 0.345342
0.744125 0.274500 0.282350
0.000000 0.325019 0.637250
0.000000 0.319945 0.629065
0.000000 0.319606 0.620138
0.008727 0.299286 0.615407
0.350978 0.263122 0.611013
0.731070 0.269855 0.483745
0.775183 0.293759 0.396094
0.752688 0.273720 0.319827
0.751225 0.290944 0.282869
0.000000 0.515700 0.652950
0.000000 0.511897 0.640322
0.000000 0.506875 0.631863
0.000000 0.526475 0.615441
0.240200 0.497050 0.582850
0.783584 0.520716 0.482241
0.866919 0.541669 0.462481
0.853534 0.490456 0.402325
0.834300 0.429425 0.328425
0.000731 0.673269 0.598288
0.000731 0.669369 0.598257
0.000731 0.664738 0.581125
0.003912 0.676670 0.540956
0.159316 0.703191 0.473053
0.759008 0.758131 0.456486
0.966302 0.748895 0.379856
0.976956 0.706408 0.314154
0.967906 0.643163 0.224506
0.010775 0.691700 0.495100
0.011020 0.690205 0.494739
0.012247 0.686991 0.479897
0.021398 0.693158 0.439883
0.182863 0.724031 0.351969
0.747494 0.816602 0.361764
0.967159 0.823550 0.303459
0.984361 0.808638 0.251163
0.986250 0.787250 0.202925
0.022088 0.677956 0.425000
0.022088 0.673794 0.413694
0.022088 0.673580 0.399883
0.025774 0.670273 0.377506
0.161759 0.703922 0.278928
0.682460 0.798519 0.285616
0.961522 0.820617 0.246653
0.984483 0.813182 0.209857
0.980400 0.801950 0.186300
0.031350 0.662750 0.354900
0.033350 0.658850 0.333300
0.033350 0.654900 0.322575
0.037250 0.650950 0.299013
0.115700 0.677450 0.235300
0.594100 0.772313 0.223275
0.944150 0.811750 0.205400
0.980400 0.801950 0.188006
0.980400 0.801950 0.182350
0.025000 0.142663 0.586288
0.025000 0.142663 0.586288
0.045613 0.152825 0.634956
0.128913 0.195491 0.742091
0.266900 0.195125 0.755894
0.577938 0.206863 0.785373
0.735650 0.202925 0.781228
0.764183 0.195125 0.744313
0.768113 0.200000 0.700525
0.025000 0.142663 0.586288
0.025000 0.142663 0.586288
0.039078 0.147720 0.620357
0.126475 0.193091 0.742091
0.248919 0.195125 0.754598
0.574705 0.203110 0.785556
0.734813 0.198659 0.777953
0.763870 0.197722 0.750022
0.768608 0.195125 0.679713
0.033716 0.171441 0.652109
0.028461 0.166403 0.646189
0.036732 0.155994 0.628894
0.119841 0.194005 0.737552
0.238006 0.192625 0.749263
0.563218 0.199634 0.783317
0.741056 0.198751 0.770244
0.763917 0.197563 0.737241
0.771084 0.200000 0.675988
0.007898 0.291223 0.738763
0.006619 0.284980 0.738831
0.008320 0.277938 0.732181
0.028664 0.267077 0.742663
0.175208 0.242710 0.758819
0.572513 0.234007 0.785922
0.751073 0.213941 0.762458
0.772799 0.203656 0.725666
0.772989 0.201584 0.656814
0.000000 0.468663 0.754900
0.000000 0.462977 0.754413
0.000000 0.460763 0.752463
0.000000 0.469588 0.759269
0.048891 0.440203 0.780034
0.560862 0.419179 0.812464
0.799566 0.392356 0.770953
0.807081 0.349969 0.709473
0.798306 0.306606 0.624519
0.000000 0.659264 0.806413
0.000000 0.657436 0.803236
0.000000 0.658121 0.800075
0.000000 0.672672 0.801027
0.019582 0.721891 0.815225
0.546737 0.771177 0.832365
0.882526 0.782537 0.787008
0.900371 0.754609 0.745998
0.891602 0.681230 0.655595
0.000000 0.740197 0.803828
0.000000 0.738962 0.803828
0.000000 0.739222 0.800734
0.000000 0.744978 0.790195
0.012995 0.777364 0.777042
0.520155 0.860925 0.754157
0.891431 0.904987 0.737777
0.946300 0.892713 0.667667
0.965053 0.855378 0.546688
0.000000 0.747720 0.781563
0.000000 0.745367 0.773437
0.000000 0.747659 0.768004
0.000000 0.744795 0.749144
0.006277 0.760884 0.703273
0.365161 0.823208 0.626817
0.889420 0.895844 0.615808
0.968829 0.885113 0.547256
0.978413 0.864720 0.448850
0.000000 0.744125 0.728900
0.000000 0.736758 0.711745
0.000000 0.737725 0.700525
0.000000 0.734739 0.682836
0.008563 0.739219 0.627931
0.299222 0.794125 0.534764
0.881606 0.874888 0.524988
0.971100 0.868133 0.452750
0.978413 0.849513 0.372563
0.032375 0.146075 0.608800
0.032375 0.146075 0.608800
0.036763 0.148269 0.616169
0.108056 0.193747 0.740909
0.158800 0.200000 0.754900
0.478303 0.201463 0.790553
0.657119 0.208800 0.808800
0.684816 0.214725 0.811800
0.691175 0.211800 0.811800
0.032375 0.146075 0.608800
0.032375 0.146075 0.608800
0.034477 0.148269 0.613244
0.106959 0.193138 0.735869
0.154778 0.200000 0.754900
0.472941 0.201463 0.787628
0.657210 0.208800 0.808800
0.684816 0.214725 0.811800
0.695075 0.211800 0.811800
0.034569 0.150463 0.619094
0.034843 0.150463 0.619094
0.035117 0.148817 0.617280
0.116587 0.193869 0.734909
0.152938 0.200000 0.753913
0.459069 0.200000 0.787263
0.657850 0.208800 0.808800
0.684816 0.214359 0.811800
0.694100 0.213994 0.814725
0.011531 0.260288 0.733841
0.010406 0.257475 0.731356
0.010226 0.249242 0.728084
0.034773 0.239093 0.742811
0.122806 0.222575 0.756381
0.449287 0.213286 0.788862
0.653925 0.210663 0.808800
0.690215 0.214359 0.811800
0.695075 0.212897 0.811800
0.000000 0.429400 0.750013
0.000000 0.425306 0.750013
0.000000 0.417553 0.744978
0.000000 0.412375 0.748086
0.018131 0.371319 0.771306
0.419058 0.327522 0.821280
0.678084 0.317138 0.837166
0.712628 0.280625 0.837277
0.711288 0.249525 0.823550
0.000000 0.611288 0.801003
0.000000 0.607783 0.797552
0.000000 0.600493 0.794830
0.000000 0.601344 0.795579
0.000000 0.639145 0.831558
0.397195 0.683352 0.907825
0.764834 0.661758 0.923921
0.796538 0.605174 0.912267
0.778766 0.519334 0.881738
0.000000 0.710775 0.839200
0.000000 0.707850 0.836275
0.000000 0.707850 0.836275
0.000000 0.707119 0.836275
0.000000 0.742631 0.859813
0.219469 0.845481 0.930793
0.863964 0.932045 0.964519
0.915584 0.926725 0.963250
0.912263 0.911538 0.942669
0.000975 0.721600 0.847100
0.000960 0.721538 0.847038
0.000213 0.718475 0.843975
0.000000 0.720100 0.845600
0.000000 0.741394 0.857277
0.099404 0.832773 0.912753
0.840127 0.948934 0.961148
0.954893 0.970529 0.943293
0.954022 0.960313 0.909531
0.000975 0.721600 0.847100
0.000853 0.721100 0.843609
0.000000 0.720600 0.843100
0.000975 0.723428 0.844100
0.000000 0.735288 0.849538
0.063975 0.811759 0.892066
0.795819 0.943644 0.932844
0.955250 0.963359 0.902209
0.961775 0.956825 0.857825
0.035300 0.149000 0.611800
0.035300 0.149000 0.611800
0.035300 0.149000 0.611800
0.093813 0.173530 0.702158
0.134813 0.203900 0.750706
0.414095 0.203900 0.780888
0.636909 0.208800 0.809297
0.678400 0.211800 0.815700
0.678400 0.211800 0.815700
0.035300 0.149000 0.611800
0.035300 0.149000 0.611800
0.034980 0.149000 0.611800
0.089908 0.169648 0.695575
0.130656 0.203656 0.749000
0.400340 0.205180 0.780698
0.636413 0.208309 0.808800
0.678400 0.211800 0.815700
0.678400 0.211800 0.812714
0.035300 0.149000 0.611800
0.035300 0.149000 0.611800
0.035300 0.149000 0.611800
0.080695 0.164573 0.686249
0.129444 0.200122 0.749000
0.393488 0.203900 0.779432
0.633853 0.205642 0.808432
0.678400 0.211800 0.815700
0.678400 0.211800 0.814847
0.049355 0.215408 0.720788
0.057993 0.210714 0.716936
0.058495 0.202191 0.707188
0.072675 0.199025 0.717448
0.113688 0.206944 0.750950
0.388030 0.205233 0.781558
0.629522 0.204829 0.808309
0.676534 0.211800 0.813567
0.678400 0.211800 0.812288
0.000000 0.384825 0.744856
0.000000 0.379630 0.741230
0.000000 0.376450 0.740406
0.000000 0.364223 0.742663
0.011875 0.328909 0.756381
0.343786 0.285879 0.802054
0.638317 0.271873 0.824038
0.689926 0.242138 0.822594
0.682106 0.221356 0.817650
0.000000 0.584978 0.789700
0.000000 0.581832 0.786554
0.000000 0.575988 0.786607
0.000000 0.567150 0.785800
0.000000 0.589791 0.805973
0.237866 0.590784 0.880775
0.717622 0.581391 0.910669
0.758153 0.508488 0.894633
0.740195 0.432692 0.876480
0.000000 0.704428 0.836275
0.000000 0.701278 0.835909
0.000000 0.700584 0.835788
0.000000 0.700508 0.835788
0.000000 0.723034 0.847548
0.082642 0.814586 0.918271
0.822722 0.912017 0.970556
0.910904 0.898772 0.973881
0.890216 0.865325 0.970084
0.003900 0.721600 0.847100
0.003900 0.721600 0.847100
0.003900 0.721600 0.847100
0.002034 0.721600 0.847100
0.000000 0.732363 0.853955
0.042080 0.809146 0.903246
0.735360 0.944222 0.973500
0.964822 0.973498 0.980400
0.965675 0.976988 0.983386
0.003900 0.721600 0.847100
0.003900 0.721600 0.847100
0.003900 0.721600 0.847100
0.003900 0.721600 0.847100
0.000000 0.725256 0.848806
0.008264 0.783788 0.886758
0.626219 0.930888 0.970084
0.961836 0.976988 0.980888
0.973488 0.980888 0.980400
0.035300 0.149000 0.611800
0.035300 0.149000 0.611800
0.035300 0.149000 0.611800
0.045113 0.153938 0.626488
0.119600 0.201950 0.749000
0.350975 0.203900 0.779425
0.623550 0.204875 0.804875
0.678400 0.211800 0.815700
0.678400 0.211800 0.815700
0.035300 0.149000 0.611800
0.035300 0.149000 0.611800
0.035300 0.149000 0.611800
0.045113 0.153938 0.626488
0.117850 0.200000 0.749244
0.346100 0.200488 0.776925
0.620991 0.203900 0.804875
0.678400 0.211800 0.815700
0.678400 0.211800 0.815700
0.035300 0.149000 0.611800
0.035300 0.149000 0.611800
0.035300 0.149000 0.611800
0.045113 0.152063 0.624659
0.117600 0.198538 0.749000
0.344113 0.202925 0.776925
0.620625 0.203900 0.804875
0.678400 0.211800 0.815700
0.678400 0.211800 0.815700
0.032863 0.161250 0.628925
0.032863 0.158813 0.626488
0.035300 0.158813 0.626488
0.042675 0.158813 0.637214
0.111263 0.197319 0.745831
0.315698 0.201463 0.770588
0.607850 0.203900 0.804875
0.674988 0.211800 0.812288
0.678400 0.211800 0.815700
0.000000 0.335300 0.741200
0.001706 0.331644 0.738756
0.003900 0.323988 0.735300
0.005900 0.308813 0.736550
0.018625 0.281375 0.748025
0.272319 0.247569 0.782825
0.611263 0.234813 0.808825
0.682350 0.225013 0.815944
0.680400 0.215700 0.815700
0.000000 0.546088 0.786288
0.000000 0.546392 0.782200
0.000000 0.538563 0.780888
0.000000 0.529413 0.775950
0.000000 0.529675 0.783588
0.092297 0.497233 0.832411
0.652963 0.494597 0.883350
0.736783 0.432509 0.876480
0.716175 0.358350 0.859813
0.000000 0.698025 0.829450
0.000000 0.694125 0.833350
0.000000 0.691931 0.833350
0.000000 0.688763 0.830913
0.000000 0.700500 0.841163
0.053306 0.783691 0.900109
0.757619 0.874006 0.963725
0.879547 0.858434 0.966284
0.859825 0.808800 0.959825
0.003900 0.721600 0.847100
0.000914 0.718538 0.844038
0.000488 0.718100 0.843600
0.000488 0.718100 0.843600
0.000000 0.725256 0.847056
0.013964 0.789238 0.890717
0.650384 0.930888 0.970575
0.961348 0.969577 0.983447
0.966175 0.973488 0.980888
0.003900 0.721600 0.847100
0.003900 0.721600 0.847100
0.003900 0.721600 0.847100
0.003900 0.721600 0.847100
0.001950 0.721600 0.847100
0.000000 0.771075 0.874050
0.543125 0.913750 0.959825
0.951450 0.976988 0.980888
0.988200 0.988200 0.988200
