luts/A_v_log/C-9730-VLOG.cube
# Copyright: (C) Copyright 2010-2019 by IWLTBAP SAS
# Cannot be resold, shared or otherwise redistributed
# Website: https://luts.iwltbap.com
TITLE "IWLTBAP 9730 (V-Log L)"
LUT_3D_SIZE 9
0.003900 0.003900 0.003900
0.026025 0.011300 0.000000
0.081400 0.018625 0.000000
0.228950 0.028438 0.000000
0.511800 0.090200 0.000000
0.633813 0.168150 0.000000
0.691175 0.216675 0.000000
0.694100 0.219600 0.000000
0.694100 0.219600 0.000000
0.000488 0.022525 0.000000
0.011300 0.026014 0.000000
0.077600 0.026878 0.000000
0.223550 0.025505 0.000000
0.513750 0.088250 0.000000
0.636130 0.169613 0.000000
0.691175 0.216675 0.000000
0.694100 0.219600 0.000000
0.694100 0.219600 0.000000
0.000000 0.085300 0.002925
0.000853 0.077600 0.000000
0.065681 0.071550 0.000000
0.181494 0.081400 0.000000
0.476475 0.123038 0.000000
0.634850 0.184678 0.000000
0.691175 0.216675 0.000000
0.694100 0.219600 0.000000
0.694100 0.219600 0.000000
0.004875 0.208375 0.054925
0.002438 0.208375 0.044105
0.017747 0.218003 0.008594
0.189469 0.201389 0.000000
0.430388 0.231131 0.012269
0.637652 0.290125 0.007900
0.715088 0.303434 0.002438
0.691175 0.258025 0.000000
0.690200 0.226975 0.000000
0.092150 0.454900 0.237250
0.088250 0.449294 0.231594
0.091175 0.447050 0.197538
0.212744 0.466913 0.043644
0.500975 0.435300 0.033350
0.706119 0.484806 0.038506
0.768650 0.496575 0.104875
0.763963 0.454938 0.067381
0.741150 0.386250 0.035300
0.201013 0.607875 0.379400
0.201013 0.607875 0.375988
0.200388 0.607875 0.376597
0.249073 0.630486 0.361542
0.570113 0.684813 0.173513
0.730938 0.685361 0.262139
0.798903 0.669478 0.336300
0.800000 0.639878 0.315845
0.791163 0.594588 0.256375
0.263700 0.671575 0.463700
0.263700 0.671575 0.463700
0.263700 0.671575 0.463700
0.290041 0.674013 0.476466
0.562238 0.745100 0.379925
0.733338 0.759703 0.366781
0.809775 0.785544 0.414975
0.824875 0.779925 0.421697
0.827500 0.765700 0.408800
0.266700 0.674500 0.466700
0.266700 0.674500 0.466700
0.266700 0.674500 0.466700
0.271270 0.674500 0.469138
0.468150 0.732369 0.422781
0.713242 0.763725 0.371375
0.806850 0.800488 0.418284
0.827500 0.807800 0.447100
0.827500 0.807800 0.447100
0.266700 0.674500 0.466700
0.266700 0.674500 0.466700
0.266700 0.674500 0.466700
0.266700 0.674500 0.466700
0.354900 0.698050 0.474500
0.689200 0.758363 0.362263
0.800025 0.794150 0.404900
0.827500 0.807800 0.447100
0.827500 0.807800 0.447100
0.007313 0.007313 0.000000
0.011727 0.007739 0.000000
0.084813 0.010800 0.000000
0.217950 0.019600 0.000000
0.500244 0.084300 0.000000
0.633813 0.168150 0.000000
0.691175 0.216675 0.000000
0.694100 0.219600 0.000000
0.694100 0.219600 0.000000
0.003473 0.029925 0.000000
0.000914 0.022525 0.000000
0.073997 0.015685 0.000000
0.213878 0.022038 0.000000
0.499604 0.084330 0.000000
0.632373 0.165751 0.000000
0.691175 0.216675 0.000000
0.694100 0.219600 0.000000
0.694100 0.219600 0.000000
0.000853 0.077100 0.000000
0.000000 0.074475 0.000000
0.055138 0.073500 0.000000
0.184072 0.076797 0.000000
0.476956 0.115675 0.000000
0.631489 0.178804 0.000000
0.688250 0.216675 0.000000
0.694100 0.219600 0.000000
0.694100 0.219600 0.000000
0.002438 0.204875 0.044930
0.002171 0.200635 0.048342
0.008002 0.211300 0.008594
0.184509 0.195714 0.000000
0.405921 0.223681 0.008319
0.631253 0.286202 0.007522
0.711354 0.298954 0.002742
0.695265 0.255100 0.000000
0.694100 0.224538 0.000000
0.082844 0.441888 0.229644
0.078894 0.437982 0.223824
0.084631 0.442163 0.188298
0.211525 0.453748 0.039027
0.499391 0.425988 0.033838
0.703929 0.478665 0.036506
0.766967 0.485275 0.090650
0.758069 0.447288 0.061769
0.737250 0.382350 0.033106
0.201013 0.611288 0.379400
0.197089 0.607875 0.370198
0.199885 0.608104 0.369278
0.244617 0.625475 0.357605
0.557584 0.684386 0.177467
0.725764 0.679914 0.253059
0.793128 0.663963 0.329900
0.800000 0.635384 0.315396
0.792625 0.597088 0.261775
0.263700 0.671575 0.463700
0.261461 0.671575 0.461141
0.260119 0.669016 0.460775
0.283353 0.673403 0.472733
0.548903 0.739200 0.380850
0.729407 0.760748 0.365333
0.810675 0.784325 0.414975
0.827125 0.776863 0.418711
0.827500 0.762775 0.408800
0.266700 0.674500 0.466700
0.266700 0.674500 0.466700
0.266700 0.674500 0.466700
0.271270 0.671088 0.470802
0.458527 0.728913 0.430663
0.713242 0.761371 0.363725
0.810156 0.800488 0.418284
0.827500 0.807800 0.447100
0.827500 0.807800 0.447100
0.266700 0.674500 0.466700
0.266700 0.674500 0.466700
0.266700 0.674500 0.466700
0.266700 0.674500 0.466700
0.354900 0.694638 0.472550
0.687067 0.754895 0.362263
0.802950 0.794150 0.411359
0.824438 0.804814 0.444038
0.827500 0.807800 0.447100
0.000975 0.025525 0.041200
0.008309 0.021550 0.044634
0.074494 0.018625 0.028450
0.219953 0.025009 0.004388
0.528450 0.077475 0.001463
0.630850 0.158797 0.000000
0.691175 0.216675 0.000000
0.694100 0.219600 0.000000
0.694100 0.219600 0.000000
0.003534 0.054888 0.034300
0.003854 0.036707 0.037758
0.061903 0.018625 0.032106
0.216171 0.022038 0.002285
0.506984 0.074213 0.000000
0.628413 0.158797 0.000000
0.691175 0.216675 0.000000
0.694100 0.219600 0.000000
0.694100 0.219600 0.000000
0.000975 0.106850 0.044125
0.000000 0.099025 0.034668
0.018944 0.094375 0.060294
0.196830 0.057929 0.004866
0.484303 0.090078 0.000000
0.629509 0.164075 0.000000
0.688250 0.214481 0.000000
0.694100 0.219600 0.000000
0.694100 0.219600 0.000000
0.000000 0.212397 0.106859
0.000000 0.202438 0.091691
0.000457 0.209121 0.060422
0.163407 0.195263 0.007752
0.427269 0.214220 0.010170
0.634833 0.277882 0.004946
0.707203 0.290204 0.002438
0.691358 0.245641 0.000000
0.692272 0.224538 0.000000
0.083813 0.444113 0.245125
0.072794 0.437372 0.237420
0.075231 0.435300 0.218525
0.168930 0.456377 0.070705
0.490188 0.420594 0.033350
0.694369 0.469259 0.035025
0.765313 0.477456 0.080522
0.756302 0.436463 0.058173
0.735788 0.371575 0.024038
0.197050 0.607875 0.372575
0.193605 0.604125 0.366638
0.194941 0.600966 0.366138
0.239267 0.620025 0.356751
0.552036 0.680127 0.166364
0.727318 0.674552 0.244977
0.794900 0.657350 0.323038
0.796216 0.628227 0.304803
0.789091 0.594116 0.258850
0.263700 0.671575 0.463700
0.260681 0.671484 0.460775
0.260588 0.668467 0.460775
0.278676 0.672032 0.472550
0.523781 0.739200 0.390297
0.725201 0.757828 0.361318
0.810572 0.780594 0.412552
0.824500 0.776059 0.416084
0.824500 0.759794 0.405875
0.266700 0.674500 0.466700
0.266372 0.674180 0.466372
0.266700 0.674500 0.466700
0.270737 0.673525 0.466325
0.440323 0.724336 0.436713
0.710263 0.763070 0.367503
0.809348 0.800488 0.417909
0.827500 0.807800 0.447100
0.824875 0.805241 0.444475
0.266700 0.674500 0.466700
0.266700 0.674500 0.466700
0.266700 0.674500 0.466700
0.266700 0.674500 0.466700
0.342175 0.697563 0.474500
0.682863 0.755497 0.366163
0.800025 0.796344 0.404656
0.826625 0.806947 0.446225
0.827500 0.807800 0.447100
0.011275 0.075475 0.233300
0.014688 0.081388 0.231167
0.056597 0.074013 0.196563
0.171452 0.072536 0.152498
0.472788 0.085794 0.056369
0.633264 0.158811 0.030800
0.684838 0.234813 0.042881
0.688250 0.225505 0.009508
0.691663 0.219600 0.000000
0.009142 0.081717 0.222055
0.009142 0.079102 0.218638
0.052074 0.073872 0.194362
0.161623 0.065375 0.137071
0.455233 0.078171 0.061671
0.632167 0.155378 0.029520
0.682353 0.232229 0.037884
0.687823 0.224652 0.009508
0.691663 0.219600 0.000000
0.000000 0.199756 0.183922
0.000000 0.185117 0.169719
0.008432 0.135995 0.196648
0.124808 0.080935 0.173200
0.474378 0.083625 0.046086
0.628275 0.149608 0.023525
0.684838 0.231121 0.028686
0.688204 0.221733 0.007063
0.691663 0.219600 0.000000
0.006438 0.251475 0.226925
0.001523 0.245019 0.221089
0.000000 0.238784 0.204965
0.079653 0.225560 0.214906
0.475330 0.200738 0.111141
0.665077 0.268571 0.067406
0.695403 0.279278 0.054957
0.688738 0.237450 0.004570
0.690748 0.222038 0.000000
0.087988 0.453925 0.329131
0.082944 0.453788 0.316852
0.079406 0.440023 0.297794
0.119015 0.464415 0.261807
0.496072 0.490075 0.104650
0.711543 0.480941 0.164364
0.750245 0.463481 0.185305
0.748742 0.418544 0.073659
0.731350 0.357844 0.025988
0.212248 0.619127 0.408325
0.207313 0.616960 0.403998
0.203816 0.611273 0.395650
0.228854 0.616650 0.418036
0.487730 0.677511 0.300853
0.716729 0.667223 0.296757
0.785005 0.645902 0.339323
0.790188 0.616183 0.301119
0.786288 0.580413 0.237261
0.272550 0.679803 0.488588
0.270450 0.677250 0.485775
0.268165 0.674470 0.482850
0.286773 0.682012 0.495769
0.494973 0.741402 0.450622
0.722489 0.756366 0.367655
0.807338 0.778269 0.414220
0.824500 0.770575 0.415350
0.823500 0.755875 0.398075
0.266700 0.674500 0.475475
0.266536 0.674340 0.474828
0.266325 0.674134 0.474759
0.268645 0.674317 0.473883
0.409956 0.715352 0.459364
0.703442 0.762263 0.369819
0.804001 0.796846 0.414859
0.827500 0.807800 0.447100
0.824000 0.804388 0.443600
0.266700 0.674500 0.469138
0.266700 0.674500 0.466700
0.263700 0.671575 0.463700
0.265200 0.670600 0.462700
0.328181 0.688200 0.473800
0.673416 0.757425 0.363238
0.790297 0.790175 0.400391
0.827500 0.807800 0.444913
0.827500 0.807800 0.447100
0.058850 0.094150 0.566650
0.058850 0.094150 0.566406
0.096075 0.088738 0.517625
0.192663 0.093369 0.458319
0.458825 0.169600 0.382375
0.638963 0.301206 0.396313
0.692200 0.334275 0.413238
0.678200 0.299019 0.306856
0.672550 0.266700 0.205900
0.055144 0.095856 0.551731
0.053651 0.092870 0.550025
0.091688 0.088800 0.530083
0.184520 0.090200 0.445852
0.452925 0.165675 0.390200
0.634010 0.293985 0.386781
0.685275 0.326658 0.394491
0.679449 0.297069 0.304663
0.674256 0.270113 0.200244
0.029413 0.238738 0.490188
0.027950 0.225480 0.481434
0.057753 0.135909 0.520678
0.165442 0.087763 0.467155
0.424744 0.152463 0.372063
0.629650 0.289719 0.377944
0.683691 0.320625 0.380384
0.681130 0.291663 0.284298
0.674500 0.267188 0.189225
0.065181 0.387738 0.443638
0.063902 0.386441 0.443744
0.054486 0.355655 0.431500
0.108507 0.246508 0.499959
0.423913 0.228813 0.431241
0.639207 0.328456 0.389732
0.692589 0.340942 0.360250
0.679266 0.290744 0.256213
0.678400 0.257581 0.152694
0.151975 0.545100 0.512750
0.146050 0.539100 0.501488
0.140175 0.529669 0.491669
0.148769 0.525744 0.478303
0.419613 0.514213 0.512738
0.709206 0.499878 0.482219
0.772538 0.489700 0.449763
0.749384 0.433584 0.365066
0.721575 0.359825 0.218625
0.278669 0.680406 0.599550
0.270758 0.677145 0.593691
0.264894 0.671216 0.578675
0.281655 0.673044 0.557843
0.454766 0.714472 0.583834
0.729455 0.724507 0.511488
0.814075 0.691719 0.504727
0.802452 0.634075 0.429817
0.775706 0.567150 0.345075
0.339700 0.737738 0.617150
0.340131 0.739200 0.616180
0.333322 0.732338 0.603816
0.346270 0.735788 0.597841
0.464975 0.783325 0.628669
0.729698 0.797661 0.508581
0.814944 0.800613 0.518381
0.829656 0.779517 0.490659
0.822038 0.753913 0.440188
0.330375 0.726963 0.575475
0.326469 0.722873 0.571387
0.319977 0.721317 0.562755
0.320688 0.719110 0.559644
0.408447 0.750950 0.589828
0.696449 0.787604 0.482191
0.807736 0.809917 0.486073
0.824000 0.809800 0.481302
0.825750 0.804388 0.456650
0.305850 0.709800 0.539200
0.298050 0.703900 0.531350
0.296588 0.700975 0.522575
0.292200 0.696100 0.515650
0.343125 0.715650 0.543125
0.650738 0.768131 0.460063
0.790663 0.793625 0.434338
0.824000 0.807800 0.456650
0.827500 0.807800 0.452950
0.192663 0.261800 0.805438
0.192350 0.261305 0.805250
0.204438 0.223659 0.792784
0.383752 0.215675 0.762541
0.625731 0.313463 0.690700
0.747648 0.385289 0.658813
0.794978 0.421588 0.672547
0.773550 0.407350 0.620275
0.758338 0.397050 0.584838
0.186750 0.254392 0.800158
0.189736 0.255236 0.801011
0.197506 0.229875 0.795831
0.373842 0.208813 0.757902
0.620194 0.308679 0.697769
0.741053 0.381533 0.652833
0.790309 0.414063 0.660928
0.778303 0.411216 0.634733
0.752938 0.393113 0.573525
0.166175 0.315831 0.752694
0.157681 0.307429 0.748002
0.176257 0.259185 0.774270
0.347858 0.210566 0.752706
0.604856 0.299458 0.695289
0.739514 0.377450 0.648993
0.782904 0.413781 0.650635
0.770112 0.406497 0.613881
0.743613 0.390675 0.563728
0.173100 0.488238 0.713323
0.170723 0.477938 0.712328
0.166739 0.457744 0.712523
0.275924 0.354913 0.741235
0.571550 0.334386 0.718619
0.733420 0.390240 0.649718
0.781289 0.420471 0.646151
0.764477 0.406375 0.605210
0.744100 0.384298 0.552363
0.264238 0.653200 0.711288
0.264481 0.646461 0.707631
0.257020 0.641188 0.701206
0.277699 0.625048 0.691813
0.497184 0.562997 0.767053
0.740291 0.519394 0.699427
0.795905 0.530288 0.669911
0.779075 0.480623 0.619194
0.745594 0.429650 0.545331
0.400050 0.786773 0.804475
0.395602 0.781570 0.798903
0.386838 0.775972 0.786216
0.393776 0.769016 0.773952
0.481918 0.808594 0.801463
0.719077 0.807621 0.804414
0.844423 0.791047 0.767334
0.854609 0.732123 0.712311
0.838689 0.640298 0.630938
0.453900 0.842041 0.843525
0.453292 0.843016 0.842525
0.450000 0.838750 0.838725
0.448736 0.834178 0.827291
0.517820 0.864219 0.841620
0.713713 0.894762 0.842564
0.857119 0.891700 0.789819
0.878011 0.874986 0.747392
0.869588 0.836763 0.675950
0.449025 0.836067 0.827108
0.441700 0.830395 0.812798
0.438222 0.828561 0.807352
0.433325 0.825081 0.797438
0.481859 0.843089 0.806965
0.685083 0.892542 0.813792
0.848662 0.891250 0.752146
0.877463 0.887245 0.711784
0.871783 0.868320 0.654888
0.422538 0.813238 0.775475
0.413725 0.804430 0.760763
0.411409 0.805438 0.753438
0.408363 0.795100 0.741591
0.428675 0.805875 0.735788
0.636127 0.867223 0.754595
0.823900 0.873013 0.682606
0.868283 0.872038 0.661767
0.858350 0.850975 0.611263
0.267675 0.318600 0.859775
0.267675 0.318600 0.859775
0.269869 0.312731 0.859044
0.437397 0.270966 0.854900
0.632325 0.338225 0.808350
0.781838 0.404913 0.781384
0.853925 0.449050 0.822794
0.864188 0.455875 0.820600
0.857850 0.455875 0.806875
0.267675 0.318600 0.859775
0.267675 0.318600 0.859775
0.269869 0.312731 0.859409
0.430830 0.267873 0.851488
0.631842 0.338408 0.809567
0.776780 0.401988 0.782847
0.853925 0.449050 0.823525
0.861202 0.455875 0.820600
0.854050 0.452950 0.802950
0.264694 0.323775 0.853925
0.264694 0.324049 0.853925
0.264694 0.317133 0.853925
0.413993 0.266025 0.846957
0.627450 0.334678 0.810788
0.773550 0.398331 0.779887
0.851548 0.448319 0.815706
0.863334 0.455875 0.819616
0.854675 0.455875 0.806625
0.264713 0.478097 0.822075
0.260766 0.474122 0.825625
0.261603 0.461340 0.828550
0.351495 0.383736 0.833134
0.600494 0.350963 0.830878
0.773489 0.402339 0.795259
0.852097 0.450513 0.819625
0.857225 0.455875 0.810316
0.851000 0.449050 0.793613
0.326963 0.682838 0.765188
0.323002 0.678925 0.768150
0.318025 0.671931 0.763725
0.339894 0.651669 0.766658
0.529150 0.561756 0.877450
0.786445 0.489650 0.861891
0.872066 0.537738 0.840200
0.870423 0.520325 0.829297
0.859800 0.485288 0.799500
0.451828 0.833203 0.875513
0.448538 0.828282 0.873013
0.445460 0.825038 0.869113
0.446237 0.823709 0.865989
0.511163 0.844184 0.882533
0.731058 0.840325 0.909622
0.889475 0.797426 0.900482
0.903050 0.768896 0.882614
0.884303 0.703572 0.836884
0.564950 0.903950 0.931356
0.561781 0.900969 0.928797
0.561050 0.900969 0.930625
0.558800 0.900969 0.927450
0.605022 0.907850 0.929403
0.738006 0.932833 0.952433
0.874525 0.936269 0.960069
0.907088 0.929913 0.952102
0.908581 0.912750 0.925713
0.579050 0.910409 0.933934
0.578563 0.907363 0.930884
0.576320 0.904803 0.927943
0.572357 0.903950 0.927450
0.601592 0.907180 0.929413
0.728250 0.935791 0.951584
0.870735 0.949737 0.967404
0.910836 0.951340 0.960195
0.910775 0.946684 0.937738
0.564725 0.903950 0.923550
0.561800 0.901325 0.924891
0.561800 0.903950 0.924525
0.558800 0.898147 0.924525
0.568638 0.898513 0.920550
0.682450 0.929409 0.942175
0.845831 0.944125 0.953169
0.910775 0.947050 0.941150
0.906875 0.940225 0.913750
0.270600 0.321600 0.862700
0.270600 0.321600 0.862700
0.270600 0.321600 0.860141
0.355778 0.276488 0.854900
0.598775 0.318619 0.836038
0.765650 0.393905 0.783142
0.853925 0.445075 0.832497
0.878400 0.462700 0.847100
0.878400 0.462700 0.847100
0.270600 0.321600 0.862700
0.270600 0.321600 0.862700
0.270600 0.321272 0.862380
0.351407 0.274621 0.856203
0.586805 0.314719 0.836281
0.759153 0.393333 0.780705
0.853438 0.444709 0.832116
0.878400 0.462700 0.847100
0.875414 0.462700 0.844038
0.268041 0.321600 0.860141
0.268041 0.321600 0.860141
0.269960 0.321600 0.862060
0.340368 0.274842 0.855388
0.581867 0.311075 0.843638
0.755165 0.389273 0.780034
0.853438 0.444709 0.832009
0.878400 0.462700 0.847100
0.877547 0.462700 0.846225
0.259775 0.417998 0.838745
0.256363 0.412628 0.836833
0.256363 0.405092 0.833838
0.304753 0.345205 0.840639
0.562911 0.309805 0.847781
0.755697 0.391947 0.781680
0.853438 0.444709 0.832009
0.876267 0.460567 0.844913
0.874988 0.462700 0.843600
0.306625 0.645581 0.764456
0.299726 0.640457 0.759764
0.299019 0.634563 0.761044
0.300422 0.620340 0.763466
0.475488 0.497672 0.868884
0.757127 0.442013 0.859329
0.867145 0.501225 0.854900
0.880400 0.502007 0.852005
0.876450 0.474256 0.845100
0.435763 0.813413 0.861788
0.431185 0.811546 0.855861
0.423872 0.803420 0.848675
0.421558 0.795580 0.844636
0.469623 0.809073 0.866192
0.704186 0.798481 0.904158
0.891334 0.760218 0.891692
0.908338 0.729426 0.879222
0.904430 0.677463 0.862250
0.568259 0.903453 0.933809
0.565213 0.899975 0.930009
0.562004 0.899609 0.929918
0.559432 0.897355 0.924830
0.587244 0.903669 0.931848
0.713357 0.931405 0.951142
0.871713 0.935884 0.969428
0.920717 0.929172 0.970529
0.924647 0.912763 0.966284
0.600000 0.913700 0.941200
0.599627 0.913700 0.940827
0.599573 0.913700 0.940773
0.597441 0.911567 0.938641
0.614462 0.913913 0.940773
0.722548 0.939843 0.959635
0.871704 0.954335 0.977597
0.918483 0.961714 0.988255
0.921600 0.961288 0.988200
0.596588 0.913700 0.937788
0.596588 0.913700 0.937788
0.596588 0.913700 0.937788
0.596588 0.913700 0.937788
0.601950 0.913700 0.937788
0.696113 0.935775 0.955375
0.854925 0.953025 0.977475
0.918598 0.964761 0.988263
0.922088 0.965188 0.988700
0.270600 0.321600 0.862700
0.270600 0.321600 0.862700
0.270600 0.321600 0.862700
0.285288 0.310288 0.860263
0.537250 0.294150 0.849000
0.741663 0.386288 0.781863
0.847025 0.442150 0.829450
0.878400 0.462700 0.847100
0.878400 0.462700 0.847100
0.270600 0.321600 0.862700
0.270600 0.321600 0.862700
0.270600 0.321600 0.862700
0.285288 0.310288 0.856667
0.533794 0.292444 0.850950
0.731667 0.383850 0.780400
0.847025 0.441297 0.829450
0.875414 0.459714 0.844038
0.878400 0.462700 0.847100
0.270600 0.321600 0.862700
0.270600 0.321600 0.862700
0.270600 0.321600 0.862700
0.283459 0.310288 0.858800
0.531838 0.290700 0.850950
0.735675 0.380878 0.780400
0.847025 0.441175 0.829450
0.874988 0.459288 0.843600
0.878400 0.462700 0.847100
0.266700 0.338725 0.856363
0.264200 0.334155 0.856363
0.264200 0.333850 0.856363
0.275498 0.322561 0.855448
0.501969 0.282838 0.847781
0.717148 0.377427 0.782838
0.840688 0.435422 0.823038
0.874988 0.459288 0.843600
0.878400 0.462700 0.847100
0.282350 0.590200 0.770600
0.278694 0.582838 0.770600
0.273538 0.571550 0.774013
0.273050 0.547556 0.786769
0.416650 0.434275 0.849025
0.709081 0.403188 0.834325
0.850975 0.461788 0.841200
0.876694 0.477713 0.845100
0.878400 0.466650 0.845100
0.412263 0.778425 0.836738
0.408667 0.782363 0.834605
0.396075 0.771553 0.827109
0.395100 0.764225 0.822538
0.416175 0.760569 0.823525
0.654852 0.732388 0.891859
0.872453 0.699784 0.866150
0.900963 0.677463 0.862250
0.894625 0.615200 0.863225
0.548050 0.893150 0.920550
0.543297 0.896075 0.919575
0.543175 0.893150 0.919575
0.538347 0.891322 0.921675
0.550013 0.890688 0.919575
0.670856 0.920456 0.943272
0.849975 0.918850 0.955119
0.918100 0.910325 0.964234
0.922575 0.880400 0.952925
0.600000 0.913700 0.941200
0.596588 0.910714 0.937788
0.596588 0.912847 0.937788
0.596588 0.913700 0.937788
0.600244 0.910288 0.937788
0.696113 0.935775 0.955375
0.857363 0.950341 0.974475
0.918100 0.961288 0.988200
0.921600 0.961288 0.988200
0.600000 0.913700 0.941200
0.600000 0.913700 0.941200
0.600000 0.913700 0.941200
0.600000 0.913700 0.941200
0.601950 0.913700 0.941200
0.669600 0.932363 0.951963
0.836300 0.953900 0.970575
0.922088 0.965188 0.992200
0.929400 0.972500 0.996100
