luts/A_v_log/C-9730-VLOG.cube
# Copyright: (C) Copyright 2010-2019 by IWLTBAP SAS
# Cannot be resold, shared or otherwise redistributed
# Website: https://luts.iwltbap.com
TITLE "IWLTBAP 9730 (V-Log L)"
LUT_3D_SIZE 5
0.003900 0.003900 0.003900
0.081400 0.018625 0.000000
0.511800 0.090200 0.000000
0.691175 0.216675 0.000000
0.694100 0.219600 0.000000
0.000000 0.085300 0.002925
0.065681 0.071550 0.000000
0.476475 0.123038 0.000000
0.691175 0.216675 0.000000
0.694100 0.219600 0.000000
0.092150 0.454900 0.237250
0.091175 0.447050 0.197538
0.500975 0.435300 0.033350
0.768650 0.496575 0.104875
0.741150 0.386250 0.035300
0.263700 0.671575 0.463700
0.263700 0.671575 0.463700
0.562238 0.745100 0.379925
0.809775 0.785544 0.414975
0.827500 0.765700 0.408800
0.266700 0.674500 0.466700
0.266700 0.674500 0.466700
0.354900 0.698050 0.474500
0.800025 0.794150 0.404900
0.827500 0.807800 0.447100
0.000975 0.025525 0.041200
0.074494 0.018625 0.028450
0.528450 0.077475 0.001463
0.691175 0.216675 0.000000
0.694100 0.219600 0.000000
0.000975 0.106850 0.044125
0.018944 0.094375 0.060294
0.484303 0.090078 0.000000
0.688250 0.214481 0.000000
0.694100 0.219600 0.000000
0.083813 0.444113 0.245125
0.075231 0.435300 0.218525
0.490188 0.420594 0.033350
0.765313 0.477456 0.080522
0.735788 0.371575 0.024038
0.263700 0.671575 0.463700
0.260588 0.668467 0.460775
0.523781 0.739200 0.390297
0.810572 0.780594 0.412552
0.824500 0.759794 0.405875
0.266700 0.674500 0.466700
0.266700 0.674500 0.466700
0.342175 0.697563 0.474500
0.800025 0.796344 0.404656
0.827500 0.807800 0.447100
0.058850 0.094150 0.566650
0.096075 0.088738 0.517625
0.458825 0.169600 0.382375
0.692200 0.334275 0.413238
0.672550 0.266700 0.205900
0.029413 0.238738 0.490188
0.057753 0.135909 0.520678
0.424744 0.152463 0.372063
0.683691 0.320625 0.380384
0.674500 0.267188 0.189225
0.151975 0.545100 0.512750
0.140175 0.529669 0.491669
0.419613 0.514213 0.512738
0.772538 0.489700 0.449763
0.721575 0.359825 0.218625
0.339700 0.737738 0.617150
0.333322 0.732338 0.603816
0.464975 0.783325 0.628669
0.814944 0.800613 0.518381
0.822038 0.753913 0.440188
0.305850 0.709800 0.539200
0.296588 0.700975 0.522575
0.343125 0.715650 0.543125
0.790663 0.793625 0.434338
0.827500 0.807800 0.452950
0.267675 0.318600 0.859775
0.269869 0.312731 0.859044
0.632325 0.338225 0.808350
0.853925 0.449050 0.822794
0.857850 0.455875 0.806875
0.264694 0.323775 0.853925
0.264694 0.317133 0.853925
0.627450 0.334678 0.810788
0.851548 0.448319 0.815706
0.854675 0.455875 0.806625
0.326963 0.682838 0.765188
0.318025 0.671931 0.763725
0.529150 0.561756 0.877450
0.872066 0.537738 0.840200
0.859800 0.485288 0.799500
0.564950 0.903950 0.931356
0.561050 0.900969 0.930625
0.605022 0.907850 0.929403
0.874525 0.936269 0.960069
0.908581 0.912750 0.925713
0.564725 0.903950 0.923550
0.561800 0.903950 0.924525
0.568638 0.898513 0.920550
0.845831 0.944125 0.953169
0.906875 0.940225 0.913750
0.270600 0.321600 0.862700
0.270600 0.321600 0.862700
0.537250 0.294150 0.849000
0.847025 0.442150 0.829450
0.878400 0.462700 0.847100
0.270600 0.321600 0.862700
0.270600 0.321600 0.862700
0.531838 0.290700 0.850950
0.847025 0.441175 0.829450
0.878400 0.462700 0.847100
0.282350 0.590200 0.770600
0.273538 0.571550 0.774013
0.416650 0.434275 0.849025
0.850975 0.461788 0.841200
0.878400 0.466650 0.845100
0.548050 0.893150 0.920550
0.543175 0.893150 0.919575
0.550013 0.890688 0.919575
0.849975 0.918850 0.955119
0.922575 0.880400 0.952925
0.600000 0.913700 0.941200
0.600000 0.913700 0.941200
0.601950 0.913700 0.941200
0.836300 0.953900 0.970575
0.929400 0.972500 0.996100
