luts/A_v_log/C-9730-VLOG.cube
# Copyright: (C) Copyright 2010-2019 by IWLTBAP SAS
# Cannot be resold, shared or otherwise redistributed
# Website: https://luts.iwltbap.com
TITLE "IWLTBAP 9730 (V-Log L)"
LUT_3D_SIZE 33
0.003900 0.003900 0.003900
0.003900 0.003900 0.000122
0.007556 0.007556 0.000000
0.014959 0.007800 0.000000
0.026025 0.011300 0.000000
0.037372 0.011800 0.000000
0.048788 0.011800 0.000000
0.063266 0.014847 0.000000
0.081400 0.018625 0.000000
0.108797 0.019600 0.000000
0.139188 0.019600 0.000000
0.177350 0.022159 0.000000
0.228950 0.028438 0.000000
0.299866 0.038347 0.000000
0.377456 0.051931 0.000000
0.449306 0.069213 0.000000
0.511800 0.090200 0.000000
0.555872 0.109313 0.000000
0.584531 0.126219 0.000000
0.609547 0.146847 0.000000
0.633813 0.168150 0.000000
0.657738 0.187138 0.000000
0.674288 0.202438 0.000000
0.684594 0.210022 0.000000
0.691175 0.216675 0.000000
0.694100 0.219600 0.000000
0.694100 0.219600 0.000000
0.694100 0.219600 0.000000
0.694100 0.219600 0.000000
0.694100 0.219600 0.000000
0.694100 0.219600 0.000000
0.694100 0.219600 0.000000
0.694100 0.219600 0.000000
0.003900 0.007678 0.000122
0.003900 0.007678 0.000004
0.004014 0.007792 0.000000
0.011181 0.007800 0.000000
0.022162 0.011300 0.000000
0.033579 0.011800 0.000000
0.045009 0.011800 0.000000
0.062439 0.014847 0.000000
0.078566 0.018625 0.000000
0.105019 0.019600 0.000000
0.135409 0.019600 0.000000
0.171029 0.019680 0.000000
0.223719 0.024659 0.000000
0.296088 0.034569 0.000000
0.373624 0.048153 0.000000
0.445431 0.065434 0.000000
0.509863 0.088311 0.000000
0.555872 0.109313 0.000000
0.584531 0.126219 0.000000
0.609547 0.145312 0.000000
0.632396 0.165789 0.000000
0.653959 0.187138 0.000000
0.671690 0.202438 0.000000
0.684594 0.210022 0.000000
0.691175 0.216675 0.000000
0.694100 0.219600 0.000000
0.694100 0.219600 0.000000
0.694100 0.219600 0.000000
0.694100 0.219600 0.000000
0.694100 0.219600 0.000000
0.694100 0.219600 0.000000
0.694100 0.219600 0.000000
0.694100 0.219600 0.000000
0.003900 0.011550 0.000000
0.003900 0.011550 0.000000
0.003900 0.011550 0.000000
0.011059 0.011550 0.000000
0.018838 0.011769 0.000000
0.029800 0.011800 0.000000
0.044202 0.011800 0.000000
0.062413 0.014847 0.000000
0.078475 0.018625 0.000000
0.104897 0.019600 0.000000
0.135288 0.019600 0.000000
0.168426 0.019600 0.000000
0.219835 0.022194 0.000000
0.294442 0.030753 0.000000
0.373500 0.044375 0.002057
0.445306 0.063599 0.003656
0.509800 0.088250 0.001828
0.555872 0.109313 0.000000
0.584531 0.126219 0.000000
0.609547 0.145263 0.000000
0.632350 0.165713 0.000000
0.653838 0.187138 0.000000
0.671606 0.202438 0.000000
0.684594 0.210022 0.000000
0.691175 0.216675 0.000000
0.694100 0.219600 0.000000
0.694100 0.219600 0.000000
0.694100 0.219600 0.000000
0.694100 0.219600 0.000000
0.694100 0.219600 0.000000
0.694100 0.219600 0.000000
0.694100 0.219600 0.000000
0.694100 0.219600 0.000000
0.003900 0.015334 0.000000
0.003900 0.015334 0.000000
0.003900 0.015334 0.000000
0.007774 0.015334 0.000000
0.015079 0.018427 0.000000
0.029004 0.018869 0.000000
0.044156 0.018869 0.000000
0.062413 0.019154 0.000000
0.078475 0.022159 0.000000
0.104897 0.020594 0.000000
0.135288 0.019600 0.000000
0.170585 0.019600 0.000000
0.223179 0.022038 0.000000
0.295813 0.030506 0.000000
0.373500 0.044131 0.000206
0.447232 0.063484 0.000366
0.513380 0.088250 0.000183
0.559449 0.109313 0.000000
0.588117 0.126219 0.000000
0.613118 0.146698 0.000000
0.634616 0.169247 0.000000
0.653838 0.189457 0.000000
0.671606 0.202438 0.000000
0.684594 0.210022 0.000000
0.691175 0.216675 0.000000
0.694100 0.219600 0.000000
0.694100 0.219600 0.000000
0.694100 0.219600 0.000000
0.694100 0.219600 0.000000
0.694100 0.219600 0.000000
0.694100 0.219600 0.000000
0.694100 0.219600 0.000000
0.694100 0.219600 0.000000
0.000488 0.022525 0.000000
0.000488 0.022525 0.000000
0.000488 0.022525 0.000000
0.004022 0.022525 0.000000
0.011300 0.026014 0.000000
0.025534 0.026513 0.000000
0.040673 0.026513 0.000000
0.058913 0.026513 0.000000
0.077600 0.026878 0.000000
0.102444 0.024134 0.000000
0.131875 0.023013 0.000000
0.169652 0.023013 0.000000
0.223550 0.025505 0.000000
0.295966 0.031928 0.000000
0.373500 0.044131 0.000000
0.447431 0.063484 0.000000
0.513750 0.088250 0.000000
0.559819 0.109313 0.000000
0.588488 0.126219 0.000000
0.613488 0.146847 0.000000
0.636130 0.169613 0.000000
0.657250 0.189697 0.000000
0.673952 0.202438 0.000000
0.684594 0.210022 0.000000
0.691175 0.216675 0.000000
0.694100 0.219600 0.000000
0.694100 0.219600 0.000000
0.694100 0.219600 0.000000
0.694100 0.219600 0.000000
0.694100 0.219600 0.000000
0.694100 0.219600 0.000000
0.694100 0.219600 0.000000
0.694100 0.219600 0.000000
0.000000 0.033456 0.000000
0.000000 0.033456 0.000000
0.000000 0.033456 0.000000
0.003534 0.033456 0.000000
0.007859 0.034003 0.000000
0.024520 0.034081 0.000000
0.040175 0.034081 0.000000
0.058413 0.034081 0.000000
0.077475 0.034081 0.000000
0.099729 0.033632 0.000000
0.128097 0.033456 0.000000
0.164034 0.033456 0.000000
0.214859 0.033847 0.000000
0.286009 0.036759 0.000000
0.363591 0.047422 0.000000
0.439263 0.065027 0.000000
0.508772 0.088250 0.000000
0.556489 0.109313 0.000000
0.586589 0.126219 0.000000
0.613488 0.146847 0.000000
0.636313 0.168379 0.000000
0.657738 0.187537 0.000000
0.674288 0.202438 0.000000
0.684594 0.210022 0.000000
0.691175 0.216675 0.000000
0.694100 0.219600 0.000000
0.694100 0.219600 0.000000
0.694100 0.219600 0.000000
0.694100 0.219600 0.000000
0.694100 0.219600 0.000000
0.694100 0.219600 0.000000
0.694100 0.219600 0.000000
0.694100 0.219600 0.000000
0.000000 0.044888 0.000000
0.000000 0.044888 0.000000
0.000000 0.044888 0.000000
0.000663 0.044888 0.000000
0.004144 0.042044 0.000000
0.021185 0.041638 0.000000
0.036991 0.041638 0.000000
0.055244 0.041638 0.000000
0.074245 0.044075 0.000000
0.096099 0.044888 0.000000
0.122084 0.044888 0.000000
0.154527 0.044888 0.000000
0.201682 0.044888 0.000000
0.271458 0.045322 0.000000
0.350818 0.052622 0.000000
0.429889 0.068481 0.000000
0.503097 0.089834 0.000000
0.554188 0.109313 0.000000
0.586238 0.126219 0.000000
0.613488 0.146847 0.000000
0.635124 0.168150 0.000000
0.654569 0.187138 0.000000
0.672109 0.202438 0.000000
0.684594 0.210022 0.000000
0.691175 0.216675 0.000000
0.694100 0.219600 0.000000
0.694100 0.219600 0.000000
0.694100 0.219600 0.000000
0.694100 0.219600 0.000000
0.694100 0.219600 0.000000
0.694100 0.219600 0.000000
0.694100 0.219600 0.000000
0.694100 0.219600 0.000000
0.000000 0.065459 0.000000
0.000000 0.062508 0.000000
0.000000 0.062413 0.000000
0.000000 0.062413 0.000000
0.003413 0.058913 0.000000
0.012725 0.058413 0.000000
0.024577 0.058413 0.000000
0.047069 0.058413 0.000000
0.071977 0.056784 0.000000
0.095363 0.058431 0.000000
0.118743 0.061436 0.000000
0.147519 0.062413 0.000000
0.189061 0.062413 0.000000
0.254450 0.064222 0.000000
0.331267 0.070327 0.000000
0.412953 0.084525 0.000000
0.491258 0.105513 0.000000
0.548903 0.126090 0.000000
0.587571 0.143289 0.000000
0.615297 0.159652 0.000000
0.634850 0.175005 0.000000
0.653838 0.189137 0.000000
0.671606 0.202438 0.000000
0.684594 0.210022 0.000000
0.691175 0.216675 0.000000
0.694100 0.219600 0.000000
0.694100 0.219600 0.000000
0.694100 0.219600 0.000000
0.694100 0.219600 0.000000
0.694100 0.219600 0.000000
0.694100 0.219600 0.000000
0.694100 0.219600 0.000000
0.694100 0.219600 0.000000
0.000000 0.085300 0.002925
0.000000 0.081522 0.000091
0.000000 0.081400 0.000000
0.000000 0.078749 0.000000
0.000853 0.077600 0.000000
0.002641 0.077475 0.000000
0.010080 0.077475 0.000000
0.037780 0.075131 0.000000
0.065681 0.071550 0.000000
0.091561 0.073378 0.000000
0.117219 0.079236 0.000000
0.144138 0.081400 0.000000
0.181494 0.081400 0.000000
0.241141 0.083716 0.000000
0.313080 0.091375 0.000000
0.394019 0.104919 0.000000
0.476475 0.123038 0.000000
0.542830 0.143934 0.000000
0.587944 0.162769 0.000000
0.615803 0.175561 0.000000
0.634850 0.184678 0.000000
0.653838 0.194591 0.000000
0.670669 0.205386 0.000000
0.682438 0.212178 0.000000
0.691175 0.216675 0.000000
0.694100 0.219600 0.000000
0.694100 0.219600 0.000000
0.694100 0.219600 0.000000
0.694100 0.219600 0.000000
0.694100 0.219600 0.000000
0.694100 0.219600 0.000000
0.694100 0.219600 0.000000
0.694100 0.219600 0.000000
0.000000 0.104288 0.003900
0.000000 0.103225 0.002837
0.000000 0.103191 0.002803
0.000000 0.102197 0.002803
0.000000 0.102094 0.000350
0.000000 0.102094 0.000000
0.004060 0.102094 0.000000
0.026005 0.099025 0.000000
0.050356 0.095241 0.000000
0.080287 0.095054 0.000000
0.114278 0.098817 0.000000
0.143481 0.100388 0.000000
0.179900 0.102139 0.000000
0.231319 0.108878 0.000000
0.294128 0.119366 0.000000
0.370667 0.131333 0.000000
0.454222 0.145778 0.001402
0.528347 0.165206 0.002803
0.583213 0.185786 0.001577
0.616942 0.200530 0.000000
0.637653 0.208753 0.000000
0.655677 0.213988 0.000000
0.670356 0.219580 0.000000
0.681719 0.223393 0.000000
0.691175 0.223737 0.000000
0.694100 0.221790 0.000000
0.694100 0.219600 0.000000
0.694100 0.219600 0.000000
0.694100 0.219600 0.000000
0.694100 0.219600 0.000000
0.694100 0.219600 0.000000
0.694100 0.219600 0.000000
0.694100 0.219600 0.000000
0.000000 0.128706 0.009331
0.000000 0.128706 0.009331
0.000000 0.128706 0.009331
0.000000 0.128706 0.009331
0.000000 0.128706 0.005859
0.000000 0.128706 0.000838
0.000990 0.128706 0.000000
0.015413 0.127754 0.000000
0.035002 0.126573 0.000000
0.067505 0.122365 0.000000
0.106981 0.121675 0.000000
0.141614 0.122056 0.000000
0.181576 0.126213 0.000000
0.226561 0.137264 0.000000
0.280054 0.148230 0.000000
0.351261 0.157014 0.001424
0.433575 0.169106 0.004631
0.512332 0.187972 0.006581
0.574453 0.209061 0.004875
0.615293 0.225980 0.001592
0.642437 0.236026 0.000000
0.660838 0.239847 0.000000
0.673059 0.241959 0.000000
0.683695 0.240975 0.000000
0.691175 0.239305 0.000000
0.694100 0.232268 0.000000
0.694100 0.224516 0.000000
0.693681 0.222281 0.000000
0.691419 0.221946 0.000000
0.691419 0.219600 0.000000
0.691419 0.219600 0.000000
0.691419 0.219600 0.000000
0.691419 0.219600 0.000000
0.000000 0.163025 0.027222
0.000000 0.163025 0.027222
0.000000 0.163025 0.027222
0.000000 0.163025 0.024902
0.000000 0.163025 0.018923
0.000000 0.163025 0.009362
0.000000 0.163025 0.003531
0.008215 0.167024 0.000560
0.023296 0.168144 0.000000
0.052052 0.162513 0.000000
0.089509 0.158505 0.000000
0.133785 0.156005 0.000000
0.186218 0.158422 0.000000
0.234854 0.168182 0.000000
0.286497 0.177950 0.000000
0.351880 0.185550 0.003432
0.426138 0.197056 0.008442
0.499766 0.214722 0.010425
0.561009 0.233317 0.009838
0.605077 0.249286 0.006434
0.639273 0.261023 0.002559
0.666398 0.267324 0.001680
0.684570 0.270367 0.000000
0.694850 0.267641 0.000000
0.700838 0.265682 0.000000
0.700710 0.257233 0.000000
0.696179 0.246823 0.000000
0.693091 0.240337 0.000000
0.687641 0.233316 0.000000
0.687641 0.229423 0.000000
0.687801 0.224620 0.000000
0.690200 0.222079 0.000000
0.690200 0.219600 0.000000
0.004875 0.208375 0.054925
0.004875 0.210736 0.054925
0.004875 0.210813 0.057210
0.002666 0.208604 0.051563
0.002438 0.208375 0.044105
0.002438 0.208375 0.031144
0.002438 0.208375 0.020577
0.006627 0.214469 0.013650
0.017747 0.218003 0.008594
0.040082 0.214758 0.003826
0.072799 0.208867 0.000762
0.123556 0.202675 0.000000
0.189469 0.201389 0.000000
0.247513 0.206012 0.000000
0.303094 0.213244 0.001371
0.364796 0.220844 0.006614
0.430388 0.231131 0.012269
0.494837 0.245807 0.015380
0.550738 0.261794 0.016675
0.597330 0.276978 0.013491
0.637652 0.290125 0.007900
0.672366 0.299257 0.004159
0.698050 0.304713 0.000762
0.710034 0.305400 0.002438
0.715088 0.303434 0.002438
0.711498 0.294423 0.002438
0.704187 0.281380 0.001980
0.697809 0.270838 0.000000
0.691175 0.258025 0.000000
0.691175 0.251465 0.000000
0.691266 0.241633 0.000000
0.692561 0.233114 0.000000
0.690200 0.226975 0.000000
0.014806 0.264728 0.092291
0.014806 0.268506 0.092291
0.014806 0.268628 0.095947
0.013370 0.262995 0.089085
0.013222 0.260386 0.081473
0.013222 0.260097 0.071201
0.013222 0.260097 0.061856
0.014460 0.264382 0.050307
0.023656 0.268506 0.038198
0.041833 0.271671 0.021032
0.068835 0.270350 0.008039
0.119613 0.261175 0.004631
0.190200 0.253956 0.004631
0.259107 0.253138 0.006041
0.322765 0.258225 0.009200
0.384563 0.263365 0.013841
0.447303 0.270720 0.018381
0.507130 0.283950 0.021074
0.558437 0.299159 0.021916
0.603975 0.314352 0.018747
0.645206 0.328053 0.012638
0.680249 0.338092 0.009086
0.706005 0.344481 0.008225
0.721247 0.347191 0.012209
0.728141 0.345809 0.014959
0.725722 0.338231 0.012715
0.720409 0.323761 0.010175
0.715090 0.311753 0.006635
0.710131 0.297237 0.004631
0.708053 0.287248 0.004414
0.707619 0.275708 0.002171
0.700910 0.262085 0.000000
0.694831 0.249984 0.000000
0.032819 0.325469 0.136294
0.030694 0.329301 0.136294
0.030625 0.331482 0.137893
0.030625 0.322511 0.132868
0.030625 0.318156 0.125474
0.030625 0.317669 0.119763
0.030625 0.317669 0.114332
0.030625 0.319002 0.101016
0.037830 0.322300 0.082473
0.052702 0.330498 0.051365
0.074949 0.334833 0.024297
0.122580 0.325244 0.013752
0.192394 0.314960 0.010873
0.271272 0.309380 0.013694
0.345112 0.309519 0.018381
0.408386 0.311031 0.020994
0.469000 0.315813 0.023772
0.525931 0.327953 0.025750
0.575497 0.343138 0.025750
0.620734 0.358316 0.022558
0.660202 0.372046 0.016431
0.692011 0.382090 0.015502
0.714706 0.388474 0.020989
0.731488 0.391811 0.029552
0.740486 0.392413 0.035786
0.741758 0.386053 0.031006
0.739694 0.371575 0.023800
0.736258 0.359534 0.020006
0.734326 0.344825 0.016083
0.730458 0.333070 0.011878
0.725700 0.317419 0.008096
0.714416 0.302141 0.004319
0.704638 0.284806 0.002194
0.059781 0.390406 0.186066
0.056003 0.390216 0.184007
0.055881 0.393866 0.183941
0.055881 0.387219 0.182241
0.055881 0.383094 0.177054
0.055881 0.382606 0.174795
0.055881 0.382606 0.171341
0.055881 0.382606 0.158344
0.060213 0.383977 0.137249
0.072907 0.392916 0.095879
0.093498 0.400340 0.056096
0.135365 0.396017 0.031013
0.201146 0.387867 0.016390
0.285785 0.376541 0.017661
0.367214 0.366115 0.025061
0.428670 0.364695 0.027697
0.484692 0.370586 0.028634
0.541917 0.380898 0.028601
0.594431 0.394986 0.027500
0.641794 0.410169 0.024291
0.681399 0.423896 0.020488
0.712140 0.433937 0.026074
0.731698 0.440324 0.038247
0.746449 0.443552 0.052269
0.753898 0.443891 0.062741
0.755269 0.437531 0.056757
0.754538 0.423053 0.044837
0.751369 0.411345 0.039036
0.750875 0.398163 0.032938
0.746680 0.384029 0.025553
0.738967 0.363359 0.019891
0.729637 0.348028 0.016019
0.720213 0.329041 0.012241
0.092150 0.454900 0.237250
0.088372 0.451122 0.233423
0.088250 0.452828 0.233300
0.088250 0.451183 0.233300
0.088250 0.449294 0.231594
0.088250 0.449050 0.231350
0.088250 0.447425 0.228181
0.088250 0.447050 0.216708
0.091175 0.447050 0.197538
0.102033 0.455531 0.155530
0.120716 0.465588 0.110159
0.154488 0.469930 0.072917
0.212744 0.466913 0.043644
0.297417 0.451905 0.033320
0.382475 0.434319 0.034425
0.444717 0.429548 0.034264
0.500975 0.435300 0.033350
0.561827 0.445645 0.032436
0.618119 0.458966 0.032253
0.666530 0.472266 0.033350
0.706119 0.484806 0.038506
0.735484 0.494178 0.054491
0.751366 0.498659 0.074116
0.762972 0.499452 0.091763
0.768650 0.496575 0.104875
0.768650 0.489153 0.098516
0.767909 0.476603 0.084422
0.764700 0.466772 0.075266
0.763963 0.454938 0.067381
0.758069 0.438992 0.057748
0.750756 0.416791 0.046728
0.746914 0.403348 0.040967
0.741150 0.386250 0.035300
0.126347 0.504675 0.279247
0.124340 0.500897 0.275469
0.124275 0.500775 0.275347
0.124275 0.500775 0.275347
0.122675 0.500775 0.275347
0.122447 0.500775 0.275347
0.122447 0.499048 0.272178
0.123875 0.498650 0.263693
0.127200 0.498650 0.249564
0.133995 0.505784 0.219714
0.145976 0.516688 0.184786
0.172353 0.527924 0.148984
0.220885 0.534011 0.110647
0.298063 0.525707 0.074153
0.383017 0.511347 0.048146
0.455833 0.502365 0.037128
0.524617 0.501866 0.035300
0.590181 0.513011 0.037014
0.644938 0.528436 0.043882
0.689808 0.538334 0.057900
0.725108 0.546174 0.079241
0.749625 0.551318 0.107411
0.762384 0.550321 0.135733
0.773164 0.546678 0.154968
0.780156 0.541912 0.165419
0.780156 0.533452 0.159459
0.779415 0.522803 0.146428
0.776203 0.514872 0.135402
0.775222 0.504769 0.125268
0.767968 0.490775 0.109976
0.764213 0.472097 0.091712
0.764089 0.460659 0.080576
0.760259 0.449038 0.071203
0.157088 0.542650 0.313444
0.157088 0.538872 0.309666
0.157088 0.537150 0.309544
0.157088 0.538590 0.309544
0.153675 0.538750 0.309544
0.153188 0.538750 0.309544
0.153188 0.538750 0.306375
0.156234 0.538750 0.300883
0.160045 0.538750 0.291980
0.162608 0.544356 0.277503
0.167453 0.553489 0.261322
0.187713 0.566947 0.237436
0.228092 0.580723 0.198288
0.295745 0.586210 0.137271
0.377944 0.582791 0.080708
0.463071 0.572742 0.054992
0.547775 0.566438 0.050744
0.616644 0.575854 0.053600
0.665909 0.590916 0.067671
0.704373 0.597477 0.097129
0.732941 0.599635 0.134998
0.753643 0.599064 0.173176
0.766176 0.592901 0.205143
0.777556 0.586391 0.224161
0.786444 0.581606 0.230827
0.787756 0.573558 0.226600
0.787017 0.564236 0.215179
0.783813 0.556635 0.203801
0.783044 0.548531 0.191645
0.777503 0.536900 0.173620
0.775956 0.523534 0.149756
0.775888 0.512267 0.134562
0.773763 0.504669 0.119825
0.180503 0.577456 0.346056
0.180503 0.575213 0.343813
0.180503 0.572970 0.343741
0.180503 0.574924 0.343741
0.178477 0.575141 0.342354
0.178188 0.575141 0.342156
0.176867 0.575141 0.338988
0.178372 0.575141 0.337685
0.181878 0.575141 0.334007
0.182878 0.579608 0.328367
0.186649 0.585670 0.323394
0.202745 0.595855 0.314291
0.237710 0.610928 0.284877
0.300743 0.629097 0.218388
0.381130 0.640697 0.150253
0.471795 0.636852 0.112799
0.562802 0.630205 0.099261
0.630997 0.634525 0.097919
0.675539 0.643064 0.113732
0.708528 0.646594 0.151769
0.733322 0.645405 0.199244
0.754942 0.640709 0.239712
0.770467 0.633583 0.267125
0.782971 0.628641 0.283325
0.792399 0.624984 0.289003
0.795369 0.617419 0.286768
0.794626 0.609820 0.276880
0.791409 0.602209 0.267026
0.790922 0.594124 0.256697
0.787140 0.582728 0.242253
0.783569 0.571202 0.220595
0.783569 0.558413 0.203778
0.783569 0.549225 0.184791
0.201013 0.607875 0.379400
0.201013 0.607875 0.379400
0.201013 0.607875 0.379400
0.201013 0.607875 0.379400
0.201013 0.607875 0.375988
0.201013 0.607875 0.374266
0.198981 0.607875 0.372057
0.198513 0.607875 0.374647
0.200388 0.607875 0.376597
0.201013 0.609627 0.375211
0.206375 0.611988 0.374525
0.219755 0.616950 0.376469
0.249073 0.630486 0.361542
0.308944 0.657631 0.305967
0.387911 0.682027 0.242235
0.479168 0.687585 0.198915
0.570113 0.684813 0.173513
0.636436 0.684096 0.165372
0.677504 0.684904 0.179114
0.706110 0.686869 0.215596
0.730938 0.685361 0.262139
0.756240 0.679200 0.298138
0.774969 0.673770 0.318638
0.789081 0.671063 0.330622
0.798903 0.669478 0.336300
0.802925 0.663325 0.334900
0.802468 0.656863 0.328705
0.800488 0.649062 0.322525
0.800000 0.639878 0.315845
0.796216 0.629922 0.305553
0.792625 0.619606 0.291516
0.792579 0.604566 0.273946
0.791163 0.594588 0.256375
0.222438 0.634238 0.414694
0.222438 0.634238 0.414694
0.222438 0.634238 0.414694
0.222438 0.634238 0.414694
0.223611 0.634238 0.412454
0.223778 0.634238 0.409975
0.223778 0.634238 0.409575
0.223778 0.634238 0.411575
0.223778 0.634238 0.414054
0.223778 0.634238 0.414694
0.228219 0.634238 0.414694
0.237981 0.636797 0.418976
0.262424 0.646253 0.413941
0.316482 0.672009 0.378696
0.389922 0.699519 0.329723
0.480361 0.711955 0.286528
0.572550 0.717147 0.255758
0.636474 0.716781 0.242734
0.673756 0.712638 0.249831
0.701510 0.714222 0.275042
0.728537 0.716080 0.308551
0.757551 0.714912 0.336416
0.779200 0.713314 0.352515
0.794225 0.711509 0.361859
0.804640 0.710526 0.367538
0.810516 0.707015 0.366684
0.810767 0.703553 0.363145
0.811856 0.695372 0.360613
0.811369 0.684600 0.357474
0.807716 0.678285 0.349641
0.805313 0.671534 0.339380
0.803933 0.657828 0.326811
0.800122 0.650272 0.315531
0.240206 0.650756 0.440206
0.240206 0.650756 0.440206
0.240206 0.650756 0.440206
0.240206 0.650756 0.440206
0.243619 0.651823 0.441273
0.244106 0.651975 0.441425
0.244106 0.651975 0.441425
0.244106 0.651975 0.441425
0.244106 0.651061 0.440511
0.244106 0.650756 0.440206
0.245950 0.650756 0.440206
0.254531 0.653316 0.443565
0.274994 0.658789 0.443649
0.319171 0.676131 0.427655
0.383866 0.699519 0.397407
0.475555 0.717364 0.358295
0.571941 0.730513 0.323894
0.634075 0.733331 0.307182
0.669171 0.729188 0.307765
0.698155 0.731267 0.319496
0.726938 0.735769 0.336842
0.758872 0.740419 0.356325
0.783463 0.744644 0.371206
0.799391 0.744987 0.379628
0.809775 0.744870 0.385611
0.815967 0.741894 0.385938
0.817650 0.740425 0.383844
0.820819 0.732604 0.383844
0.820484 0.724244 0.382860
0.818138 0.720466 0.375355
0.817894 0.716270 0.368947
0.814152 0.706144 0.362591
0.811488 0.699769 0.358813
0.254291 0.662119 0.454291
0.254291 0.662119 0.454291
0.254291 0.662119 0.454291
0.254291 0.662119 0.454291
0.256743 0.664571 0.456743
0.257094 0.664922 0.457094
0.257094 0.664922 0.457094
0.257094 0.664922 0.457094
0.257094 0.662820 0.454991
0.257094 0.662119 0.454291
0.257867 0.662119 0.454291
0.265944 0.663958 0.459428
0.283993 0.667404 0.463490
0.317086 0.679229 0.459319
0.373653 0.699519 0.441067
0.467605 0.721393 0.402758
0.569489 0.739458 0.360975
0.635103 0.744152 0.340938
0.672538 0.740591 0.340563
0.701952 0.743771 0.345536
0.728738 0.749881 0.354981
0.760514 0.756365 0.369110
0.785306 0.764442 0.382359
0.799391 0.766621 0.393261
0.809775 0.769238 0.401765
0.816553 0.766313 0.405513
0.820331 0.765042 0.405513
0.823500 0.759100 0.405513
0.823641 0.756243 0.404538
0.824625 0.752543 0.397443
0.824450 0.749511 0.394592
0.821822 0.742009 0.390788
0.821822 0.738231 0.387009
0.263700 0.671575 0.463700
0.263700 0.671575 0.463700
0.263700 0.671575 0.463700
0.263700 0.671575 0.463700
0.263700 0.671575 0.463700
0.263700 0.671575 0.463700
0.263700 0.671575 0.463700
0.263700 0.671575 0.463700
0.263700 0.671575 0.463700
0.263700 0.671575 0.463700
0.265763 0.671575 0.463700
0.274378 0.671575 0.468868
0.290041 0.674013 0.476466
0.312759 0.682481 0.480558
0.362141 0.699397 0.468680
0.456204 0.723952 0.427588
0.562238 0.745100 0.379925
0.634732 0.751529 0.357962
0.677047 0.749975 0.357163
0.707588 0.753184 0.360434
0.733338 0.759703 0.366781
0.762018 0.766780 0.377548
0.784331 0.775717 0.388963
0.798690 0.780651 0.401491
0.809775 0.785544 0.414975
0.816766 0.783350 0.421788
0.821311 0.782802 0.422550
0.824500 0.780425 0.422550
0.824875 0.779925 0.421697
0.827500 0.776425 0.415725
0.827500 0.775998 0.415538
0.827500 0.769478 0.412602
0.827500 0.765700 0.408800
0.266700 0.674500 0.466700
0.266700 0.674500 0.466700
0.266700 0.674500 0.466700
0.266700 0.674500 0.466700
0.266700 0.674500 0.466700
0.266700 0.674500 0.466700
0.266700 0.674500 0.466700
0.266700 0.674500 0.466700
0.266700 0.674500 0.466700
0.266700 0.674500 0.466700
0.266700 0.674500 0.466700
0.273818 0.674500 0.471259
0.286826 0.676938 0.478571
0.305840 0.685406 0.486676
0.349394 0.699031 0.479655
0.437681 0.722116 0.441122
0.542995 0.744663 0.393197
0.620929 0.752900 0.368996
0.671078 0.752900 0.365180
0.706574 0.756109 0.366284
0.733018 0.763725 0.371563
0.759859 0.772656 0.380522
0.780218 0.781885 0.391888
0.796588 0.787375 0.404416
0.809775 0.793266 0.418650
0.817406 0.793906 0.428726
0.824250 0.794066 0.433266
0.827500 0.794759 0.433959
0.827500 0.794369 0.433579
0.827500 0.791634 0.430913
0.827500 0.791444 0.430913
0.827500 0.788466 0.430815
0.827500 0.784688 0.427788
0.266700 0.674500 0.466700
0.266700 0.674500 0.466700
0.266700 0.674500 0.466700
0.266700 0.674500 0.466700
0.266700 0.674500 0.466700
0.266700 0.674500 0.466700
0.266700 0.674500 0.466700
0.266700 0.674500 0.466700
0.266700 0.674500 0.466700
0.266700 0.674500 0.466700
0.266700 0.674500 0.466700
0.271339 0.674500 0.468779
0.280675 0.676480 0.474744
0.296456 0.684675 0.484675
0.334477 0.697878 0.481460
0.415411 0.718985 0.448536
0.517144 0.742003 0.405381
0.600396 0.752512 0.378070
0.659639 0.753228 0.366985
0.701486 0.756555 0.365850
0.730401 0.763725 0.371563
0.754275 0.772656 0.380271
0.774507 0.783072 0.391156
