luts/A_v_log/F-6800-VLOG.cube
# Copyright: (C) Copyright 2010-2019 by IWLTBAP SAS
# Cannot be resold, shared or otherwise redistributed
# Website: https://luts.iwltbap.com
TITLE "IWLTBAP 6800 (V-Log L)"
LUT_3D_SIZE 5
0.000000 0.000000 0.000000
0.118225 0.012329 0.010254
0.425598 0.010559 0.003418
0.893768 0.186890 0.122772
0.940674 0.267944 0.206726
0.006287 0.071411 0.094208
0.142120 0.086365 0.057709
0.699677 0.095001 0.002228
0.923889 0.279663 0.164368
0.943604 0.300079 0.199066
0.000793 0.253113 0.353271
0.005066 0.347870 0.476379
0.534729 0.256042 0.049194
0.945526 0.471375 0.201630
0.962646 0.490448 0.232880
0.000000 0.516724 0.707611
0.003876 0.524323 0.713287
0.060944 0.558105 0.726227
0.830170 0.745026 0.351837
0.949158 0.575073 0.254852
0.000000 0.532928 0.728424
0.004333 0.537262 0.729858
0.023865 0.551819 0.735016
0.253845 0.664337 0.772736
0.838501 0.906555 0.480408
0.004974 0.039093 0.056946
0.117615 0.025146 0.078522
0.447998 0.025055 0.126556
0.910339 0.225311 0.279205
0.936523 0.271851 0.345428
0.004364 0.106903 0.147430
0.097900 0.106415 0.130859
0.604340 0.093536 0.097961
0.918335 0.282593 0.269501
0.940094 0.301605 0.300110
0.000000 0.258362 0.377136
0.005096 0.314758 0.443848
0.452820 0.356750 0.163666
0.950134 0.512634 0.250671
0.967224 0.528015 0.273926
0.000000 0.507874 0.711090
0.003876 0.519897 0.718597
0.080475 0.565521 0.732086
0.805359 0.835541 0.430695
0.892670 0.705200 0.342133
0.000793 0.529236 0.736908
0.004333 0.533569 0.735596
0.037842 0.557587 0.740479
0.267303 0.670837 0.773041
0.838989 0.909363 0.492126
0.000000 0.142334 0.204041
0.093445 0.078156 0.186768
0.424103 0.046997 0.404572
0.905640 0.310333 0.697144
0.925568 0.353333 0.768066
0.000000 0.266388 0.375214
0.031036 0.307037 0.419006
0.537872 0.121155 0.516663
0.888611 0.363617 0.785980
0.908875 0.384888 0.834930
0.000000 0.353088 0.506256
0.008972 0.390747 0.548584
0.383942 0.412079 0.441040
0.938599 0.576843 0.558807
0.959106 0.568268 0.602051
0.083649 0.581421 0.771576
0.088104 0.580261 0.767639
0.189178 0.597565 0.751038
0.840149 0.872925 0.592743
0.898956 0.813293 0.542236
0.172363 0.635376 0.811615
0.145264 0.615997 0.794800
0.143433 0.591736 0.760651
0.396637 0.718201 0.790527
0.847321 0.925995 0.580017
0.000000 0.334595 0.482239
0.027496 0.339752 0.481598
0.383606 0.030518 0.496704
0.746887 0.208435 0.827759
0.769989 0.242249 0.850769
0.000000 0.417023 0.590454
0.009888 0.434601 0.603271
0.527435 0.116241 0.679657
0.744263 0.283081 0.858215
0.772888 0.307587 0.879150
0.000000 0.485138 0.681366
0.013519 0.533173 0.736572
0.249054 0.567444 0.699463
0.858551 0.585052 0.915649
0.881866 0.591827 0.937012
0.344543 0.758575 0.918121
0.367767 0.767761 0.921814
0.488159 0.801483 0.921570
0.954407 0.957642 0.958282
0.979248 0.960144 0.966125
0.397278 0.783386 0.931976
0.405457 0.785614 0.931946
0.484924 0.808014 0.932251
0.860565 0.937958 0.964935
0.939941 0.976410 0.910858
0.000000 0.411560 0.592072
0.014099 0.438446 0.614838
0.406769 0.191925 0.640961
0.727142 0.243469 0.856598
0.758545 0.277435 0.879730
0.000000 0.425568 0.603821
0.006805 0.442413 0.616547
0.514404 0.112701 0.675079
0.735809 0.268738 0.860352
0.767151 0.302246 0.883881
0.000000 0.485016 0.680695
0.010559 0.535004 0.740417
0.225220 0.568176 0.706818
0.830750 0.527924 0.911133
0.861633 0.556244 0.938690
0.362640 0.771149 0.928589
0.383484 0.779388 0.931915
0.472137 0.805054 0.932953
0.961975 0.963898 0.980194
0.987732 0.965302 0.996857
0.414154 0.795319 0.942139
0.422150 0.797546 0.942078
0.492279 0.817535 0.942627
0.905060 0.962158 0.983887
0.990662 0.999359 0.999969
