luts/A_v_log/F-6800-VLOG.cube
# Copyright: (C) Copyright 2010-2019 by IWLTBAP SAS
# Cannot be resold, shared or otherwise redistributed
# Website: https://luts.iwltbap.com
TITLE "IWLTBAP 6800 (V-Log L)"
LUT_3D_SIZE 9
0.000000 0.000000 0.000000
0.032196 0.004120 0.004883
0.118225 0.012329 0.010254
0.249268 0.013428 0.004791
0.425598 0.010559 0.003418
0.666016 0.020142 0.004242
0.893768 0.186890 0.122772
0.930359 0.249512 0.185059
0.940674 0.267944 0.206726
0.003296 0.019989 0.025238
0.040863 0.023926 0.025360
0.179901 0.028961 0.015106
0.403381 0.024200 0.002380
0.737793 0.049408 0.006042
0.910461 0.223724 0.144348
0.920959 0.241791 0.161591
0.931458 0.260345 0.179382
0.941956 0.279053 0.197113
0.006287 0.071411 0.094208
0.016235 0.094788 0.119690
0.142120 0.086365 0.057709
0.387390 0.076141 0.004272
0.699677 0.095001 0.002228
0.914215 0.271881 0.147400
0.923889 0.279663 0.164368
0.933685 0.289124 0.181915
0.943604 0.300079 0.199066
0.002747 0.147827 0.203033
0.006226 0.199219 0.272827
0.030945 0.200348 0.252991
0.298401 0.170013 0.065063
0.688812 0.175201 0.001587
0.923645 0.370209 0.156250
0.932709 0.376617 0.173615
0.941833 0.382874 0.191162
0.950775 0.385620 0.208435
0.000793 0.253113 0.353271
0.001862 0.325897 0.450500
0.005066 0.347870 0.476379
0.047119 0.339661 0.435364
0.534729 0.256042 0.049194
0.932404 0.454102 0.178558
0.945526 0.471375 0.201630
0.953979 0.481079 0.216919
0.962646 0.490448 0.232880
0.000000 0.397583 0.549316
0.001556 0.475189 0.651367
0.003723 0.508789 0.693268
0.017792 0.512238 0.685822
0.097198 0.520020 0.659271
0.832123 0.433228 0.116302
0.954559 0.536041 0.246552
0.966095 0.547852 0.265259
0.975739 0.559296 0.281586
0.000000 0.516724 0.707611
0.002014 0.522217 0.712616
0.003876 0.524323 0.713287
0.011475 0.531067 0.715485
0.060944 0.558105 0.726227
0.212952 0.631073 0.751465
0.830170 0.745026 0.351837
0.902985 0.607025 0.260376
0.949158 0.575073 0.254852
0.000000 0.526489 0.720154
0.002167 0.528687 0.720886
0.004181 0.530823 0.721588
0.007812 0.534058 0.722656
0.039246 0.553955 0.730042
0.140076 0.601044 0.750977
0.530884 0.827271 0.534027
0.820312 0.872467 0.451447
0.847931 0.868927 0.452332
0.000000 0.532928 0.728424
0.002167 0.535095 0.729126
0.004333 0.537262 0.729858
0.006775 0.539490 0.730591
0.023865 0.551819 0.735016
0.094788 0.586090 0.749756
0.253845 0.664337 0.772736
0.810150 0.904877 0.476715
0.838501 0.906555 0.480408
0.002197 0.011047 0.016205
0.036377 0.012512 0.020996
0.123901 0.016602 0.032166
0.257294 0.017181 0.038605
0.440002 0.014221 0.042206
0.690521 0.027130 0.042755
0.904785 0.207916 0.187561
0.927887 0.247131 0.231934
0.938599 0.265808 0.256927
0.004150 0.031891 0.043427
0.033722 0.033142 0.044250
0.156494 0.033539 0.042969
0.377502 0.028137 0.033142
0.714081 0.042847 0.027863
0.908813 0.222290 0.167908
0.919525 0.240387 0.184448
0.930267 0.258942 0.201721
0.940765 0.277344 0.223358
0.005157 0.080475 0.108856
0.019379 0.094452 0.121063
0.127258 0.095825 0.077972
0.344421 0.087006 0.022522
0.658325 0.100037 0.009308
0.914368 0.282471 0.157898
0.924072 0.288147 0.174988
0.933807 0.295471 0.192322
0.943573 0.304596 0.209473
0.001282 0.150238 0.210938
0.005737 0.190094 0.264008
0.036591 0.201996 0.252472
0.271027 0.201019 0.101135
0.643097 0.180725 0.008331
0.918457 0.383423 0.155457
0.935303 0.403320 0.186737
0.943909 0.406494 0.203674
0.952637 0.408508 0.220642
0.000000 0.248230 0.353668
0.001373 0.321808 0.450256
0.005951 0.341919 0.469513
0.042786 0.358337 0.465332
0.478638 0.331024 0.112915
0.923340 0.453583 0.174835
0.948975 0.493530 0.221649
0.957825 0.505127 0.237488
0.966309 0.515350 0.252777
0.000000 0.387726 0.544312
0.001221 0.470520 0.649536
0.003448 0.504395 0.689209
0.022400 0.519165 0.693146
0.102966 0.543518 0.689667
0.763275 0.507355 0.165405
0.950195 0.548706 0.253510
0.966187 0.564941 0.278503
0.978241 0.579803 0.299988
0.000000 0.512360 0.707428
0.002014 0.520752 0.714142
0.003876 0.523529 0.714081
0.014862 0.533203 0.716827
0.069946 0.561951 0.728455
0.217224 0.632996 0.751831
0.810120 0.813263 0.408691
0.866302 0.713135 0.337860
0.915588 0.629456 0.285065
0.000000 0.524292 0.722687
0.002167 0.527252 0.722534
0.004181 0.529999 0.722473
0.009399 0.535187 0.723633
0.046875 0.557404 0.732056
0.143372 0.602203 0.751953
0.508331 0.815796 0.568420
0.820557 0.873901 0.457336
0.848175 0.870361 0.458191
0.000000 0.530823 0.731171
0.002167 0.533691 0.730927
0.004333 0.536438 0.730835
0.006775 0.539215 0.731110
0.030090 0.555054 0.736816
0.107300 0.591522 0.752777
0.259674 0.666992 0.773315
0.810394 0.906281 0.482574
0.838745 0.907959 0.486267
0.004974 0.039093 0.056946
0.037048 0.030914 0.057495
0.117615 0.025146 0.078522
0.252716 0.026398 0.109650
0.447998 0.025055 0.126556
0.710938 0.042511 0.132874
0.910339 0.225311 0.279205
0.925293 0.251495 0.314209
0.936523 0.271851 0.345428
0.005524 0.074280 0.103760
0.025696 0.074066 0.111511
0.134399 0.044159 0.109711
0.331818 0.042053 0.138672
0.660400 0.044006 0.138367
0.903168 0.223358 0.269440
0.914703 0.241547 0.286926
0.926178 0.260223 0.304474
0.937531 0.279510 0.327484
0.004364 0.106903 0.147430
0.016724 0.114716 0.155121
0.097900 0.106415 0.130859
0.287354 0.096161 0.111664
0.604340 0.093536 0.097961
0.905121 0.271881 0.249969
0.918335 0.282593 0.269501
0.929260 0.291412 0.285034
0.940094 0.301605 0.300110
0.000427 0.170715 0.244080
0.004272 0.193817 0.276306
0.040802 0.192871 0.249420
0.249939 0.208557 0.155670
0.579407 0.195038 0.054993
0.901459 0.366516 0.181030
0.932983 0.403046 0.232910
0.941589 0.402252 0.251007
0.950470 0.402008 0.269073
0.000000 0.258362 0.377136
0.000610 0.314880 0.455231
0.005096 0.314758 0.443848
0.049469 0.335052 0.434814
0.452820 0.356750 0.163666
0.903412 0.442230 0.173859
0.950134 0.512634 0.250671
0.959015 0.521393 0.262115
0.967224 0.528015 0.273926
0.000000 0.382080 0.551910
0.000610 0.459534 0.648468
0.002655 0.483734 0.672882
0.023315 0.502045 0.675781
0.103027 0.537262 0.683990
0.711487 0.560577 0.210419
0.946655 0.560608 0.267487
0.964691 0.577362 0.292725
0.978485 0.592651 0.312469
0.000000 0.507874 0.711090
0.002197 0.517303 0.719238
0.003876 0.519897 0.718597
0.018311 0.533417 0.721039
0.080475 0.565521 0.732086
0.222565 0.635254 0.752502
0.805359 0.835541 0.430695
0.849487 0.774200 0.387695
0.892670 0.705200 0.342133
0.000488 0.522186 0.728363
0.002625 0.524292 0.727814
0.004181 0.526764 0.727112
0.011566 0.534515 0.727783
0.056183 0.560547 0.735809
0.157104 0.608093 0.755341
0.520233 0.819702 0.563721
0.821106 0.875610 0.463623
0.848419 0.872223 0.464417
0.000793 0.529236 0.736908
0.002960 0.531219 0.736359
0.004333 0.533569 0.735596
0.007965 0.537567 0.735168
0.037842 0.557587 0.740479
0.120972 0.597107 0.756378
0.267303 0.670837 0.773041
0.807129 0.907318 0.488129
0.838989 0.909363 0.492126
0.004028 0.082550 0.117645
0.031158 0.068237 0.115906
0.111237 0.036743 0.127228
0.237579 0.034882 0.196411
0.450989 0.048798 0.277252
0.731201 0.083374 0.321350
0.912170 0.257324 0.438843
0.924011 0.280670 0.476257
0.935883 0.304596 0.515259
0.000000 0.160553 0.228027
0.011963 0.165680 0.237152
0.116577 0.080322 0.201569
0.314819 0.049805 0.287354
0.659790 0.090912 0.405090
0.900055 0.262970 0.492249
0.912170 0.281403 0.508209
0.924316 0.299835 0.522034
0.936279 0.318909 0.538788
0.001587 0.158691 0.220490
0.007660 0.176636 0.244415
0.067017 0.166138 0.227264
0.245941 0.102570 0.217804
0.545227 0.115448 0.290833
0.888672 0.287384 0.433441
0.913391 0.314423 0.472961
0.925568 0.326050 0.499237
0.937531 0.338440 0.522186
0.000000 0.211700 0.301361
0.003448 0.234772 0.334534
0.039246 0.224152 0.298248
0.198090 0.222443 0.252869
0.498932 0.209991 0.209290
0.870056 0.349243 0.333923
0.921997 0.400818 0.396515
0.933502 0.402893 0.415344
0.945007 0.405975 0.432556
0.000000 0.297638 0.432190
0.000610 0.340485 0.494812
0.006561 0.329712 0.466736
0.062439 0.325592 0.425232
0.436035 0.387054 0.282776
0.864960 0.456604 0.241760
0.949707 0.557526 0.350098
0.958038 0.557068 0.361176
0.966003 0.553253 0.376495
0.000000 0.406464 0.591583
0.000916 0.466125 0.664795
0.003357 0.470215 0.664764
0.021027 0.479187 0.655853
0.110626 0.515625 0.661438
0.691223 0.608765 0.312408
0.947235 0.618744 0.361694
0.964539 0.628113 0.373474
0.979004 0.638000 0.385590
0.003143 0.515686 0.721222
0.005981 0.522675 0.727417
0.007690 0.523285 0.726532
0.030304 0.536530 0.728119
0.101440 0.568787 0.738373
0.231537 0.634155 0.760315
0.813080 0.848267 0.482635
0.853241 0.800659 0.450195
0.891937 0.746552 0.413452
0.007294 0.531616 0.736969
0.008698 0.531494 0.736023
0.008942 0.530579 0.734467
0.021484 0.537720 0.734833
0.075500 0.563477 0.742004
0.179535 0.613861 0.762421
0.540619 0.819763 0.603271
0.823730 0.883636 0.495850
0.849548 0.881683 0.498016
0.011719 0.540833 0.745331
0.012268 0.539978 0.743988
0.010406 0.538025 0.742249
0.014862 0.540375 0.741852
0.054504 0.560455 0.746948
0.143829 0.602203 0.763092
0.302765 0.685120 0.776276
0.811584 0.911804 0.510681
0.839508 0.913086 0.509033
0.000000 0.142334 0.204041
0.020966 0.136230 0.204803
0.093445 0.078156 0.186768
0.218384 0.033600 0.247040
0.424103 0.046997 0.404572
0.733765 0.134613 0.586548
0.905640 0.310333 0.697144
0.916016 0.332397 0.733124
0.925568 0.353333 0.768066
0.000000 0.310944 0.446320
0.001801 0.321564 0.458496
0.051331 0.296234 0.428772
0.305634 0.038391 0.383270
0.617706 0.084595 0.641907
0.850433 0.294312 0.826416
0.869629 0.316559 0.832397
0.886230 0.337616 0.841888
0.900848 0.357727 0.854401
0.000000 0.266388 0.375214
0.003082 0.292542 0.409424
0.031036 0.307037 0.419006
0.219421 0.148468 0.349792
0.537872 0.121155 0.516663
0.865692 0.339447 0.761414
0.888611 0.363617 0.785980
0.898376 0.373871 0.811890
0.908875 0.384888 0.834930
0.000000 0.269562 0.381714
0.003357 0.306244 0.433350
0.024414 0.308075 0.420166
0.136292 0.311279 0.396576
0.453522 0.216034 0.391479
0.839630 0.374695 0.582947
0.914215 0.454559 0.674347
0.925201 0.461609 0.713440
0.935760 0.468231 0.749847
0.000000 0.353088 0.506256
0.001221 0.404785 0.579285
0.008972 0.390747 0.548584
0.084869 0.382385 0.496826
0.383942 0.412079 0.441040
0.812500 0.469086 0.433014
0.938599 0.576843 0.558807
0.948486 0.571747 0.579834
0.959106 0.568268 0.602051
0.002380 0.473816 0.670410
0.025330 0.527161 0.724915
0.032288 0.524231 0.717377
0.071167 0.522034 0.694794
0.181091 0.526398 0.655823
0.701813 0.667999 0.482117
0.949158 0.711243 0.515228
0.966187 0.712555 0.516632
0.980072 0.715942 0.524200
0.083649 0.581421 0.771576
0.088562 0.583038 0.771545
0.088104 0.580261 0.767639
0.124237 0.585083 0.759735
0.189178 0.597565 0.751038
0.324097 0.662140 0.773468
0.840149 0.872925 0.592743
0.872589 0.845032 0.572021
0.898956 0.813293 0.542236
0.129608 0.610260 0.793152
0.126984 0.606598 0.789124
0.115234 0.598022 0.781586
0.125061 0.592651 0.769928
0.163177 0.593445 0.755493
0.264160 0.637024 0.772369
0.595795 0.825134 0.694611
0.840759 0.902496 0.585724
0.863129 0.902496 0.587891
0.172363 0.635376 0.811615
0.160248 0.626465 0.803772
0.145264 0.615997 0.794800
0.126434 0.599274 0.778412
0.143433 0.591736 0.760651
0.223267 0.622253 0.770111
0.396637 0.718201 0.790527
0.827911 0.924927 0.594788
0.847321 0.925995 0.580017
0.000000 0.221954 0.320526
0.007965 0.236267 0.339355
0.063782 0.187347 0.302124
0.201660 0.058868 0.296997
0.392761 0.026520 0.445465
0.664490 0.101196 0.709534
0.817932 0.267944 0.872253
0.824097 0.279602 0.888092
0.826965 0.287323 0.901886
0.000000 0.397339 0.570068
0.000549 0.401428 0.573334
0.020966 0.424164 0.593201
0.268463 0.295532 0.601898
0.611450 0.106903 0.722626
0.735107 0.209015 0.816406
0.752167 0.221802 0.829376
0.768219 0.236786 0.844482
0.782959 0.252625 0.860260
0.000000 0.410797 0.581055
0.000916 0.421143 0.591644
0.011444 0.430511 0.596527
0.136261 0.426605 0.612671
0.522217 0.103180 0.639343
0.756958 0.264130 0.821136
0.776001 0.277435 0.835632
0.788513 0.285828 0.849304
0.798584 0.292114 0.862457
0.000000 0.400665 0.563049
0.001862 0.431976 0.605927
0.010651 0.442749 0.610809
0.083557 0.468018 0.617126
0.420258 0.244690 0.569977
0.791107 0.384308 0.797485
0.849274 0.438904 0.837891
0.859253 0.441803 0.852753
0.864075 0.438171 0.868378
0.000000 0.427704 0.606018
0.004089 0.480042 0.673218
0.011505 0.484436 0.673218
0.065277 0.489899 0.651703
0.277985 0.523071 0.636719
0.777069 0.502899 0.708466
0.915802 0.617218 0.779083
0.923584 0.613708 0.801086
0.930420 0.607300 0.825012
0.036469 0.558105 0.761658
0.144989 0.630920 0.817932
0.157166 0.633209 0.816345
0.180969 0.624725 0.795502
0.298859 0.633331 0.761261
0.725952 0.736206 0.735107
0.945831 0.803162 0.747589
0.958069 0.787720 0.747467
0.968506 0.770538 0.750305
0.257629 0.695953 0.864166
0.270691 0.700195 0.864960
0.273132 0.698975 0.862244
0.315491 0.707733 0.858124
0.397980 0.725922 0.851105
0.571808 0.774292 0.846252
0.894257 0.917450 0.777039
0.913300 0.910065 0.761353
0.929535 0.892365 0.736542
0.317291 0.731232 0.890167
0.316467 0.728790 0.887085
0.315277 0.725922 0.883514
0.342102 0.729828 0.878632
0.399139 0.738892 0.869019
0.493866 0.750458 0.846985
0.790131 0.892334 0.812805
0.892700 0.932434 0.739380
0.908234 0.935181 0.741333
0.357483 0.755524 0.908417
0.356079 0.752686 0.905029
0.354736 0.749878 0.901611
0.363068 0.746979 0.894379
0.398590 0.747437 0.881165
0.450897 0.741943 0.852234
0.653259 0.821320 0.849060
0.883820 0.946045 0.744354
0.888611 0.945038 0.706879
0.000000 0.334595 0.482239
0.001373 0.366425 0.523407
0.027496 0.339752 0.481598
0.165436 0.232086 0.447815
0.383606 0.030518 0.496704
0.633331 0.094147 0.718079
0.746887 0.208435 0.827759
0.758240 0.225189 0.839081
0.769989 0.242249 0.850769
0.000000 0.402679 0.577911
0.000488 0.406586 0.581055
0.018280 0.429321 0.600464
0.252838 0.335083 0.625397
0.634705 0.153168 0.778198
0.717407 0.233368 0.841614
0.732971 0.249847 0.853180
0.748566 0.266083 0.864044
0.764465 0.281372 0.873871
0.000000 0.417023 0.590454
0.000916 0.425873 0.598511
0.009888 0.434601 0.603271
0.123962 0.441833 0.626648
0.527435 0.116241 0.679657
0.728729 0.266785 0.846344
0.744263 0.283081 0.858215
0.758881 0.296143 0.869019
0.772888 0.307587 0.879150
0.000000 0.441284 0.618622
0.001862 0.456665 0.638885
0.009155 0.458984 0.633942
0.076416 0.480896 0.637024
0.407837 0.328247 0.641724
0.763031 0.374603 0.859924
0.785797 0.398712 0.878082
0.800079 0.409790 0.889435
0.811951 0.415283 0.899475
0.000000 0.485138 0.681366
0.006897 0.527252 0.732788
0.013519 0.533173 0.736572
0.057770 0.529205 0.708038
0.249054 0.567444 0.699463
0.759186 0.487183 0.832520
0.858551 0.585052 0.915649
0.872284 0.592926 0.926819
0.881866 0.591827 0.937012
0.066101 0.607910 0.817230
0.227173 0.700531 0.883270
0.278809 0.724792 0.896820
0.267700 0.709961 0.880219
0.322601 0.708527 0.855835
0.694611 0.774933 0.854950
0.936035 0.816650 0.941162
0.947601 0.813568 0.950317
0.955322 0.801086 0.961548
0.344543 0.758575 0.918121
0.363983 0.766937 0.922150
0.367767 0.767761 0.921814
0.405029 0.777771 0.921295
0.488159 0.801483 0.921570
0.715729 0.876495 0.937317
0.954407 0.957642 0.958282
0.969940 0.963593 0.964844
0.979248 0.960144 0.966125
0.378540 0.774567 0.927094
0.382599 0.775696 0.927063
0.386780 0.776825 0.927032
0.417542 0.785370 0.926971
0.489441 0.806183 0.927734
0.667938 0.864838 0.939758
0.927338 0.961304 0.968567
0.957703 0.975494 0.954163
0.963531 0.978851 0.950592
0.397278 0.783386 0.931976
0.401337 0.784485 0.931946
0.405457 0.785614 0.931946
0.426849 0.791473 0.931885
0.484924 0.808014 0.932251
0.610260 0.848328 0.938995
0.860565 0.937958 0.964935
0.955353 0.981567 0.960419
0.939941 0.976410 0.910858
0.000000 0.405792 0.583862
0.000641 0.412842 0.589661
0.014008 0.432159 0.606262
0.112274 0.414856 0.616699
0.393158 0.155182 0.604797
0.634949 0.136719 0.768372
0.730408 0.237518 0.849060
0.744965 0.255798 0.862457
0.760010 0.273376 0.874969
0.000000 0.408051 0.585754
0.000458 0.411621 0.588654
0.015289 0.434204 0.607574
0.240601 0.355164 0.634979
0.628510 0.150543 0.776611
0.716248 0.235138 0.844086
0.731781 0.251678 0.855713
0.747528 0.268738 0.867371
0.762909 0.285400 0.878815
0.000000 0.421265 0.597076
0.000854 0.430389 0.605225
0.008270 0.438477 0.609894
0.113159 0.450287 0.633911
0.520905 0.113495 0.677368
0.724487 0.259430 0.847473
0.739929 0.275482 0.859283
0.755371 0.291534 0.871002
0.769897 0.305634 0.882202
0.000000 0.444489 0.622986
0.001862 0.459045 0.641846
0.008209 0.462006 0.638794
0.071228 0.483795 0.642792
0.389130 0.351471 0.651276
0.759430 0.363708 0.862427
0.776703 0.379211 0.876984
0.792725 0.396088 0.889862
0.806427 0.407135 0.901428
0.000000 0.485046 0.681030
0.005280 0.523163 0.728119
0.012115 0.535614 0.740417
0.052765 0.528992 0.709686
0.237579 0.568054 0.703278
0.743103 0.465546 0.825073
0.842224 0.551727 0.913422
0.859283 0.570099 0.928406
0.872437 0.578156 0.940460
0.068298 0.611420 0.821167
0.222443 0.700439 0.885010
0.296051 0.735718 0.905365
0.269531 0.714691 0.886139
0.306458 0.705627 0.858063
0.674011 0.770935 0.855072
0.925049 0.785889 0.954102
0.939240 0.795593 0.967468
0.949738 0.795532 0.977661
0.353912 0.765015 0.923462
0.371643 0.772583 0.927032
0.375793 0.773743 0.927032
0.403687 0.781525 0.927063
0.476746 0.802917 0.928101
0.678802 0.869507 0.941772
0.960907 0.962250 0.972534
0.976868 0.968597 0.984009
0.985352 0.968964 0.986725
0.386963 0.780548 0.932159
0.390991 0.781647 0.932098
0.395081 0.782806 0.932068
0.420685 0.789886 0.932098
0.488281 0.809540 0.932922
0.664124 0.867676 0.945099
0.944061 0.970581 0.980255
0.977661 0.984344 0.985107
0.986267 0.989807 0.988922
0.405701 0.789337 0.937073
0.409698 0.790466 0.937012
0.413757 0.791565 0.936981
0.433868 0.797089 0.937012
0.492950 0.814087 0.937531
0.635742 0.860748 0.946442
0.910034 0.962097 0.979919
0.976776 0.991760 0.991608
0.985199 0.996246 0.992157
0.000000 0.411560 0.592072
0.000336 0.418793 0.598022
0.014099 0.438446 0.614838
0.111481 0.432678 0.636871
0.406769 0.191925 0.640961
0.643372 0.159088 0.793396
0.727142 0.243469 0.856598
0.742828 0.260437 0.868164
0.758545 0.277435 0.879730
0.000000 0.413635 0.593781
0.000397 0.416840 0.596375
0.012848 0.439178 0.614899
0.218201 0.381989 0.644196
0.600586 0.130280 0.756927
0.714966 0.236908 0.846466
0.730621 0.253571 0.858185
0.746368 0.270630 0.869873
0.762085 0.287659 0.881439
0.000000 0.425568 0.603821
0.000702 0.434845 0.611938
0.006805 0.442413 0.616547
0.101959 0.458282 0.640930
0.514404 0.112701 0.675079
0.721008 0.254822 0.848907
0.735809 0.268738 0.860352
0.751709 0.286194 0.872223
0.767151 0.302246 0.883881
0.000000 0.447784 0.627533
0.001862 0.461456 0.644806
0.007355 0.464996 0.643494
0.065186 0.486420 0.648438
0.365845 0.377960 0.661285
0.753387 0.354095 0.862030
0.769073 0.362885 0.876099
0.784912 0.379333 0.888885
0.800385 0.394836 0.901215
0.000000 0.485016 0.680695
0.004272 0.518982 0.723145
0.010559 0.535004 0.740417
0.047974 0.528229 0.710449
0.225220 0.568176 0.706818
0.719666 0.439362 0.810028
0.830750 0.527924 0.911133
0.845154 0.539368 0.924316
0.861633 0.556244 0.938690
0.054047 0.602539 0.814301
0.201447 0.691498 0.880737
0.303040 0.741119 0.910156
0.265442 0.715942 0.889526
0.287903 0.699829 0.857147
0.649719 0.764526 0.853455
0.917755 0.769165 0.960358
0.925720 0.758972 0.971313
0.940277 0.772766 0.984558
0.362640 0.771149 0.928589
0.379395 0.778229 0.931915
0.383484 0.779388 0.931915
0.404938 0.785370 0.931976
0.472137 0.805054 0.932953
0.661163 0.866821 0.944824
0.961975 0.963898 0.980194
0.978912 0.962372 0.991577
0.987732 0.965302 0.996857
0.394714 0.786194 0.937042
0.398743 0.787323 0.937012
0.402771 0.788452 0.936981
0.420380 0.793335 0.937042
0.477875 0.809998 0.937714
0.622528 0.856781 0.945953
0.922028 0.963928 0.982819
0.982147 0.987732 0.993195
0.990356 0.993225 0.999634
0.414154 0.795319 0.942139
0.418152 0.796417 0.942108
0.422150 0.797546 0.942078
0.437775 0.801849 0.942078
0.492279 0.817535 0.942627
0.622528 0.859741 0.950012
0.905060 0.962158 0.983887
0.981995 0.995148 0.998016
0.990662 0.999359 0.999969
