luts/A_v_log/F-6800-VLOG.cube
# Copyright: (C) Copyright 2010-2019 by IWLTBAP SAS
# Cannot be resold, shared or otherwise redistributed
# Website: https://luts.iwltbap.com
TITLE "IWLTBAP 6800 (V-Log L)"
LUT_3D_SIZE 33
0.000000 0.000000 0.000000
0.003387 0.000427 0.000519
0.010223 0.001312 0.001587
0.019897 0.002563 0.003052
0.032196 0.004120 0.004883
0.048309 0.006165 0.006531
0.068329 0.008545 0.008392
0.091675 0.010956 0.010193
0.118225 0.012329 0.010254
0.146942 0.013763 0.010254
0.178009 0.014191 0.009094
0.212128 0.014191 0.006744
0.249268 0.013428 0.004791
0.289154 0.012421 0.003967
0.331757 0.011902 0.003143
0.377075 0.011139 0.003174
0.425598 0.010559 0.003418
0.478333 0.010345 0.003632
0.536346 0.011139 0.003845
0.599823 0.013275 0.003967
0.666016 0.020142 0.004242
0.730591 0.036133 0.007690
0.792267 0.068329 0.023560
0.849945 0.124390 0.066589
0.893768 0.186890 0.122772
0.918732 0.228851 0.162750
0.925201 0.240356 0.174438
0.927765 0.244934 0.179718
0.930359 0.249512 0.185059
0.932953 0.254150 0.190430
0.935516 0.258759 0.195801
0.938110 0.263367 0.201233
0.940674 0.267944 0.206726
0.000366 0.002045 0.002594
0.003998 0.002502 0.002777
0.014069 0.003540 0.004059
0.028625 0.005432 0.006317
0.050354 0.008209 0.008423
0.079651 0.011505 0.010651
0.115082 0.014008 0.011475
0.154083 0.015900 0.011169
0.187012 0.016052 0.009369
0.222076 0.016083 0.006561
0.260132 0.015137 0.004669
0.301025 0.014160 0.003571
0.344635 0.013916 0.002380
0.391083 0.013275 0.002380
0.441223 0.012634 0.002289
0.496002 0.012756 0.002289
0.556335 0.013733 0.002289
0.621338 0.017548 0.002289
0.687225 0.026672 0.002777
0.750305 0.046387 0.007568
0.811096 0.085327 0.030243
0.863831 0.144104 0.077881
0.899597 0.198730 0.127899
0.917053 0.228058 0.155457
0.920319 0.233826 0.161224
0.922913 0.238495 0.166382
0.925537 0.243134 0.171539
0.928101 0.247742 0.176697
0.930695 0.252319 0.181946
0.933289 0.256989 0.187225
0.935883 0.261566 0.192505
0.938477 0.266205 0.197876
0.941040 0.270782 0.203186
0.001099 0.006256 0.007904
0.004150 0.007935 0.009674
0.012573 0.007538 0.008392
0.027924 0.008759 0.009918
0.047943 0.010925 0.011078
0.074615 0.013611 0.012329
0.108643 0.015961 0.013000
0.147705 0.017395 0.012115
0.191986 0.018036 0.009521
0.242554 0.017609 0.005981
0.298859 0.016327 0.003784
0.360229 0.015686 0.002380
0.427338 0.015076 0.002228
0.503143 0.015442 0.002228
0.572601 0.016815 0.002228
0.637207 0.021454 0.002228
0.701416 0.032440 0.003204
0.762878 0.055267 0.010223
0.821594 0.097900 0.037598
0.869415 0.154663 0.085083
0.899994 0.201691 0.128326
0.911743 0.221283 0.146637
0.915283 0.227234 0.152252
0.917908 0.231842 0.156708
0.920563 0.236511 0.161224
0.923157 0.241180 0.165619
0.925812 0.245850 0.170074
0.928436 0.250519 0.174530
0.931030 0.255157 0.179016
0.933655 0.259827 0.183990
0.936249 0.264404 0.189148
0.938843 0.269073 0.194336
0.941437 0.273651 0.199493
0.002136 0.012299 0.015503
0.005493 0.015656 0.019409
0.009277 0.015472 0.018738
0.024811 0.014709 0.016357
0.046600 0.016266 0.016388
0.073700 0.018707 0.016724
0.104889 0.020996 0.016663
0.141327 0.021881 0.014618
0.184204 0.022156 0.012085
0.233368 0.021606 0.007324
0.287903 0.019653 0.004364
0.347504 0.018433 0.002472
0.414062 0.017731 0.002136
0.489441 0.017670 0.002136
0.575531 0.019501 0.002136
0.667847 0.028168 0.002380
0.756134 0.054291 0.008484
0.836670 0.115326 0.048889
0.889221 0.186096 0.111237
0.906952 0.215576 0.139038
0.910248 0.221069 0.144165
0.912903 0.225464 0.148285
0.915497 0.229858 0.152435
0.918121 0.234467 0.156891
0.920746 0.239136 0.161407
0.923370 0.243744 0.165863
0.925995 0.248444 0.170319
0.928619 0.253113 0.174713
0.931244 0.257751 0.179138
0.933899 0.262451 0.183594
0.936493 0.267090 0.188019
0.939148 0.271790 0.192444
0.941772 0.276428 0.196930
0.003296 0.019989 0.025238
0.006470 0.024933 0.030975
0.009369 0.026154 0.031891
0.017456 0.025391 0.029602
0.040863 0.023926 0.025360
0.070648 0.025665 0.023834
0.103241 0.027710 0.022064
0.139984 0.028595 0.018951
0.179901 0.028961 0.015106
0.225891 0.028717 0.010101
0.279510 0.026642 0.005554
0.338806 0.025208 0.002960
0.403381 0.024200 0.002380
0.475555 0.023285 0.001953
0.557983 0.023407 0.002014
0.648560 0.028809 0.002228
0.737793 0.049408 0.006042
0.821289 0.102600 0.037079
0.882751 0.178833 0.102295
0.907837 0.219360 0.140289
0.910461 0.223724 0.144348
0.913086 0.228119 0.148468
0.915710 0.232513 0.152618
0.918304 0.237122 0.157074
0.920959 0.241791 0.161591
0.923584 0.246399 0.166046
0.926208 0.251068 0.170563
0.928833 0.255707 0.174957
0.931458 0.260345 0.179382
0.934082 0.265045 0.183838
0.936707 0.269714 0.188232
0.939362 0.274414 0.192688
0.941956 0.279053 0.197113
0.004181 0.030151 0.038330
0.007507 0.036591 0.045959
0.010315 0.040344 0.049774
0.015198 0.039642 0.047882
0.028076 0.038300 0.043427
0.061188 0.035950 0.034882
0.098114 0.036896 0.029907
0.136597 0.037811 0.024841
0.178253 0.037445 0.019501
0.224640 0.037231 0.012817
0.275543 0.035553 0.007233
0.331604 0.034363 0.003815
0.394287 0.033508 0.002380
0.465210 0.032898 0.001648
0.545593 0.033234 0.001709
0.634979 0.036987 0.001740
0.723572 0.053009 0.003967
0.806915 0.096039 0.026245
0.873688 0.170654 0.089905
0.905945 0.220093 0.137085
0.910736 0.227203 0.144592
0.913300 0.230835 0.148651
0.915894 0.235138 0.152802
0.918518 0.239746 0.157257
0.921173 0.244415 0.161774
0.923767 0.249023 0.166229
0.926422 0.253693 0.170746
0.929016 0.258301 0.175201
0.931641 0.262939 0.179596
0.934296 0.267639 0.184052
0.936890 0.272278 0.188477
0.939545 0.276978 0.192932
0.942169 0.281647 0.197327
0.005280 0.042419 0.054443
0.008545 0.049927 0.063507
0.011444 0.056732 0.071442
0.014526 0.056122 0.069641
0.023102 0.055511 0.065826
0.040558 0.053772 0.058258
0.085236 0.050629 0.044098
0.129425 0.049927 0.034790
0.173615 0.049438 0.026154
0.221161 0.048584 0.017914
0.274445 0.046783 0.009583
0.330933 0.045929 0.004761
0.391632 0.045410 0.002380
0.457977 0.045227 0.001587
0.534180 0.045990 0.001587
0.622192 0.048676 0.001587
0.711426 0.062286 0.002991
0.795471 0.099548 0.020142
0.866364 0.170746 0.079102
0.904419 0.227417 0.133850
0.911560 0.237885 0.145264
0.914062 0.240845 0.149323
0.916595 0.243927 0.153381
0.919098 0.247253 0.157776
0.921631 0.250671 0.162201
0.924164 0.254181 0.166595
0.926727 0.257812 0.171021
0.929260 0.261505 0.175415
0.931854 0.265533 0.179840
0.934479 0.270233 0.184296
0.937103 0.274872 0.188690
0.939758 0.279572 0.193146
0.942352 0.284210 0.197571
0.006287 0.056305 0.073151
0.008850 0.064758 0.083679
0.011353 0.072357 0.092896
0.013733 0.074799 0.094788
0.019806 0.074158 0.091187
0.032227 0.073547 0.084686
0.057556 0.071716 0.072784
0.112274 0.067383 0.051849
0.163452 0.065186 0.037292
0.215118 0.063049 0.025574
0.269318 0.060883 0.014496
0.328583 0.059875 0.006866
0.391449 0.059723 0.002930
0.458282 0.060394 0.001587
0.532532 0.061859 0.001587
0.614777 0.064545 0.001587
0.700195 0.076050 0.002380
0.784180 0.107483 0.014160
0.858643 0.175323 0.069000
0.902588 0.237823 0.130005
0.912689 0.252563 0.146179
0.915161 0.254883 0.150238
0.917633 0.257294 0.154327
0.920105 0.260040 0.158752
0.922607 0.262970 0.163208
0.925079 0.265991 0.167511
0.927612 0.269073 0.171844
0.930084 0.272064 0.176147
0.932587 0.275177 0.180511
0.935120 0.278381 0.184906
0.937622 0.281616 0.189301
0.940155 0.285065 0.193665
0.942719 0.288757 0.197968
0.006287 0.071411 0.094208
0.008331 0.081085 0.106018
0.010437 0.089508 0.116150
0.012451 0.095642 0.123016
0.016235 0.094788 0.119690
0.025726 0.094879 0.114441
0.043335 0.094238 0.104126
0.077911 0.092621 0.086487
0.142120 0.086365 0.057709
0.202118 0.081329 0.037811
0.260956 0.077698 0.022491
0.322693 0.075623 0.010651
0.387390 0.076141 0.004272
0.457916 0.077179 0.001831
0.533447 0.079224 0.001587
0.615845 0.083282 0.001587
0.699677 0.095001 0.002228
0.778809 0.124054 0.012238
0.851471 0.185181 0.059723
0.899719 0.250366 0.123749
0.914215 0.271881 0.147400
0.916626 0.273529 0.151459
0.919006 0.275299 0.155548
0.921448 0.277405 0.159943
0.923889 0.279663 0.164368
0.926331 0.281952 0.168762
0.928802 0.284302 0.173218
0.931244 0.286652 0.177612
0.933685 0.289124 0.181915
0.936157 0.291718 0.186188
0.938629 0.294403 0.190460
0.941132 0.297211 0.194763
0.943604 0.300079 0.199066
0.005493 0.088196 0.117218
0.007446 0.098755 0.130585
0.009277 0.108124 0.142181
0.010956 0.117767 0.154358
0.013306 0.117676 0.152466
0.020447 0.117493 0.147369
0.032379 0.118042 0.140198
0.056274 0.117798 0.125153
0.100769 0.116302 0.099457
0.175110 0.106689 0.062531
0.245789 0.097992 0.036163
0.311707 0.093506 0.018555
0.381134 0.092682 0.007477
0.452240 0.094727 0.002747
0.530914 0.097900 0.001587
0.616974 0.103455 0.001587
0.701080 0.116241 0.002167
0.779907 0.145630 0.011871
0.851807 0.205566 0.058044
0.899323 0.269104 0.121094
0.916168 0.294647 0.149048
0.918518 0.296143 0.153198
0.920868 0.297394 0.157257
0.923218 0.298889 0.161652
0.925598 0.300568 0.166077
0.927979 0.302246 0.170471
0.930359 0.303986 0.174896
0.932739 0.305756 0.179169
0.935150 0.307556 0.183441
0.937561 0.309479 0.187775
0.939972 0.311493 0.192078
0.942444 0.313629 0.196472
0.944855 0.315887 0.200714
0.004669 0.106262 0.142822
0.006378 0.118042 0.158234
0.007721 0.128265 0.171478
0.009277 0.139130 0.185455
0.011047 0.143036 0.189514
0.015198 0.142334 0.185211
0.024292 0.142822 0.178864
0.040314 0.143829 0.167755
0.069611 0.145325 0.148315
0.125275 0.142975 0.112427
0.212311 0.127197 0.064697
0.294617 0.114014 0.032654
0.367340 0.109802 0.014587
0.445190 0.111206 0.004395
0.524536 0.115967 0.001678
0.611603 0.123505 0.001587
0.700531 0.137909 0.002075
0.781464 0.168610 0.011505
0.853149 0.228394 0.057434
0.900909 0.292206 0.121277
0.918365 0.318634 0.150787
0.920746 0.320343 0.154968
0.923096 0.322113 0.159149
0.925446 0.323761 0.163666
0.927734 0.324982 0.168152
0.930023 0.326172 0.172638
0.932343 0.327484 0.177002
0.934662 0.328705 0.181213
0.937012 0.329956 0.185455
0.939362 0.331299 0.189880
0.941681 0.332642 0.194214
0.944092 0.334198 0.198517
0.946472 0.335815 0.202759
0.003754 0.126038 0.171509
0.005188 0.139191 0.188812
0.006409 0.150421 0.203674
0.007233 0.161987 0.219269
0.008331 0.170776 0.230591
0.010345 0.169464 0.227051
0.017334 0.169495 0.221436
0.027893 0.170715 0.214325
0.048981 0.172424 0.198425
0.083282 0.176025 0.174530
0.151245 0.172760 0.125702
0.253479 0.148346 0.065796
0.348022 0.130280 0.027710
0.428070 0.127533 0.010223
0.515472 0.132080 0.002808
0.604828 0.141357 0.001587
0.694824 0.157715 0.001831
0.778564 0.189453 0.010071
0.854187 0.251373 0.056213
0.902832 0.316498 0.121857
0.920837 0.343933 0.153107
0.923187 0.345490 0.157288
0.925507 0.347107 0.161438
0.927826 0.348969 0.165985
0.930176 0.350952 0.170563
0.932465 0.352570 0.175049
0.934753 0.353790 0.179474
0.937012 0.354645 0.183716
0.939240 0.355499 0.188019
0.941528 0.356354 0.192505
0.943787 0.357269 0.196838
0.946136 0.358307 0.201111
0.948425 0.359375 0.205322
0.002747 0.147827 0.203033
0.003754 0.161987 0.222137
0.004852 0.174286 0.238403
0.005768 0.186615 0.255371
0.006226 0.199219 0.272827
0.007690 0.199371 0.271790
0.011627 0.198517 0.267273
0.019012 0.198669 0.261108
0.030945 0.200348 0.252991
0.056488 0.203186 0.233002
0.096954 0.209503 0.203705
0.180023 0.205505 0.138794
0.298401 0.170013 0.065063
0.406128 0.147308 0.023102
0.495361 0.147003 0.007080
0.592743 0.156891 0.001740
0.688812 0.175201 0.001587
0.773895 0.207703 0.008484
0.851105 0.269196 0.049896
0.903809 0.339600 0.121033
0.923645 0.370209 0.156250
0.925903 0.371552 0.160461
0.928162 0.372986 0.164581
0.930420 0.374756 0.169067
0.932709 0.376617 0.173615
0.934998 0.378479 0.178131
0.937317 0.380371 0.182617
0.939606 0.381866 0.186920
0.941833 0.382874 0.191162
0.944061 0.383545 0.195526
0.946259 0.384186 0.199890
0.948517 0.384918 0.204193
0.950775 0.385620 0.208435
0.001648 0.171417 0.237091
0.002960 0.186554 0.257782
0.003662 0.199615 0.275665
0.004120 0.212830 0.293762
0.005096 0.226776 0.312653
0.005707 0.232239 0.319733
0.007629 0.230408 0.315521
0.012421 0.229675 0.310333
0.020081 0.229980 0.304169
0.035187 0.231323 0.292755
0.064270 0.235779 0.270660
0.112244 0.245087 0.234039
0.211945 0.241058 0.150848
0.347290 0.192078 0.063904
0.470947 0.165405 0.017761
0.571014 0.169586 0.003906
0.674805 0.188721 0.001892
0.768616 0.223846 0.007538
0.847717 0.286285 0.046539
0.903595 0.360199 0.119263
0.926758 0.396729 0.160675
0.929016 0.398010 0.164825
0.931183 0.399261 0.168854
0.933380 0.400970 0.173279
0.935608 0.402832 0.177765
0.937836 0.404694 0.182220
0.940094 0.406616 0.186737
0.942322 0.408234 0.191010
0.944580 0.409882 0.195282
0.946838 0.411530 0.199615
0.949036 0.412506 0.203949
0.951202 0.412994 0.208191
0.953400 0.413422 0.212341
0.001282 0.196533 0.273438
0.001862 0.212738 0.295624
0.002808 0.227051 0.315033
0.003571 0.241425 0.334564
0.003876 0.256592 0.355133
0.003906 0.268677 0.371338
0.004944 0.266479 0.367462
0.007751 0.264954 0.362885
0.012787 0.263855 0.356964
0.020782 0.264160 0.350494
0.039215 0.264526 0.335815
0.071686 0.270020 0.312195
0.130951 0.283600 0.264679
0.246796 0.279388 0.162323
0.401520 0.213959 0.060852
0.544586 0.185272 0.011993
0.653259 0.198212 0.002838
0.753937 0.232147 0.005585
0.843109 0.298584 0.043182
0.903137 0.377991 0.118958
0.929138 0.420013 0.165497
0.932404 0.423279 0.171234
0.934509 0.424622 0.174927
0.936615 0.426239 0.178925
0.938812 0.428192 0.183258
0.940979 0.430176 0.187653
0.943207 0.432220 0.192108
0.945374 0.434082 0.196472
0.947571 0.435791 0.200653
0.949768 0.437561 0.204865
0.951996 0.439362 0.209076
0.954193 0.441071 0.213409
0.956360 0.442047 0.217560
0.000793 0.223633 0.312012
0.001709 0.241241 0.335999
0.002350 0.256989 0.357178
0.002655 0.272797 0.378357
0.002655 0.289551 0.400818
0.002716 0.307251 0.424408
0.003235 0.307800 0.424561
0.004517 0.305176 0.419708
0.007721 0.303101 0.414093
0.012543 0.301910 0.407959
0.022186 0.301666 0.400604
0.042969 0.300476 0.383240
0.078888 0.306396 0.358643
0.151978 0.325256 0.297607
0.284851 0.320923 0.173767
0.463348 0.235596 0.056763
0.626404 0.209839 0.007599
0.734467 0.237885 0.004913
0.828522 0.298157 0.034088
0.900391 0.388580 0.117188
0.931335 0.439484 0.171936
0.935852 0.445648 0.180023
0.937897 0.447296 0.183563
0.939972 0.449219 0.187439
0.942078 0.451202 0.191406
0.944214 0.453339 0.195282
0.946411 0.455780 0.199432
0.948578 0.457886 0.203613
0.950745 0.459961 0.207794
0.952942 0.461975 0.211914
0.955109 0.463928 0.215942
0.957275 0.466003 0.220062
0.959442 0.467987 0.224091
0.000793 0.253113 0.353271
0.001404 0.272430 0.379181
0.001373 0.290039 0.402710
0.001617 0.307495 0.425964
0.001862 0.325897 0.450500
0.002228 0.345001 0.475769
0.002319 0.353302 0.486572
0.003021 0.350067 0.481506
0.005066 0.347870 0.476379
0.008301 0.345551 0.470093
0.013824 0.344360 0.463715
0.024902 0.342072 0.453064
0.047119 0.339661 0.435364
0.086243 0.345459 0.410828
0.174683 0.371002 0.334808
0.325958 0.366791 0.186096
0.534729 0.256042 0.049194
0.709961 0.244507 0.006042
0.810791 0.296265 0.026367
0.891388 0.387238 0.106873
0.932404 0.454102 0.178558
0.939209 0.464264 0.190704
0.941315 0.466553 0.194092
0.943420 0.469086 0.197815
0.945526 0.471375 0.201630
0.947601 0.473663 0.205444
0.949738 0.476044 0.209351
0.951843 0.478485 0.213074
0.953979 0.481079 0.216919
0.956146 0.483582 0.220947
0.958282 0.485901 0.224976
0.960480 0.488220 0.228943
0.962646 0.490448 0.232880
0.000305 0.285492 0.397766
0.000549 0.306854 0.426239
0.000916 0.326324 0.452179
0.001251 0.345245 0.477203
0.001556 0.364441 0.502655
0.001923 0.383606 0.528076
0.001984 0.398651 0.547882
0.002502 0.396301 0.544189
0.003693 0.393799 0.539520
0.005676 0.391571 0.533936
0.009369 0.389801 0.527802
0.015778 0.388977 0.521667
0.029663 0.385071 0.508301
0.053253 0.382263 0.491394
0.094330 0.387848 0.468170
0.198059 0.421021 0.378387
0.371460 0.417938 0.199188
0.614685 0.277985 0.040405
0.788116 0.296326 0.022186
0.878815 0.383148 0.096497
0.930115 0.462006 0.180542
0.942505 0.481995 0.203430
0.944519 0.483673 0.206268
0.946655 0.486206 0.209869
0.948853 0.488892 0.213593
0.951019 0.491547 0.217285
0.953125 0.494202 0.220886
0.955231 0.496613 0.224518
0.957306 0.499084 0.228210
0.959473 0.501801 0.231995
0.961609 0.504608 0.235840
0.963806 0.507477 0.239746
0.965942 0.510101 0.243591
0.000000 0.321136 0.446259
0.000397 0.344299 0.476990
0.000763 0.364868 0.504272
0.001160 0.383911 0.529419
0.001221 0.402649 0.554260
0.001526 0.421143 0.578735
0.001862 0.439636 0.603058
0.002167 0.440979 0.604401
0.002625 0.438080 0.599792
0.004364 0.436279 0.595245
0.007385 0.434357 0.589508
0.012085 0.433502 0.584015
0.020325 0.432892 0.577545
0.036621 0.428650 0.563232
0.062286 0.426788 0.548218
0.104034 0.432739 0.527954
0.223022 0.474670 0.427368
0.422791 0.474091 0.212830
0.693726 0.310181 0.038818
0.860138 0.375732 0.082214
0.924561 0.465546 0.177795
0.945221 0.499268 0.216400
0.947479 0.501007 0.219421
0.949646 0.502747 0.222473
0.951965 0.505341 0.226196
0.954132 0.508087 0.229858
0.956360 0.510803 0.233673
0.958527 0.513458 0.237396
0.960632 0.516022 0.240906
0.962769 0.518646 0.244446
0.964935 0.521332 0.248138
0.967102 0.524200 0.251923
0.969269 0.527100 0.255707
0.000000 0.359314 0.497772
0.000397 0.382782 0.528839
0.000610 0.403107 0.555847
0.000916 0.421387 0.580048
0.001221 0.439819 0.604279
0.001709 0.457947 0.628021
0.002319 0.474915 0.650024
0.002716 0.482422 0.659424
0.003082 0.480011 0.655762
0.004456 0.478577 0.652252
0.006622 0.477478 0.648010
0.010742 0.476929 0.643311
0.017670 0.477295 0.638763
0.029144 0.476013 0.630554
0.048676 0.472870 0.617279
0.076263 0.472382 0.603943
0.120422 0.479401 0.585754
0.254303 0.533020 0.475983
0.481476 0.532715 0.225616
0.766113 0.359650 0.059753
0.912872 0.463745 0.167938
0.945404 0.513489 0.225098
0.949158 0.517273 0.230743
0.951782 0.519470 0.234680
0.954346 0.521576 0.238403
0.956726 0.524017 0.242157
0.959137 0.526917 0.246216
0.961517 0.529724 0.250183
0.963745 0.532379 0.253845
0.966034 0.535095 0.257599
0.968231 0.537689 0.261230
0.970367 0.540253 0.264771
0.972534 0.543152 0.268555
0.000000 0.397583 0.549316
0.000305 0.420105 0.579285
0.000610 0.440216 0.605774
0.001160 0.458282 0.629395
0.001556 0.475189 0.651367
0.002106 0.489960 0.670258
0.002777 0.501801 0.685181
0.003235 0.509247 0.694336
0.003723 0.508789 0.693268
0.004669 0.508270 0.691528
0.007050 0.508942 0.689911
0.010803 0.510132 0.687836
0.017792 0.512238 0.685822
0.027588 0.515137 0.683868
0.043823 0.516296 0.677612
0.067200 0.517395 0.668945
0.097198 0.520020 0.659271
0.146545 0.529022 0.640961
0.297791 0.596863 0.515259
0.544586 0.588959 0.238220
0.832123 0.433228 0.116302
0.937988 0.519501 0.221741
0.947083 0.529724 0.235535
0.951050 0.532898 0.241119
0.954559 0.536041 0.246552
0.957886 0.538818 0.251495
0.960663 0.541656 0.256195
0.963531 0.544830 0.260864
0.966095 0.547852 0.265259
0.968597 0.550873 0.269623
0.971100 0.553711 0.273743
0.973450 0.556519 0.277679
0.975739 0.559296 0.281586
0.000000 0.434479 0.599060
0.000397 0.456818 0.628448
0.000763 0.475616 0.652924
0.001373 0.490417 0.671814
0.001862 0.502197 0.686707
0.002319 0.510986 0.697601
0.002777 0.516479 0.704254
0.003235 0.518921 0.706909
0.003723 0.519440 0.707092
0.004272 0.520111 0.707306
0.006714 0.522308 0.707977
0.010559 0.525146 0.708344
0.016998 0.529144 0.708923
0.026367 0.534149 0.709869
0.040131 0.540100 0.710999
0.062927 0.546539 0.709961
0.090912 0.554016 0.708221
0.124786 0.562836 0.705353
0.181488 0.579163 0.690918
0.351776 0.665161 0.543457
0.607239 0.641174 0.258392
0.876801 0.514496 0.187775
0.935944 0.537842 0.230804
0.942932 0.540405 0.237061
0.948608 0.544373 0.244232
0.953857 0.548340 0.251343
0.958557 0.552124 0.258026
0.962494 0.556030 0.264679
0.966187 0.559784 0.270508
0.969391 0.563599 0.276184
0.972412 0.567383 0.281830
0.975342 0.570770 0.286865
0.978058 0.574066 0.291779
0.000000 0.470428 0.647064
0.000458 0.489319 0.671387
0.000916 0.502625 0.688293
0.001404 0.511444 0.699219
0.001862 0.517059 0.705994
0.002319 0.519470 0.708649
0.002808 0.519989 0.708801
0.003265 0.520538 0.708984
0.003723 0.521057 0.709137
0.004181 0.521576 0.709320
0.005951 0.523224 0.709839
0.009338 0.526215 0.710815
0.015045 0.530609 0.712311
0.023560 0.536285 0.714386
0.035828 0.543091 0.717041
0.054688 0.552124 0.720795
0.082275 0.564850 0.726257
0.115326 0.578552 0.731049
0.152954 0.593597 0.734558
0.222351 0.623108 0.723846
0.411835 0.727905 0.553772
0.673584 0.694916 0.294250
0.885864 0.573853 0.232635
0.920013 0.553467 0.231110
0.930115 0.551331 0.234467
0.938660 0.553528 0.241180
0.946838 0.554932 0.246857
0.953491 0.559967 0.255585
0.959808 0.563934 0.263214
0.965027 0.569031 0.271301
0.969513 0.573517 0.278198
0.973633 0.578552 0.285645
0.977478 0.583130 0.292511
0.000000 0.499451 0.685181
0.000458 0.511078 0.699768
0.000916 0.517578 0.707703
0.001495 0.520050 0.710358
0.001953 0.520599 0.710541
0.002411 0.521118 0.710724
0.002869 0.521637 0.710876
0.003326 0.522156 0.711060
0.003815 0.522675 0.711212
0.004272 0.523193 0.711395
0.005341 0.524231 0.711731
0.008392 0.526886 0.712585
0.013184 0.530762 0.713867
0.020813 0.536041 0.715759
0.031769 0.542511 0.718231
0.047180 0.550140 0.721375
0.071106 0.561249 0.726196
0.102264 0.575592 0.732513
0.138458 0.592438 0.739868
0.181152 0.613129 0.747009
0.273499 0.663818 0.731567
0.487000 0.784851 0.530396
0.738708 0.749725 0.342926
0.860107 0.647308 0.280548
0.892700 0.590820 0.246216
0.906342 0.578156 0.241364
0.918427 0.570740 0.240723
0.929993 0.564758 0.241119
0.939789 0.565918 0.247375
0.949371 0.566162 0.252747
0.957001 0.571167 0.261627
0.963623 0.575073 0.268707
0.969360 0.580597 0.277069
0.000000 0.516724 0.707611
0.000549 0.520599 0.712067
0.001099 0.521179 0.712280
0.001556 0.521698 0.712463
0.002014 0.522217 0.712616
0.002502 0.522736 0.712799
0.002960 0.523254 0.712952
0.003418 0.523773 0.713135
0.003876 0.524323 0.713287
0.004333 0.524841 0.713470
0.004913 0.525482 0.713684
0.007629 0.527710 0.714417
0.011475 0.531067 0.715485
0.018127 0.535919 0.717224
0.028015 0.541992 0.719482
0.041962 0.549225 0.722412
0.060944 0.558105 0.726227
0.089600 0.571381 0.732056
0.123810 0.587158 0.739075
0.162537 0.605530 0.746643
0.212952 0.631073 0.751465
0.352112 0.716492 0.697205
0.577271 0.829529 0.467529
0.783081 0.805542 0.393890
0.830170 0.745026 0.351837
0.859558 0.674561 0.301666
0.874603 0.650421 0.286194
0.888733 0.627838 0.272308
0.902985 0.607025 0.260376
0.916199 0.592438 0.253815
0.929199 0.580231 0.249359
0.940063 0.576569 0.251709
0.949158 0.575073 0.254852
0.000000 0.521667 0.713989
0.000549 0.522217 0.714172
0.001099 0.522766 0.714355
0.001617 0.523315 0.714508
0.002106 0.523834 0.714691
0.002563 0.524353 0.714874
0.003021 0.524872 0.715027
0.003510 0.525421 0.715210
0.003967 0.525940 0.715363
0.004425 0.526459 0.715546
0.004883 0.526978 0.715698
0.006927 0.528656 0.716278
0.010315 0.531586 0.717224
0.016022 0.535919 0.718750
0.025055 0.541656 0.720825
0.037567 0.548523 0.723541
0.054199 0.556519 0.726898
0.077911 0.567505 0.731720
0.109985 0.582306 0.738342
0.146820 0.599518 0.745819
0.190033 0.620575 0.752716
0.256409 0.657135 0.748657
0.453522 0.780975 0.609497
0.678497 0.850250 0.431671
0.800568 0.843567 0.426544
0.814178 0.817108 0.407471
0.834808 0.774200 0.375549
0.846954 0.751404 0.359833
0.859924 0.726440 0.342621
0.874023 0.702271 0.326233
0.887634 0.674103 0.307465
0.901917 0.647491 0.290222
0.915161 0.625305 0.276947
0.000000 0.523285 0.716064
0.000549 0.523834 0.716248
0.001099 0.524384 0.716431
0.001617 0.524933 0.716583
0.002167 0.525482 0.716766
0.002655 0.526001 0.716949
0.003113 0.526520 0.717102
0.003571 0.527039 0.717285
0.004028 0.527557 0.717438
0.004517 0.528107 0.717621
0.004974 0.528625 0.717773
0.006226 0.529663 0.718140
0.009399 0.532318 0.719025
0.014160 0.536102 0.720306
0.021973 0.541382 0.722229
0.033417 0.547943 0.724731
0.049011 0.555603 0.727936
0.068420 0.564636 0.731873
0.097076 0.577881 0.737762
0.131989 0.594086 0.744995
0.171448 0.612946 0.752563
0.222443 0.639038 0.756348
0.329071 0.703949 0.721161
