luts/A_v_log/F-8700-V2-VLOG.cube
# Copyright: (C) Copyright 2010-2019 by IWLTBAP SAS
# Cannot be resold, shared or otherwise redistributed
# Website: https://luts.iwltbap.com
TITLE "IWLTBAP 8700-V2 (V-Log L)"
LUT_3D_SIZE 9
0.000000 0.000000 0.000000
0.000000 0.000000 0.000000
0.108800 0.021550 0.000975
0.312288 0.046575 0.002438
0.594100 0.092150 0.017650
0.826500 0.143150 0.051000
0.907850 0.177475 0.055875
0.913700 0.180400 0.058800
0.913700 0.180400 0.058800
0.000000 0.018125 0.003413
0.000000 0.022464 0.000000
0.115691 0.037125 0.000000
0.311605 0.045600 0.000000
0.595806 0.090200 0.013950
0.834300 0.143150 0.051000
0.907850 0.177475 0.055875
0.913700 0.180400 0.058800
0.913700 0.180400 0.058800
0.000000 0.100025 0.011800
0.000000 0.103559 0.010925
0.120819 0.098806 0.000000
0.343616 0.102341 0.000000
0.628438 0.146575 0.015200
0.840563 0.178791 0.032375
0.910044 0.182594 0.052950
0.913700 0.180400 0.056241
0.913700 0.180400 0.058800
0.000000 0.202463 0.011800
0.000000 0.198563 0.007800
0.082484 0.236153 0.000975
0.396722 0.205266 0.000000
0.704888 0.232106 0.020088
0.905936 0.307288 0.015700
0.959909 0.317297 0.016066
0.948745 0.268808 0.020308
0.918638 0.195088 0.050025
0.007850 0.372550 0.031400
0.007356 0.370356 0.027450
0.070588 0.395113 0.022575
0.379400 0.476250 0.020088
0.745125 0.440200 0.030400
0.945594 0.464719 0.028931
0.991188 0.492625 0.032363
0.988250 0.447531 0.023056
0.986300 0.392150 0.017650
0.043625 0.565200 0.064200
0.045088 0.561263 0.064200
0.106094 0.588006 0.056372
0.409800 0.673525 0.046063
0.736519 0.765944 0.069331
0.951475 0.739102 0.081911
0.996100 0.709813 0.078925
0.998538 0.679258 0.078438
0.998538 0.622575 0.067125
0.075475 0.652950 0.083375
0.075475 0.652950 0.083375
0.090906 0.655144 0.080394
0.404269 0.742747 0.063700
0.718613 0.845100 0.072063
0.937138 0.902459 0.110166
0.995369 0.853944 0.102975
0.997075 0.839834 0.102975
0.996100 0.825475 0.102975
0.078400 0.658800 0.086300
0.078400 0.658800 0.086300
0.078400 0.658800 0.086300
0.287528 0.712742 0.069930
0.648750 0.818869 0.068650
0.901975 0.908520 0.102425
0.993663 0.880913 0.109313
1.000000 0.874500 0.105900
1.000000 0.871088 0.105900
0.078400 0.658800 0.086300
0.078400 0.658800 0.086300
0.078400 0.658800 0.086300
0.114213 0.666175 0.079900
0.549000 0.790150 0.070600
0.876950 0.899988 0.102425
0.991150 0.887250 0.112725
1.000000 0.874500 0.105900
1.000000 0.874500 0.105900
0.003413 0.000000 0.022525
0.000000 0.000000 0.026025
0.090163 0.021550 0.019103
0.292633 0.045417 0.001280
0.584594 0.086250 0.013700
0.824800 0.143150 0.051000
0.907850 0.177475 0.055875
0.913700 0.180400 0.058800
0.913700 0.180400 0.058800
0.000000 0.011239 0.029925
0.000000 0.014278 0.028147
0.093210 0.033332 0.019103
0.299048 0.045417 0.000000
0.578463 0.088000 0.012207
0.824000 0.143150 0.051000
0.907850 0.177475 0.055875
0.913700 0.180400 0.058800
0.913700 0.180400 0.058800
0.000000 0.102094 0.042147
0.000000 0.100985 0.024322
0.112019 0.098806 0.001955
0.339068 0.097321 0.000000
0.620102 0.139644 0.011994
0.841008 0.169961 0.034508
0.908124 0.180674 0.052950
0.911141 0.180400 0.056241
0.913700 0.180400 0.058800
0.000000 0.199842 0.010580
0.000000 0.198563 0.007800
0.065338 0.225841 0.000975
0.383505 0.199406 0.000190
0.683006 0.223116 0.016919
0.901961 0.299952 0.015761
0.953496 0.313843 0.013582
0.944605 0.262951 0.020308
0.918638 0.192650 0.050025
0.003900 0.363000 0.029400
0.001950 0.361000 0.027694
0.064944 0.390669 0.021656
0.382850 0.464469 0.016919
0.744475 0.427938 0.029178
0.943948 0.458090 0.028931
0.991967 0.482838 0.031144
0.991449 0.436274 0.023270
0.982350 0.386300 0.013750
0.045088 0.563700 0.064200
0.040068 0.555496 0.060427
0.090110 0.573770 0.054900
0.399519 0.666511 0.045948
0.729894 0.762321 0.067229
0.945258 0.736025 0.078620
0.996100 0.707604 0.076366
0.996100 0.680388 0.076038
0.996405 0.626475 0.064688
0.075475 0.652950 0.083375
0.075475 0.652950 0.083375
0.085788 0.655144 0.080394
0.389030 0.735730 0.065191
0.707598 0.837920 0.069288
0.933954 0.898391 0.109937
0.995734 0.850006 0.102975
0.996953 0.836300 0.102478
0.996100 0.821575 0.099000
0.078400 0.658800 0.086300
0.078400 0.658800 0.086300
0.078400 0.658800 0.083741
0.289169 0.712255 0.068566
0.634013 0.819326 0.068406
0.909016 0.908520 0.104925
0.993175 0.880425 0.108825
1.000000 0.874500 0.105900
1.000000 0.871088 0.105900
0.078400 0.658800 0.086300
0.078400 0.658800 0.086300
0.078400 0.658800 0.086300
0.112713 0.666175 0.079900
0.549244 0.790150 0.063200
0.873538 0.897855 0.100292
0.991150 0.884325 0.112725
1.000000 0.874500 0.105900
1.000000 0.874500 0.105900
0.000000 0.013725 0.093100
0.000000 0.017159 0.089200
0.041638 0.032369 0.079450
0.238688 0.060675 0.073866
0.569100 0.105888 0.065213
0.829425 0.151466 0.056363
0.907850 0.177475 0.055875
0.913700 0.180400 0.058800
0.913700 0.180400 0.058800
0.000000 0.024541 0.096600
0.000000 0.028825 0.096113
0.030034 0.037037 0.080395
0.235138 0.060675 0.069966
0.549623 0.096758 0.055855
0.822720 0.145119 0.051229
0.907850 0.177475 0.055144
0.913700 0.180400 0.058800
0.913700 0.180400 0.058800
0.000000 0.086031 0.111744
0.000000 0.083838 0.110799
0.037433 0.104656 0.112269
0.275398 0.123647 0.086494
0.604656 0.136166 0.043147
0.827338 0.155778 0.046468
0.907850 0.180400 0.052767
0.913700 0.180400 0.058800
0.913700 0.180400 0.058800
0.000000 0.250728 0.165794
0.000000 0.240693 0.154214
0.023673 0.236511 0.104884
0.319117 0.221516 0.045843
0.674700 0.229288 0.028267
0.897093 0.293516 0.016614
0.954455 0.305879 0.014999
0.938420 0.251350 0.020430
0.918638 0.192650 0.050025
0.005363 0.406850 0.122075
0.001950 0.394003 0.110094
0.034075 0.398175 0.081019
0.317461 0.455331 0.033142
0.728419 0.421569 0.030175
0.936258 0.449220 0.024464
0.990688 0.471572 0.028425
0.990200 0.429156 0.020464
0.978888 0.381350 0.016188
0.043625 0.561628 0.103306
0.039725 0.555656 0.098945
0.056640 0.562207 0.069743
0.374642 0.659325 0.051045
0.723222 0.754528 0.069163
0.945075 0.722830 0.075939
0.996100 0.698397 0.077097
0.996359 0.666355 0.074533
0.996100 0.623550 0.064688
0.075475 0.650025 0.088494
0.075475 0.650025 0.088494
0.081400 0.652219 0.085555
0.369374 0.728968 0.065191
0.688359 0.835300 0.070225
0.926968 0.899499 0.105169
0.995369 0.849275 0.102975
0.999878 0.835438 0.102851
0.996100 0.818650 0.101981
0.078400 0.656241 0.086300
0.078400 0.656241 0.086300
0.078400 0.658800 0.086300
0.250723 0.705629 0.069488
0.625555 0.815208 0.068280
0.898814 0.908103 0.102059
0.993205 0.880913 0.109313
1.000000 0.874073 0.105900
0.997441 0.871088 0.105900
0.078400 0.658800 0.086300
0.078400 0.658800 0.086300
0.078400 0.658800 0.086300
0.107838 0.664347 0.079900
0.525988 0.782350 0.062700
0.862750 0.896453 0.098891
0.990419 0.887250 0.112725
1.000000 0.874500 0.105900
1.000000 0.874500 0.105900
0.000000 0.064713 0.198563
0.000000 0.064713 0.194875
0.001097 0.071538 0.187738
0.119978 0.093150 0.167102
0.476456 0.134306 0.148050
0.817989 0.216066 0.146513
0.923184 0.232947 0.109688
0.922233 0.211275 0.071720
0.916138 0.185275 0.057338
0.000000 0.064713 0.194563
0.000000 0.061300 0.192270
0.000000 0.070563 0.185666
0.118986 0.088167 0.159239
0.464481 0.130741 0.143360
0.819973 0.211062 0.135222
0.923108 0.231987 0.098878
0.919605 0.208016 0.072025
0.913700 0.182838 0.058800
0.000000 0.106013 0.220113
0.000000 0.098534 0.206728
0.000823 0.115432 0.226234
0.121623 0.130107 0.193316
0.491158 0.168564 0.158217
0.817655 0.211527 0.130953
0.925013 0.227941 0.089509
0.919605 0.201092 0.066480
0.913700 0.182838 0.058800
0.000000 0.199742 0.258703
0.000000 0.192781 0.251194
0.004768 0.209879 0.259419
0.145391 0.245509 0.255513
0.591986 0.292980 0.194248
0.891904 0.346231 0.126548
0.961021 0.323467 0.069211
0.935605 0.242442 0.042276
0.918638 0.191127 0.050939
0.026475 0.484319 0.417163
0.026063 0.482425 0.401006
0.031266 0.470952 0.372861
0.136925 0.479045 0.255881
0.644116 0.490203 0.139219
0.919045 0.537225 0.123842
0.984061 0.526402 0.085555
0.986419 0.434995 0.029683
0.978400 0.373769 0.016188
0.052500 0.652364 0.400061
0.052686 0.650417 0.396376
0.053005 0.635029 0.361329
0.195325 0.678887 0.260130
0.645124 0.765175 0.179619
0.936285 0.759313 0.120274
0.994957 0.715378 0.100363
0.997692 0.661138 0.079296
0.996100 0.605900 0.063773
0.069503 0.690591 0.333822
0.071088 0.684651 0.326164
0.073769 0.679461 0.309190
0.239313 0.751644 0.222147
0.642961 0.838005 0.178003
0.924013 0.900979 0.116238
0.994363 0.848534 0.108338
0.996603 0.835757 0.102975
0.997928 0.814675 0.102975
0.075963 0.657520 0.225511
0.075963 0.654108 0.211579
0.074683 0.646209 0.193538
0.151054 0.695945 0.151458
0.591227 0.810081 0.094639
0.887262 0.905892 0.107461
0.993337 0.884325 0.112725
1.000000 0.871941 0.105900
0.996588 0.871088 0.105900
0.075963 0.657338 0.113238
0.075963 0.654900 0.108363
0.075963 0.654900 0.105863
0.098939 0.659798 0.094627
0.485800 0.770550 0.073763
0.847561 0.892127 0.098525
0.990784 0.893613 0.112725
1.000000 0.874500 0.105900
1.000000 0.874500 0.105900
0.000000 0.149000 0.390200
0.000000 0.152950 0.387956
0.000000 0.153925 0.360800
0.029413 0.160019 0.337756
0.298025 0.184300 0.276450
0.732375 0.263731 0.262263
0.870575 0.324488 0.285313
0.883081 0.313256 0.245825
0.903900 0.290200 0.196100
0.000000 0.149000 0.378938
0.000000 0.145557 0.375456
0.000000 0.150136 0.363848
0.029260 0.154900 0.332344
0.265066 0.182350 0.285425
0.727511 0.261385 0.256381
0.871977 0.320514 0.275963
0.884788 0.312763 0.245575
0.913256 0.288250 0.192150
0.000000 0.175500 0.403900
0.000000 0.173367 0.395600
0.001097 0.178434 0.403803
0.029413 0.174248 0.359178
0.274250 0.187019 0.281119
0.725073 0.258333 0.257722
0.872534 0.319722 0.272063
0.892870 0.311139 0.240213
0.912250 0.283338 0.188738
0.003169 0.224750 0.431138
0.001615 0.224023 0.427438
0.005180 0.227263 0.425488
0.053930 0.264092 0.467272
0.336009 0.320103 0.400497
0.786526 0.406027 0.364577
0.908702 0.404278 0.324189
0.907802 0.324281 0.229787
0.918138 0.277669 0.164963
0.029400 0.362750 0.508825
0.025744 0.364553 0.498269
0.025500 0.359069 0.490469
0.074641 0.418500 0.530269
0.415188 0.535288 0.534813
0.862494 0.622569 0.494731
0.970581 0.612231 0.423013
0.978547 0.536019 0.312872
0.979400 0.432350 0.175500
0.086788 0.692650 0.728450
0.086788 0.684423 0.721452
0.083556 0.687866 0.716411
0.117643 0.714981 0.700836
0.468881 0.776341 0.559441
0.903516 0.816627 0.366613
0.992481 0.800439 0.323853
0.997014 0.752539 0.240389
0.994881 0.676219 0.164700
0.109800 0.813750 0.772050
0.106986 0.812648 0.769917
0.104641 0.811022 0.756359
0.130505 0.812969 0.697361
0.474981 0.860300 0.520575
0.892581 0.929180 0.367041
0.993175 0.897188 0.198419
0.996100 0.869600 0.165734
0.997563 0.838700 0.137738
0.103169 0.809063 0.694125
0.101249 0.806412 0.680376
0.096033 0.799320 0.659569
0.103529 0.789995 0.615404
0.420563 0.845972 0.425975
0.860426 0.930406 0.321669
0.992861 0.922952 0.178066
0.996374 0.889676 0.140388
0.996588 0.876744 0.120575
0.088250 0.772550 0.570600
0.084794 0.759050 0.527694
0.081375 0.751975 0.508825
0.082138 0.734081 0.447819
0.332350 0.810775 0.338250
0.804913 0.904181 0.254144
0.989200 0.913725 0.153913
0.998294 0.878200 0.120575
1.000000 0.876450 0.111750
0.009300 0.258350 0.604400
0.009300 0.258350 0.603913
0.016188 0.257741 0.592138
0.041661 0.261275 0.567150
0.112494 0.274000 0.512038
0.601755 0.332277 0.400852
0.816663 0.375622 0.401963
0.837745 0.361750 0.371842
0.842675 0.358788 0.349500
0.006863 0.254450 0.597055
0.006863 0.251950 0.600233
0.009138 0.255046 0.591648
0.039508 0.255889 0.560617
0.107679 0.271806 0.514738
0.598144 0.327275 0.397134
0.812763 0.371547 0.393884
0.836819 0.365213 0.373969
0.842675 0.350988 0.344283
0.012272 0.269638 0.605300
0.008691 0.263240 0.598760
0.009148 0.257375 0.593291
0.039200 0.257741 0.567268
0.103547 0.270100 0.513683
0.576510 0.324752 0.395489
0.813585 0.366688 0.383429
0.837745 0.361075 0.369447
0.844503 0.352450 0.345563
0.027477 0.323063 0.642223
0.026982 0.318936 0.639542
0.023523 0.315163 0.632838
0.056621 0.339776 0.669807
0.136989 0.359282 0.626730
0.628801 0.413911 0.490576
0.829479 0.411055 0.433203
0.844003 0.371286 0.372674
0.846636 0.347636 0.336300
0.044613 0.397306 0.687769
0.042879 0.393606 0.683898
0.042631 0.389213 0.680806
0.069344 0.420099 0.711262
0.193891 0.501106 0.760775
0.729012 0.623561 0.695984
0.905341 0.637189 0.666119
0.912494 0.583069 0.589471
0.904400 0.497075 0.473763
0.078925 0.552328 0.759191
0.078445 0.550047 0.755473
0.074650 0.543557 0.749102
0.096013 0.570030 0.769003
0.226682 0.667503 0.825152
0.816092 0.839479 0.797850
0.970968 0.848659 0.771223
0.984848 0.817284 0.711286
0.979463 0.762275 0.634181
0.108703 0.682350 0.828475
0.109313 0.681419 0.825033
0.109313 0.681436 0.821575
0.116466 0.701453 0.832436
0.206369 0.780763 0.875006
0.789008 0.937083 0.783941
0.987159 0.943389 0.640078
0.995079 0.923146 0.556058
0.996100 0.900013 0.438872
0.116138 0.711775 0.835300
0.112238 0.719400 0.835727
0.114797 0.721410 0.835132
0.118614 0.732241 0.839939
0.182252 0.799765 0.859248
0.729061 0.943520 0.751691
0.984198 0.969969 0.578008
0.997684 0.942114 0.388399
0.996100 0.935288 0.290683
0.112238 0.740700 0.836763
0.116930 0.751458 0.840663
0.113213 0.754875 0.836763
0.116138 0.763675 0.835239
0.158113 0.809563 0.833069
0.660753 0.925636 0.691223
0.972769 0.966650 0.496425
0.996100 0.938395 0.290797
0.996100 0.931388 0.237275
0.028475 0.302975 0.687275
0.028475 0.302975 0.687275
0.027744 0.302975 0.685081
0.049163 0.310409 0.674022
0.083813 0.322538 0.636288
0.446075 0.408700 0.603903
0.770819 0.448319 0.549025
0.799025 0.452463 0.541825
0.799025 0.443125 0.525450
0.028475 0.302975 0.687275
0.028475 0.302975 0.687275
0.028475 0.302975 0.684350
0.047184 0.306860 0.670952
0.083813 0.320831 0.641225
0.436507 0.406872 0.602806
0.770910 0.446069 0.549025
0.796039 0.449477 0.539528
0.799391 0.443125 0.517650
0.027744 0.302975 0.686544
0.027744 0.302975 0.683619
0.025494 0.302975 0.684350
0.043147 0.308612 0.671338
0.082716 0.321684 0.637263
0.408096 0.407146 0.609109
0.767894 0.445075 0.539200
0.798172 0.449315 0.540404
0.799025 0.443125 0.525206
0.033472 0.353450 0.715713
0.033472 0.353267 0.713213
0.033838 0.350647 0.713460
0.054398 0.365956 0.732616
0.089892 0.371123 0.713984
0.415436 0.439351 0.648095
0.769898 0.451338 0.554027
0.800853 0.445304 0.534346
0.799025 0.433497 0.509788
0.053438 0.429400 0.765688
0.052158 0.425988 0.761738
0.052463 0.420588 0.758556
0.068627 0.437750 0.777944
0.128438 0.489963 0.829425
0.563305 0.609934 0.811950
0.852697 0.609672 0.726866
0.863741 0.573091 0.673647
0.842163 0.519600 0.609788
0.083863 0.541663 0.817172
0.080591 0.539834 0.817678
0.079534 0.534362 0.814205
0.087757 0.543346 0.825000
0.155389 0.609813 0.874503
0.693022 0.802950 0.912247
0.933349 0.832234 0.880395
0.950988 0.806251 0.858352
0.940191 0.752925 0.817025
0.102975 0.636275 0.852950
0.102975 0.636275 0.852950
0.099994 0.632984 0.850025
0.104803 0.633076 0.851488
0.160422 0.691663 0.896588
0.636884 0.874551 0.938132
0.963989 0.958513 0.907545
0.989573 0.952438 0.895616
0.992181 0.938450 0.875238
0.110653 0.651000 0.863334
0.109313 0.651320 0.863209
0.109800 0.651000 0.860634
0.109313 0.652965 0.859956
0.144900 0.700047 0.892188
0.480597 0.853821 0.941444
0.956966 0.987469 0.898726
0.996420 0.980948 0.855219
0.996100 0.977475 0.821669
0.105900 0.653925 0.859775
0.105900 0.653559 0.857216
0.105900 0.651000 0.856850
0.105900 0.655753 0.852950
0.132375 0.684788 0.871550
0.337372 0.816675 0.925266
0.936500 0.984544 0.880863
0.996100 0.980888 0.820694
0.996100 0.977475 0.774475
0.031400 0.305900 0.690200
0.031400 0.305900 0.690200
0.028841 0.305900 0.690200
0.039870 0.312238 0.683863
0.077713 0.321550 0.658800
0.326800 0.404425 0.633805
0.744750 0.456850 0.572500
0.792200 0.466700 0.576500
0.792200 0.466700 0.576500
0.031400 0.305900 0.690200
0.031400 0.305900 0.690200
0.031400 0.305900 0.690200
0.037250 0.308764 0.680395
0.073806 0.319600 0.654900
0.310346 0.401492 0.638240
0.744263 0.459409 0.575050
0.792200 0.466700 0.576500
0.792200 0.466700 0.573438
0.028841 0.305900 0.687641
0.028841 0.305900 0.687641
0.030760 0.305900 0.690200
0.037250 0.310897 0.683361
0.072494 0.320088 0.657338
0.301214 0.397196 0.641121
0.739352 0.456363 0.572500
0.792200 0.466700 0.576500
0.792200 0.466700 0.575625
0.033838 0.334325 0.704583
0.031766 0.334325 0.707902
0.027500 0.331400 0.704911
0.037250 0.327805 0.703003
0.069819 0.327858 0.673385
0.285450 0.401640 0.652944
0.739946 0.457962 0.581440
0.792200 0.464513 0.574313
0.792200 0.466700 0.573000
0.054413 0.412769 0.759775
0.052706 0.407570 0.754656
0.048800 0.403456 0.752706
0.050998 0.401575 0.754809
0.100972 0.451581 0.806766
0.392306 0.545258 0.795341
0.801417 0.566200 0.708781
0.831631 0.538701 0.666070
0.801750 0.483856 0.602925
0.077463 0.522063 0.821100
0.079595 0.519617 0.818471
0.075521 0.512746 0.814330
0.076970 0.513669 0.815578
0.124275 0.570569 0.868145
0.552277 0.742462 0.915258
0.905375 0.793137 0.884681
0.932691 0.753097 0.849694
0.917638 0.704875 0.819613
0.102975 0.630050 0.859775
0.102975 0.630050 0.859775
0.102602 0.626938 0.859775
0.102478 0.626633 0.859546
0.136580 0.663792 0.892616
0.478042 0.810778 0.942723
0.945481 0.952955 0.937771
0.988834 0.941816 0.930375
0.981863 0.924475 0.923550
0.113700 0.651000 0.866700
0.113700 0.651000 0.866700
0.113700 0.651000 0.866700
0.113700 0.650733 0.866700
0.131905 0.675014 0.890714
0.355591 0.795379 0.948236
0.925118 0.979488 0.944978
0.995131 0.991380 0.937289
0.996100 0.985277 0.929888
0.113700 0.651000 0.866700
0.113700 0.651000 0.866700
0.113700 0.651000 0.866700
0.113700 0.651000 0.866700
0.109800 0.654900 0.876006
0.268222 0.764042 0.937420
0.886288 0.972159 0.951447
0.988700 0.989198 0.933311
0.999513 0.992688 0.922575
0.031400 0.305900 0.690200
0.031400 0.305900 0.690200
0.031400 0.305900 0.690200
0.031400 0.305900 0.687763
0.060800 0.319600 0.662750
0.215213 0.371075 0.646575
0.725475 0.449050 0.575500
0.792200 0.466700 0.576500
0.792200 0.466700 0.576500
0.031400 0.305900 0.690200
0.031400 0.305900 0.690200
0.031400 0.305900 0.690200
0.031400 0.305900 0.687763
0.061288 0.319600 0.661000
0.207813 0.371075 0.646575
0.722916 0.449050 0.574525
0.789138 0.463638 0.573438
0.792200 0.466700 0.576500
0.031400 0.305900 0.690200
0.031400 0.305900 0.690200
0.031400 0.305900 0.690200
0.031400 0.305900 0.687763
0.060800 0.319600 0.662250
0.203291 0.368150 0.646575
0.719625 0.449050 0.577694
0.788700 0.463200 0.573000
0.792200 0.466700 0.576500
0.031400 0.310775 0.692638
0.027500 0.310775 0.692638
0.027500 0.308947 0.692638
0.029938 0.308338 0.687763
0.056850 0.316138 0.668144
0.178473 0.358338 0.649561
0.707459 0.449050 0.577450
0.788700 0.463200 0.573000
0.792200 0.466700 0.576500
0.045100 0.390200 0.741150
0.043638 0.388494 0.741644
0.043150 0.383325 0.738225
0.043150 0.378450 0.736519
0.073525 0.409825 0.775500
0.219844 0.447025 0.748525
0.748038 0.517163 0.663213
0.801750 0.491419 0.602681
0.798050 0.476500 0.588250
0.069625 0.497100 0.801988
0.073525 0.497588 0.803755
0.070234 0.488713 0.802353
0.069625 0.482314 0.798613
0.099025 0.515188 0.831388
0.345234 0.641784 0.891761
0.862238 0.749025 0.861044
0.914713 0.706880 0.820583
0.887738 0.651438 0.778950
0.096075 0.616700 0.856850
0.099000 0.611850 0.856850
0.099000 0.611725 0.856850
0.099000 0.611725 0.856850
0.118625 0.631375 0.876500
0.337981 0.753088 0.926972
0.914969 0.931619 0.938256
0.982350 0.920697 0.923053
0.978450 0.896100 0.919575
0.113700 0.651000 0.866700
0.110714 0.647588 0.866700
0.110288 0.647588 0.866700
0.110288 0.647588 0.866700
0.119356 0.656606 0.872306
0.282792 0.764225 0.938700
0.897941 0.968259 0.948513
0.988700 0.988700 0.937361
0.996100 0.988700 0.937788
0.113700 0.651000 0.866700
0.113700 0.651000 0.866700
0.113700 0.651000 0.866700
0.113700 0.651000 0.866700
0.115650 0.654900 0.870600
0.222550 0.743125 0.928950
0.837275 0.956850 0.958825
0.988700 0.992688 0.941200
0.996100 1.000000 0.945100
