luts/A_v_log/F-8700-VLOG.cube
# Copyright: (C) Copyright 2010-2019 by IWLTBAP SAS
# Cannot be resold, shared or otherwise redistributed
# Website: https://luts.iwltbap.com
TITLE "IWLTBAP 8700 (V-Log L)"
LUT_3D_SIZE 33
0.062700 0.078400 0.090200
0.062700 0.078400 0.090200
0.066450 0.082150 0.093856
0.073769 0.085934 0.094100
0.084825 0.089713 0.097513
0.102838 0.093491 0.098000
0.118656 0.097269 0.094831
0.143006 0.101125 0.091053
0.169625 0.107850 0.090200
0.201872 0.112603 0.093003
0.236069 0.116381 0.094100
0.277944 0.120225 0.088981
0.328413 0.124038 0.083863
0.381597 0.130131 0.084716
0.434781 0.137744 0.088494
0.492163 0.147416 0.094344
0.554900 0.158800 0.103900
0.615809 0.168356 0.113456
0.669369 0.177663 0.119350
0.713966 0.187509 0.123184
0.750500 0.195125 0.126963
0.780613 0.204056 0.129400
0.799756 0.213019 0.130619
0.810022 0.216797 0.133300
0.816675 0.220575 0.133300
0.819600 0.223500 0.133300
0.819600 0.223500 0.133300
0.819600 0.223500 0.133300
0.819600 0.223500 0.133300
0.819600 0.223500 0.133300
0.819600 0.223500 0.133300
0.819600 0.223500 0.133300
0.819600 0.223500 0.133300
0.062700 0.082275 0.086422
0.062700 0.082275 0.086422
0.066450 0.085934 0.090078
0.073769 0.089713 0.090322
0.084825 0.093491 0.093734
0.102838 0.094081 0.094222
0.118656 0.097269 0.091053
0.143006 0.101125 0.090227
0.169625 0.107850 0.090200
0.199087 0.112603 0.093003
0.232194 0.116381 0.091503
0.274132 0.120225 0.087683
0.324634 0.124038 0.083863
0.375575 0.130131 0.084716
0.429350 0.137744 0.086369
0.488333 0.147416 0.092573
0.552963 0.158800 0.103900
0.615809 0.168356 0.113456
0.669369 0.177663 0.119350
0.713966 0.187509 0.123184
0.750500 0.195125 0.126963
0.780613 0.204056 0.129400
0.799756 0.213019 0.130619
0.810022 0.216797 0.133300
0.816675 0.220575 0.133300
0.819600 0.223500 0.133300
0.819600 0.223500 0.133300
0.819600 0.223500 0.133300
0.819600 0.223500 0.133300
0.819600 0.223500 0.133300
0.819600 0.223500 0.133300
0.819600 0.223500 0.133300
0.819600 0.223500 0.133300
0.062700 0.086056 0.086300
0.062700 0.086056 0.086300
0.066450 0.089713 0.089956
0.077082 0.093491 0.090200
0.088481 0.097269 0.090413
0.103409 0.097756 0.090444
0.118656 0.101001 0.090246
0.143006 0.104802 0.093056
0.169625 0.108764 0.093856
0.198997 0.112603 0.094031
0.229555 0.116381 0.091419
0.270353 0.120225 0.090040
0.320856 0.124038 0.087519
0.371725 0.130131 0.086201
0.425519 0.137744 0.086300
0.486496 0.147416 0.092516
0.552900 0.158800 0.103900
0.615809 0.168356 0.113456
0.669369 0.177663 0.119350
0.713966 0.187509 0.123184
0.750500 0.195125 0.126963
0.780613 0.204056 0.129400
0.799756 0.213019 0.130619
0.810022 0.216797 0.133300
0.816675 0.220575 0.133300
0.819600 0.223500 0.133300
0.819600 0.223500 0.133300
0.819600 0.223500 0.133300
0.819600 0.223500 0.133300
0.819600 0.223500 0.133300
0.819600 0.223500 0.133300
0.819600 0.223500 0.133300
0.819600 0.223500 0.133300
0.062700 0.093369 0.089834
0.062700 0.096793 0.089834
0.066450 0.100644 0.093491
0.074100 0.097940 0.093734
0.082098 0.101126 0.093734
0.102342 0.101625 0.093734
0.121528 0.104801 0.093734
0.146541 0.108581 0.094020
0.173159 0.112359 0.094100
0.202596 0.116138 0.094100
0.232950 0.119978 0.091419
0.273644 0.121471 0.087881
0.321938 0.124038 0.084228
0.371481 0.130131 0.082766
0.425275 0.137744 0.084754
0.486381 0.147416 0.092516
0.554713 0.158800 0.103900
0.621049 0.168356 0.113456
0.674931 0.176116 0.119350
0.717554 0.185411 0.123184
0.754068 0.195125 0.126963
0.782991 0.204056 0.129400
0.799756 0.213019 0.130619
0.810022 0.216797 0.133300
0.816675 0.220575 0.133300
0.819600 0.223500 0.133300
0.819600 0.223500 0.133300
0.819600 0.223500 0.133300
0.819600 0.223500 0.133300
0.819600 0.223500 0.133300
0.819600 0.223500 0.133300
0.819600 0.223500 0.133300
0.819600 0.223500 0.133300
0.066200 0.104425 0.097025
0.066200 0.108203 0.097025
0.069868 0.111993 0.097482
0.074089 0.105599 0.097513
0.078350 0.105350 0.097513
0.098802 0.108292 0.094633
0.121185 0.111994 0.094100
0.146906 0.113106 0.094100
0.176084 0.116138 0.094100
0.206381 0.119979 0.094100
0.239138 0.123790 0.091419
0.278625 0.125013 0.087641
0.325488 0.125317 0.083863
0.374894 0.130131 0.082400
0.426768 0.137744 0.084594
0.488241 0.147416 0.092516
0.558356 0.157094 0.103900
0.625003 0.164944 0.113456
0.678919 0.172544 0.119350
0.721338 0.181746 0.123184
0.756570 0.192938 0.126963
0.783238 0.204056 0.129400
0.799756 0.213019 0.130619
0.810022 0.216797 0.133300
0.816675 0.220575 0.133300
0.819600 0.223500 0.133300
0.819600 0.223500 0.133300
0.819600 0.223500 0.133300
0.819600 0.223500 0.133300
0.819600 0.223500 0.133300
0.819600 0.223500 0.133300
0.819600 0.223500 0.133300
0.819600 0.223500 0.133300
0.066700 0.115772 0.098000
0.066700 0.119632 0.098000
0.070356 0.123413 0.098000
0.074134 0.119570 0.098000
0.077913 0.119147 0.098000
0.098313 0.119661 0.094709
0.118420 0.120251 0.091426
0.146186 0.120366 0.093380
0.176450 0.123291 0.094100
0.206869 0.127080 0.094100
0.242231 0.130863 0.091419
0.282575 0.132081 0.087641
0.329266 0.132081 0.083863
0.378672 0.136763 0.082400
0.430272 0.144362 0.084594
0.490049 0.150501 0.090767
0.557205 0.156850 0.100609
0.620658 0.164456 0.110166
0.672788 0.172056 0.117499
0.715194 0.181253 0.123184
0.751496 0.192625 0.126963
0.781023 0.204056 0.129400
0.799756 0.213019 0.130619
0.810022 0.216797 0.133300
0.816675 0.220575 0.133300
0.819600 0.223500 0.133300
0.819600 0.223500 0.133300
0.819600 0.223500 0.133300
0.819600 0.223500 0.133300
0.819600 0.223500 0.133300
0.819600 0.223500 0.133300
0.819600 0.223500 0.133300
0.819600 0.223500 0.133300
0.066700 0.130356 0.101250
0.066700 0.131083 0.098102
0.070356 0.134839 0.098000
0.074134 0.134425 0.098000
0.077913 0.134356 0.098000
0.095570 0.131614 0.094709
0.114675 0.131106 0.090931
0.145342 0.131106 0.093247
0.176450 0.134092 0.094100
0.209146 0.135613 0.094100
0.245819 0.138500 0.091419
0.286406 0.139719 0.087641
0.333074 0.141699 0.085843
0.382450 0.147530 0.085569
0.434050 0.153357 0.085980
0.491820 0.155807 0.090444
0.556900 0.158475 0.100000
0.618277 0.164456 0.109556
0.668394 0.172056 0.115734
0.710764 0.181253 0.119967
0.748469 0.192625 0.123794
0.780613 0.204056 0.127321
0.799756 0.213019 0.130619
0.810022 0.216797 0.133300
0.816675 0.220575 0.133300
0.819600 0.223500 0.133300
0.819600 0.223500 0.133300
0.819600 0.223500 0.133300
0.819600 0.223500 0.133300
0.819600 0.223500 0.133300
0.819600 0.223500 0.133300
0.819600 0.223500 0.133300
0.819600 0.223500 0.133300
0.069747 0.148613 0.102000
0.069747 0.148613 0.098125
0.070547 0.149433 0.098000
0.074134 0.149488 0.098000
0.077913 0.152222 0.098000
0.092367 0.151874 0.097280
0.108403 0.151738 0.093978
0.143845 0.149296 0.093913
0.178735 0.146984 0.091815
0.217155 0.146441 0.091053
0.255769 0.149122 0.088372
0.294318 0.150341 0.086593
0.339955 0.152827 0.086300
0.391162 0.158950 0.086300
0.447428 0.166039 0.086300
0.507475 0.172366 0.090444
0.570650 0.178733 0.100000
0.631587 0.187327 0.109556
0.682975 0.195220 0.115406
0.722862 0.200184 0.117955
0.754934 0.205652 0.119967
0.782663 0.210106 0.124841
0.799756 0.213019 0.130619
0.810022 0.216797 0.133300
0.816675 0.220575 0.133300
0.819600 0.223500 0.133300
0.819600 0.223500 0.133300
0.819600 0.223500 0.133300
0.819600 0.223500 0.133300
0.819600 0.223500 0.133300
0.819600 0.223500 0.133300
0.819600 0.223500 0.133300
0.819600 0.223500 0.133300
0.073525 0.164675 0.102000
0.073525 0.164675 0.101031
0.073525 0.164675 0.101000
0.074409 0.164675 0.101000
0.077913 0.165550 0.101000
0.089179 0.170674 0.101000
0.101555 0.171600 0.097770
0.139907 0.166190 0.092455
0.180894 0.161750 0.088250
0.224298 0.160775 0.087275
0.266263 0.159434 0.084594
0.303206 0.158825 0.083375
0.349353 0.161278 0.085203
0.403953 0.169163 0.086300
0.461098 0.177938 0.087945
0.520573 0.187101 0.093369
0.583313 0.199038 0.101463
0.647002 0.211396 0.108185
0.700683 0.219364 0.112481
0.738231 0.221996 0.114675
0.766428 0.222950 0.116147
0.789088 0.222544 0.121307
0.804716 0.220880 0.127694
0.813001 0.221824 0.130375
0.818869 0.223519 0.130375
0.819600 0.225844 0.130375
0.819600 0.223500 0.130375
0.819600 0.223500 0.130375
0.819600 0.223500 0.130741
0.819600 0.223500 0.133300
0.819600 0.223500 0.133300
0.819600 0.223500 0.133300
0.819600 0.223500 0.133300
0.074500 0.179884 0.102000
0.074500 0.179884 0.102000
0.074500 0.179884 0.102000
0.077040 0.179884 0.102000
0.080779 0.179884 0.102000
0.088805 0.186550 0.102000
0.097452 0.190062 0.098750
0.135900 0.186662 0.089716
0.178543 0.184740 0.084472
0.225173 0.178370 0.083497
0.270827 0.171327 0.080766
0.313869 0.169209 0.081412
0.364994 0.171692 0.084838
0.419924 0.180145 0.087964
0.475759 0.190914 0.091297
0.533305 0.201853 0.095658
0.596133 0.215234 0.101950
0.662150 0.228569 0.106414
0.717667 0.238987 0.108703
0.756244 0.246668 0.110897
0.784751 0.251048 0.111308
0.806965 0.252413 0.113721
0.820456 0.250799 0.117362
0.827293 0.247295 0.118904
0.830184 0.242127 0.121638
0.826839 0.236627 0.124407
0.821878 0.228113 0.127122
0.819600 0.223500 0.129400
0.819600 0.223500 0.129888
0.819600 0.223500 0.133300
0.819600 0.223500 0.133300
0.819600 0.223500 0.133300
0.819600 0.223500 0.133300
0.077181 0.195094 0.102000
0.077181 0.195094 0.102000
0.077181 0.195094 0.102000
0.078286 0.195094 0.102000
0.081900 0.195094 0.102000
0.086719 0.201701 0.102000
0.093856 0.208328 0.098750
0.132116 0.208623 0.088859
0.174744 0.210367 0.081313
0.222175 0.200629 0.079650
0.272587 0.189329 0.078791
0.323389 0.184239 0.081025
0.379858 0.185794 0.084838
0.435522 0.194241 0.090208
0.490939 0.205631 0.096622
0.547931 0.217063 0.100179
0.610794 0.230409 0.103325
0.676070 0.244998 0.105900
0.731809 0.259011 0.105260
0.773639 0.271442 0.104438
0.804176 0.280174 0.104438
0.825795 0.285209 0.104856
0.836763 0.284912 0.105656
0.842537 0.278194 0.106753
0.842420 0.269272 0.111209
0.837144 0.255578 0.117623
0.828200 0.240210 0.123550
0.824602 0.231194 0.126719
0.822281 0.228596 0.127206
0.822030 0.226250 0.130619
0.819600 0.226078 0.130619
0.819600 0.223500 0.130619
0.819600 0.223500 0.130619
0.078400 0.215422 0.102000
0.078400 0.215422 0.102000
0.078400 0.215422 0.102000
0.078400 0.215422 0.102000
0.079603 0.215422 0.102000
0.085280 0.219899 0.102000
0.092638 0.227094 0.098750
0.124847 0.232562 0.090859
0.163862 0.238575 0.082984
0.212493 0.232601 0.081025
0.267105 0.223341 0.081025
0.324469 0.212821 0.081927
0.389127 0.206466 0.084838
0.449660 0.210490 0.090931
0.506134 0.220841 0.098544
0.565860 0.232237 0.102000
0.629842 0.245570 0.103950
0.690854 0.260763 0.105900
0.741488 0.275972 0.104194
0.781600 0.289597 0.102000
0.812872 0.300488 0.102000
0.835863 0.309205 0.102000
0.849392 0.312650 0.102000
0.854778 0.308594 0.102377
0.853795 0.299672 0.104651
0.849404 0.286698 0.109735
0.843531 0.273172 0.114108
0.839738 0.262175 0.115197
0.836043 0.253750 0.115684
0.833198 0.247321 0.119337
0.827020 0.239793 0.121980
0.822079 0.231002 0.126921
0.819600 0.223500 0.129400
0.078400 0.240688 0.102000
0.078400 0.240688 0.102000
0.078400 0.240688 0.102000
0.078400 0.240688 0.102000
0.078400 0.240688 0.102000
0.085066 0.244010 0.102000
0.092638 0.248982 0.100781
0.117870 0.258034 0.094357
0.150222 0.268041 0.088616
0.200044 0.270248 0.087275
0.258314 0.264695 0.085599
0.321850 0.251934 0.084838
0.393186 0.240139 0.085752
0.459882 0.236589 0.090931
0.521648 0.240648 0.097138
0.586259 0.249866 0.100828
0.650750 0.263200 0.103950
0.706299 0.278409 0.105900
0.750665 0.293619 0.104194
0.787878 0.308234 0.102000
0.819127 0.321098 0.102000
0.843013 0.331982 0.102000
0.858332 0.339487 0.102000
0.864423 0.338958 0.102000
0.865809 0.331619 0.102366
0.863859 0.324452 0.103782
0.860070 0.314937 0.104925
0.856616 0.303562 0.104925
0.854558 0.292041 0.105108
0.848281 0.279531 0.106753
0.840566 0.265620 0.110777
0.830677 0.249466 0.118325
0.824538 0.233313 0.124525
0.080775 0.267269 0.102000
0.080775 0.267269 0.102000
0.082946 0.269495 0.102000
0.083091 0.265393 0.102000
0.083091 0.264953 0.102000
0.085799 0.268244 0.102000
0.092638 0.273952 0.102000
0.113729 0.284300 0.097637
0.141008 0.295719 0.091754
0.190560 0.303136 0.090200
0.250256 0.304311 0.089111
0.316200 0.299864 0.090135
0.392363 0.291770 0.090931
0.465853 0.279003 0.092813
0.534955 0.269641 0.094991
0.602439 0.272286 0.099040
0.665827 0.283375 0.103950
0.719257 0.298482 0.105900
0.761397 0.314922 0.104194
0.796847 0.330131 0.102000
0.826729 0.344746 0.102000
0.849812 0.356795 0.102000
0.864308 0.364190 0.102000
0.873096 0.366021 0.102000
0.877606 0.362754 0.102000
0.876740 0.358069 0.102000
0.872908 0.349739 0.102000
0.869706 0.338712 0.102000
0.868731 0.329086 0.102000
0.861387 0.316126 0.102149
0.855773 0.302825 0.103782
0.846766 0.283982 0.106926
0.841453 0.269481 0.112278
0.084594 0.296063 0.102000
0.084594 0.296063 0.102000
0.088250 0.299760 0.104057
0.088494 0.292898 0.104194
0.088494 0.292163 0.104194
0.088494 0.295453 0.104194
0.093049 0.302436 0.104194
0.110746 0.313091 0.101113
0.136031 0.324513 0.094358
0.185169 0.334646 0.092394
0.244843 0.341714 0.092394
0.310781 0.349446 0.094953
0.388960 0.350321 0.097700
0.468179 0.333736 0.097208
0.543390 0.314170 0.096294
0.612378 0.307758 0.099325
0.675016 0.312006 0.103950
0.729473 0.323822 0.105900
0.772788 0.340897 0.105154
0.806703 0.357341 0.104194
0.833513 0.372550 0.103371
0.854676 0.385044 0.102000
0.868620 0.391395 0.102000
0.879533 0.394106 0.102000
0.886788 0.393120 0.102000
0.885925 0.388456 0.102000
0.882113 0.380561 0.102000
0.878944 0.371538 0.102000
0.878236 0.363755 0.102000
0.872912 0.354253 0.102000
0.868987 0.342562 0.101859
0.863609 0.325875 0.099803
0.859831 0.314444 0.101456
0.090444 0.330625 0.106144
0.090444 0.330625 0.106144
0.092158 0.334281 0.109800
0.092272 0.329334 0.108166
0.092272 0.328797 0.106159
0.092272 0.330339 0.105900
0.093757 0.335279 0.105900
0.107794 0.345572 0.104472
0.132253 0.355409 0.099741
0.182880 0.367765 0.098297
0.243106 0.378509 0.098297
0.309031 0.393288 0.099497
0.385943 0.404610 0.102592
0.466422 0.400084 0.104189
0.544005 0.386153 0.105434
0.614863 0.370686 0.106236
0.680522 0.358714 0.106022
0.737850 0.359814 0.105900
0.782094 0.372687 0.105900
0.816157 0.389443 0.105900
0.842528 0.407113 0.105991
0.861900 0.419606 0.106144
0.874517 0.426608 0.106144
0.885901 0.430750 0.106144
0.894344 0.429244 0.105626
0.893491 0.422566 0.104072
0.889713 0.413372 0.103683
0.886544 0.405734 0.102000
0.886050 0.397907 0.102000
0.882231 0.388084 0.102000
0.878450 0.376629 0.101750
0.874687 0.363484 0.098000
0.872916 0.352053 0.098000
0.098050 0.372550 0.115700
0.096113 0.372550 0.113763
0.096050 0.374378 0.115528
0.096050 0.372733 0.113883
0.096050 0.372550 0.110288
0.096050 0.372550 0.109800
0.096050 0.374134 0.109800
0.108316 0.383680 0.108277
0.132375 0.393600 0.104925
0.184316 0.407334 0.103950
0.246431 0.421203 0.103950
0.311702 0.439642 0.103950
0.385550 0.458081 0.106388
0.464566 0.470519 0.111323
0.541031 0.471181 0.117019
0.613069 0.453008 0.116466
0.682350 0.428450 0.112725
0.742420 0.416736 0.110836
0.788575 0.419134 0.109800
0.824506 0.432305 0.109800
0.851963 0.450256 0.111263
0.871377 0.462202 0.113700
0.884072 0.470444 0.113700
0.894906 0.474500 0.113700
0.901950 0.472538 0.112725
0.901523 0.464080 0.109800
0.899269 0.453428 0.109069
0.895788 0.445519 0.105900
0.893613 0.435781 0.105900
0.890017 0.424398 0.105900
0.888003 0.413013 0.105653
0.884300 0.401644 0.101950
0.884300 0.392150 0.101950
0.105656 0.416303 0.125256
0.101827 0.414532 0.121427
0.101703 0.414475 0.119589
0.101703 0.414475 0.121132
0.101703 0.414475 0.117891
0.101703 0.414475 0.117403
0.101703 0.414475 0.117403
0.115397 0.426509 0.114320
0.141227 0.438728 0.110531
0.193625 0.452963 0.109556
0.255859 0.469429 0.109556
0.318673 0.489128 0.109556
0.387671 0.508828 0.110851
0.464566 0.527816 0.115174
0.539906 0.539918 0.122044
0.611135 0.534304 0.124242
0.681413 0.516561 0.124045
0.743334 0.497656 0.122274
0.791400 0.486013 0.119231
0.829199 0.489067 0.119231
0.858426 0.499371 0.120008
0.879653 0.508469 0.121932
0.893627 0.517397 0.123131
0.903912 0.520078 0.123131
0.909556 0.518128 0.122613
0.909556 0.509697 0.121059
0.908825 0.499007 0.120328
0.905324 0.490795 0.116874
0.903044 0.479410 0.115097
0.899460 0.467854 0.113456
0.897674 0.454883 0.113213
0.895731 0.445333 0.109556
0.895731 0.437731 0.109556
0.111506 0.458100 0.131106
0.109381 0.454279 0.127328
0.109313 0.452557 0.123550
0.109313 0.453996 0.126841
0.109313 0.454156 0.125287
0.109313 0.454156 0.125013
0.109313 0.454156 0.123626
0.124625 0.468136 0.120215
0.152463 0.482180 0.116392
0.205410 0.496841 0.115406
0.267374 0.514731 0.115406
0.327546 0.532599 0.115406
0.392638 0.551000 0.115406
0.465952 0.571001 0.116709
0.538946 0.589447 0.122044
0.608300 0.601618 0.129408
0.678644 0.600369 0.134806
0.741628 0.583030 0.133900
0.790440 0.562719 0.130663
0.830041 0.553681 0.130663
0.861275 0.553114 0.130663
0.884383 0.556287 0.131417
0.899494 0.562995 0.132856
0.909800 0.565706 0.132856
0.915406 0.563745 0.132856
0.915406 0.555664 0.132856
0.914995 0.546011 0.132445
0.913213 0.536645 0.130046
0.912725 0.526738 0.126224
0.909107 0.514941 0.122603
0.907012 0.500116 0.120919
0.905413 0.490917 0.118863
0.905413 0.483306 0.118863
0.116909 0.498325 0.134925
0.116909 0.494450 0.131108
0.116909 0.493678 0.128813
0.116909 0.495733 0.130767
0.116909 0.494528 0.130984
0.116909 0.494325 0.130984
0.116909 0.494325 0.129103
0.129715 0.505353 0.125622
0.156850 0.520216 0.121799
0.212115 0.535425 0.120809
0.276484 0.552226 0.120809
0.335897 0.569199 0.120809
0.400234 0.588381 0.120809
0.469038 0.609337 0.120809
0.537713 0.630157 0.123448
0.606106 0.649859 0.131769
0.675658 0.660284 0.139250
0.737107 0.654963 0.140857
0.786020 0.640379 0.140469
0.827491 0.625359 0.140469
0.860285 0.613621 0.140469
0.885138 0.608983 0.140469
0.901688 0.610750 0.140469
0.911994 0.611294 0.140469
0.918006 0.609329 0.140469
0.919225 0.602075 0.140469
0.919225 0.595303 0.140469
0.919225 0.585784 0.140098
0.918936 0.577728 0.137804
0.916909 0.565931 0.135413
0.916663 0.550966 0.131779
0.912969 0.539560 0.130243
0.912969 0.528934 0.128669
0.124525 0.534838 0.138763
0.124525 0.530963 0.134924
0.124525 0.534588 0.134800
0.124525 0.534838 0.134800
0.124525 0.532650 0.134800
0.124525 0.531072 0.134800
0.124525 0.530838 0.134800
0.132552 0.538914 0.132896
0.156128 0.551825 0.129409
0.215032 0.566659 0.127374
0.283167 0.582874 0.126963
0.343513 0.601125 0.126963
0.406936 0.621648 0.126963
0.472429 0.641550 0.126963
0.538369 0.662731 0.126963
0.606106 0.684235 0.132454
0.674500 0.701469 0.139981
0.733706 0.711560 0.145176
0.780723 0.710848 0.148025
0.822288 0.696934 0.148634
0.857352 0.677377 0.148963
0.884178 0.665129 0.148025
0.901688 0.660549 0.148025
0.912416 0.656451 0.148025
0.920091 0.653806 0.148025
0.923063 0.648492 0.148025
0.923063 0.645113 0.147751
0.923063 0.637500 0.146791
0.923063 0.629417 0.148025
0.923063 0.617927 0.147659
0.922815 0.605615 0.143973
0.919100 0.594099 0.141564
0.919100 0.578950 0.137725
0.133456 0.564978 0.142541
0.132158 0.561136 0.138763
0.132116 0.563473 0.138641
0.132116 0.563638 0.138641
0.133289 0.564811 0.139814
0.133456 0.562763 0.139981
0.133456 0.562353 0.139981
0.137507 0.566403 0.139981
0.155260 0.575307 0.137007
0.214347 0.590145 0.132224
0.286519 0.608436 0.129819
0.348388 0.627477 0.129400
0.411125 0.646488 0.130238
0.475448 0.665475 0.130741
0.539463 0.686656 0.130741
0.606106 0.709422 0.134225
0.674500 0.730925 0.141200
0.733706 0.748756 0.148756
0.779656 0.756560 0.154088
0.818736 0.750668 0.157771
0.852194 0.735681 0.159435
0.880819 0.718453 0.156495
0.901688 0.706083 0.155616
0.913119 0.698678 0.155616
0.922575 0.694875 0.155616
0.925500 0.691875 0.155616
0.925751 0.690413 0.154884
0.926841 0.682846 0.152116
0.926841 0.674910 0.154275
0.926841 0.665204 0.154035
0.926681 0.658643 0.151799
0.924281 0.648483 0.152934
0.924281 0.634572 0.149156
0.142419 0.585306 0.146319
0.138641 0.581528 0.142541
0.138519 0.581406 0.142419
0.138519 0.581406 0.142419
0.141931 0.584819 0.145831
0.142419 0.585306 0.146319
0.142419 0.585306 0.146319
0.142419 0.585306 0.146319
0.156205 0.590242 0.143394
0.213471 0.605975 0.136763
0.285300 0.625010 0.131847
0.347969 0.644019 0.130619
0.412725 0.663006 0.133076
0.476488 0.681994 0.134550
0.538777 0.702489 0.134550
0.604888 0.725386 0.136658
0.673281 0.749381 0.142419
0.733059 0.769102 0.149990
0.779123 0.779689 0.157593
0.815438 0.783615 0.165188
0.846313 0.778638 0.168813
0.877040 0.760764 0.165378
0.900850 0.743404 0.162019
0.913119 0.733864 0.162019
0.922575 0.729170 0.162019
0.925767 0.726194 0.162019
0.927221 0.724731 0.161288
0.929400 0.717361 0.158119
0.929400 0.710950 0.158119
0.929400 0.704766 0.158119
0.929476 0.700742 0.158363
0.930619 0.693070 0.161935
0.930619 0.682850 0.159338
0.145100 0.598294 0.150097
0.142384 0.595578 0.147381
0.142297 0.595491 0.147294
0.142297 0.595491 0.147294
0.144750 0.597943 0.149746
0.145100 0.598294 0.150097
0.145100 0.598294 0.150097
0.145100 0.598294 0.150097
0.156875 0.601219 0.147172
0.211544 0.617090 0.141379
0.281091 0.636394 0.136009
0.344843 0.655381 0.133687
0.410531 0.673683 0.135800
0.474277 0.692259 0.137300
0.535063 0.711247 0.137300
0.600013 0.734416 0.139372
0.668955 0.761008 0.145100
0.730538 0.782081 0.152703
0.777333 0.794346 0.160313
0.812756 0.802571 0.167869
0.844638 0.803654 0.172500
0.875742 0.789987 0.170573
0.898252 0.771572 0.166551
0.913119 0.760979 0.165488
0.922575 0.753538 0.164700
0.926353 0.750613 0.164700
0.929400 0.749150 0.164174
0.929400 0.742363 0.161897
0.929400 0.739446 0.162034
0.929400 0.735644 0.162994
0.929644 0.731686 0.163169
0.933300 0.725125 0.165763
0.933300 0.718631 0.164700
0.146075 0.604875 0.153900
0.146075 0.604875 0.153900
0.146075 0.604875 0.153900
0.146075 0.604875 0.153900
0.146075 0.604875 0.153900
0.146075 0.604875 0.153900
0.146075 0.604875 0.153900
0.146075 0.604875 0.153900
0.156388 0.607069 0.150956
0.207029 0.624062 0.147172
0.269277 0.643900 0.140713
0.332963 0.662888 0.135666
0.401244 0.680047 0.136175
0.465693 0.697938 0.137300
0.526486 0.716925 0.137848
0.591456 0.740056 0.139829
0.661313 0.766650 0.144613
0.724266 0.787759 0.151716
0.773244 0.801656 0.159750
0.811202 0.812395 0.167869
0.843653 0.816188 0.172875
0.873787 0.807683 0.173500
0.895350 0.792420 0.172273
0.912137 0.781006 0.168478
0.921825 0.771306 0.165675
0.926140 0.767650 0.165675
0.928608 0.766366 0.165675
0.929400 0.760800 0.165675
0.929400 0.760303 0.166041
0.929400 0.756551 0.168600
0.929583 0.753656 0.168600
0.932355 0.749878 0.168509
0.933300 0.746100 0.165675
0.149000 0.607800 0.156900
0.149000 0.607800 0.156900
0.149000 0.607800 0.156900
0.149000 0.607800 0.156900
0.149000 0.607800 0.156900
0.149000 0.607800 0.156900
0.149000 0.607800 0.156900
0.149000 0.607800 0.156900
0.153629 0.607800 0.153900
0.186835 0.619491 0.150097
0.234608 0.636954 0.143638
0.305020 0.656235 0.139200
0.385158 0.676582 0.138153
0.453453 0.696209 0.138153
0.514234 0.715689 0.139867
0.578719 0.738750 0.141200
0.646713 0.764933 0.143150
0.709975 0.786841 0.148756
0.763018 0.802969 0.157689
0.805159 0.816553 0.167016
0.839513 0.822357 0.173467
0.869099 0.816991 0.176500
0.890697 0.806718 0.175250
0.907949 0.795107 0.171403
0.919575 0.784073 0.168600
0.925500 0.778206 0.168600
0.926231 0.777620 0.168600
0.929400 0.775081 0.168600
0.929400 0.774700 0.168600
0.929400 0.772034 0.168600
0.929400 0.771791 0.168600
0.929522 0.768039 0.168600
0.933300 0.765088 0.168600
0.149000 0.607800 0.156900
0.149000 0.607800 0.156900
0.149000 0.607800 0.156900
0.149000 0.607800 0.156900
0.149000 0.607800 0.156900
0.149000 0.607800 0.156900
0.149000 0.607800 0.156900
0.149000 0.607800 0.156900
0.149000 0.607800 0.153900
0.160972 0.610136 0.150097
0.191601 0.620838 0.144140
0.267280 0.641189 0.141931
0.362005 0.666655 0.141474
0.436918 0.688575 0.141200
0.498294 0.710213 0.141200
0.561159 0.732956 0.141200
0.628091 0.757338 0.143150
0.693490 0.782091 0.148756
0.751206 0.801807 0.156356
0.798317 0.815811 0.163969
0.833813 0.823324 0.171563
0.861516 0.822903 0.176500
0.883291 0.816650 0.175250
