luts/A_v_log/F-8700-V2-VLOG.cube
# Copyright: (C) Copyright 2010-2019 by IWLTBAP SAS
# Cannot be resold, shared or otherwise redistributed
# Website: https://luts.iwltbap.com
TITLE "IWLTBAP 8700-V2 (V-Log L)"
LUT_3D_SIZE 5
0.000000 0.000000 0.000000
0.108800 0.021550 0.000975
0.594100 0.092150 0.017650
0.907850 0.177475 0.055875
0.913700 0.180400 0.058800
0.000000 0.100025 0.011800
0.120819 0.098806 0.000000
0.628438 0.146575 0.015200
0.910044 0.182594 0.052950
0.913700 0.180400 0.058800
0.007850 0.372550 0.031400
0.070588 0.395113 0.022575
0.745125 0.440200 0.030400
0.991188 0.492625 0.032363
0.986300 0.392150 0.017650
0.075475 0.652950 0.083375
0.090906 0.655144 0.080394
0.718613 0.845100 0.072063
0.995369 0.853944 0.102975
0.996100 0.825475 0.102975
0.078400 0.658800 0.086300
0.078400 0.658800 0.086300
0.549000 0.790150 0.070600
0.991150 0.887250 0.112725
1.000000 0.874500 0.105900
0.000000 0.013725 0.093100
0.041638 0.032369 0.079450
0.569100 0.105888 0.065213
0.907850 0.177475 0.055875
0.913700 0.180400 0.058800
0.000000 0.086031 0.111744
0.037433 0.104656 0.112269
0.604656 0.136166 0.043147
0.907850 0.180400 0.052767
0.913700 0.180400 0.058800
0.005363 0.406850 0.122075
0.034075 0.398175 0.081019
0.728419 0.421569 0.030175
0.990688 0.471572 0.028425
0.978888 0.381350 0.016188
0.075475 0.650025 0.088494
0.081400 0.652219 0.085555
0.688359 0.835300 0.070225
0.995369 0.849275 0.102975
0.996100 0.818650 0.101981
0.078400 0.658800 0.086300
0.078400 0.658800 0.086300
0.525988 0.782350 0.062700
0.990419 0.887250 0.112725
1.000000 0.874500 0.105900
0.000000 0.149000 0.390200
0.000000 0.153925 0.360800
0.298025 0.184300 0.276450
0.870575 0.324488 0.285313
0.903900 0.290200 0.196100
0.000000 0.175500 0.403900
0.001097 0.178434 0.403803
0.274250 0.187019 0.281119
0.872534 0.319722 0.272063
0.912250 0.283338 0.188738
0.029400 0.362750 0.508825
0.025500 0.359069 0.490469
0.415188 0.535288 0.534813
0.970581 0.612231 0.423013
0.979400 0.432350 0.175500
0.109800 0.813750 0.772050
0.104641 0.811022 0.756359
0.474981 0.860300 0.520575
0.993175 0.897188 0.198419
0.997563 0.838700 0.137738
0.088250 0.772550 0.570600
0.081375 0.751975 0.508825
0.332350 0.810775 0.338250
0.989200 0.913725 0.153913
1.000000 0.876450 0.111750
0.028475 0.302975 0.687275
0.027744 0.302975 0.685081
0.083813 0.322538 0.636288
0.770819 0.448319 0.549025
0.799025 0.443125 0.525450
0.027744 0.302975 0.686544
0.025494 0.302975 0.684350
0.082716 0.321684 0.637263
0.767894 0.445075 0.539200
0.799025 0.443125 0.525206
0.053438 0.429400 0.765688
0.052463 0.420588 0.758556
0.128438 0.489963 0.829425
0.852697 0.609672 0.726866
0.842163 0.519600 0.609788
0.102975 0.636275 0.852950
0.099994 0.632984 0.850025
0.160422 0.691663 0.896588
0.963989 0.958513 0.907545
0.992181 0.938450 0.875238
0.105900 0.653925 0.859775
0.105900 0.651000 0.856850
0.132375 0.684788 0.871550
0.936500 0.984544 0.880863
0.996100 0.977475 0.774475
0.031400 0.305900 0.690200
0.031400 0.305900 0.690200
0.060800 0.319600 0.662750
0.725475 0.449050 0.575500
0.792200 0.466700 0.576500
0.031400 0.305900 0.690200
0.031400 0.305900 0.690200
0.060800 0.319600 0.662250
0.719625 0.449050 0.577694
0.792200 0.466700 0.576500
0.045100 0.390200 0.741150
0.043150 0.383325 0.738225
0.073525 0.409825 0.775500
0.748038 0.517163 0.663213
0.798050 0.476500 0.588250
0.096075 0.616700 0.856850
0.099000 0.611725 0.856850
0.118625 0.631375 0.876500
0.914969 0.931619 0.938256
0.978450 0.896100 0.919575
0.113700 0.651000 0.866700
0.113700 0.651000 0.866700
0.115650 0.654900 0.870600
0.837275 0.956850 0.958825
0.996100 1.000000 0.945100
