luts/A_v_log/F-8700-V2-VLOG.cube
# Copyright: (C) Copyright 2010-2019 by IWLTBAP SAS
# Cannot be resold, shared or otherwise redistributed
# Website: https://luts.iwltbap.com
TITLE "IWLTBAP 8700-V2 (V-Log L)"
LUT_3D_SIZE 33
0.000000 0.000000 0.000000
0.000000 0.000000 0.000000
0.000000 0.000000 0.000000
0.000000 0.000000 0.000000
0.000000 0.000000 0.000000
0.019828 0.003291 0.000000
0.042675 0.007069 0.003169
0.074678 0.013972 0.003900
0.108800 0.021550 0.000975
0.151453 0.026375 0.000000
0.199763 0.032863 0.000000
0.251728 0.037859 0.000000
0.312288 0.046575 0.002438
0.379159 0.057947 0.003900
0.447513 0.069338 0.003900
0.517978 0.080769 0.008097
0.594100 0.092150 0.017650
0.668394 0.101703 0.029031
0.731625 0.112769 0.038713
0.783834 0.127978 0.046309
0.826500 0.143150 0.051000
0.860419 0.156956 0.051000
0.883306 0.167138 0.051000
0.897419 0.173625 0.052097
0.907850 0.177475 0.055875
0.913700 0.180400 0.058800
0.913700 0.180400 0.058800
0.913700 0.180400 0.058800
0.913700 0.180400 0.058800
0.913700 0.180400 0.058800
0.913700 0.180400 0.058800
0.913700 0.180400 0.058800
0.913700 0.180400 0.058800
0.000000 0.000000 0.000000
0.000000 0.000000 0.000000
0.000000 0.000000 0.000000
0.000000 0.000000 0.000000
0.000000 0.003306 0.000000
0.016640 0.003881 0.000000
0.038818 0.007069 0.000099
0.070803 0.013972 0.000122
0.104998 0.021550 0.000030
0.147675 0.026375 0.000000
0.193320 0.032863 0.000000
0.244075 0.037859 0.000000
0.306996 0.044214 0.000076
0.375342 0.054169 0.000122
0.443734 0.065559 0.002247
0.514200 0.076991 0.008097
0.592211 0.090261 0.017650
0.668394 0.101703 0.029031
0.731625 0.112769 0.038713
0.783834 0.127978 0.046309
0.826500 0.143150 0.051000
0.860419 0.156956 0.051000
0.883306 0.167138 0.051000
0.897419 0.173625 0.052097
0.907850 0.177475 0.055875
0.913700 0.180400 0.058800
0.913700 0.180400 0.058800
0.913700 0.180400 0.058800
0.913700 0.180400 0.058800
0.913700 0.180400 0.058800
0.913700 0.180400 0.058800
0.913700 0.180400 0.058800
0.913700 0.180400 0.058800
0.000000 0.000000 0.000000
0.000000 0.000000 0.000000
0.000000 0.000000 0.000000
0.000000 0.003313 0.000000
0.000000 0.007069 0.000000
0.016538 0.007556 0.000000
0.038694 0.007754 0.000000
0.070678 0.013972 0.000000
0.104875 0.021550 0.002742
0.144925 0.029003 0.003656
0.186943 0.036519 0.001143
0.238915 0.041516 0.000000
0.303169 0.045509 0.000000
0.371563 0.054047 0.000000
0.439956 0.065438 0.002194
0.512364 0.076869 0.008097
0.592150 0.090200 0.017650
0.668394 0.101703 0.029031
0.733225 0.112769 0.038713
0.787491 0.127978 0.046309
0.830156 0.143150 0.051000
0.862818 0.156956 0.051000
0.883306 0.167138 0.051000
0.897419 0.173625 0.052097
0.907850 0.177475 0.055875
0.913700 0.180400 0.058800
0.913700 0.180400 0.058800
0.913700 0.180400 0.058800
0.913700 0.180400 0.058800
0.913700 0.180400 0.058800
0.913700 0.180400 0.058800
0.913700 0.180400 0.058800
0.913700 0.180400 0.058800
0.000000 0.007069 0.000000
0.000000 0.007069 0.000000
0.000000 0.010467 0.003313
0.000000 0.011025 0.000331
0.000000 0.014472 0.000000
0.019520 0.014959 0.000000
0.042302 0.017831 0.000000
0.074303 0.021834 0.000000
0.108432 0.028687 0.000274
0.150825 0.033732 0.000366
0.193600 0.037867 0.000114
0.243337 0.041759 0.000000
0.306459 0.045600 0.000000
0.372755 0.054047 0.000000
0.439713 0.065438 0.002194
0.512250 0.076869 0.008097
0.593917 0.090200 0.015883
0.671928 0.101703 0.025497
0.736866 0.112769 0.036724
0.791269 0.127978 0.046309
0.833934 0.143150 0.051000
0.865298 0.156956 0.051000
0.883306 0.167138 0.051000
0.897419 0.173625 0.052097
0.907850 0.177475 0.055875
0.913700 0.180400 0.058800
0.913700 0.180400 0.058800
0.913700 0.180400 0.058800
0.913700 0.180400 0.058800
0.913700 0.180400 0.058800
0.913700 0.180400 0.058800
0.913700 0.180400 0.058800
0.913700 0.180400 0.058800
0.000000 0.018125 0.003413
0.000000 0.018125 0.003413
0.000000 0.021793 0.007069
0.000000 0.022038 0.000686
0.000000 0.022464 0.000000
0.019828 0.025478 0.002879
0.045448 0.029194 0.000640
0.080757 0.032972 0.000000
0.115691 0.037125 0.000000
0.158303 0.038575 0.000000
0.203563 0.041394 0.000000
0.251914 0.042932 0.000000
0.311605 0.045600 0.000000
0.374325 0.054047 0.000000
0.439713 0.065438 0.000274
0.514063 0.076869 0.004638
0.595806 0.090200 0.013950
0.672294 0.101703 0.025131
0.737231 0.112769 0.036519
0.791634 0.127978 0.046309
0.834300 0.143150 0.051000
0.865538 0.156956 0.051000
0.883306 0.167138 0.051000
0.897419 0.173625 0.052097
0.907850 0.177475 0.055875
0.913700 0.180400 0.058800
0.913700 0.180400 0.058800
0.913700 0.180400 0.058800
0.913700 0.180400 0.058800
0.913700 0.180400 0.058800
0.913700 0.180400 0.058800
0.913700 0.180400 0.058800
0.913700 0.180400 0.058800
0.000000 0.036138 0.003900
0.000000 0.036138 0.003900
0.000000 0.039794 0.007556
0.000000 0.040038 0.003713
0.000000 0.040038 0.003291
0.019828 0.037788 0.003805
0.045844 0.040541 0.000731
0.081625 0.044385 0.000000
0.116675 0.048181 0.000000
0.159281 0.049156 0.000000
0.204881 0.051838 0.000000
0.253069 0.053056 0.000000
0.312288 0.055504 0.000000
0.376482 0.062015 0.000000
0.443003 0.072056 0.000000
0.515864 0.081702 0.004144
0.594405 0.091845 0.013700
0.669003 0.101703 0.025131
0.732501 0.112769 0.036519
0.785053 0.127978 0.046309
0.828953 0.143150 0.051000
0.863378 0.156956 0.051000
0.883306 0.167138 0.051000
0.897419 0.173625 0.052097
0.907850 0.177475 0.055875
0.913700 0.180400 0.058800
0.913700 0.180400 0.058800
0.913700 0.180400 0.058800
0.913700 0.180400 0.058800
0.913700 0.180400 0.058800
0.913700 0.180400 0.058800
0.913700 0.180400 0.058800
0.913700 0.180400 0.058800
0.000000 0.055125 0.007069
0.000000 0.055125 0.007069
0.000000 0.058781 0.010801
0.000000 0.059025 0.010387
0.000000 0.056252 0.007475
0.017154 0.052566 0.004395
0.042675 0.055125 0.000731
0.078456 0.056442 0.000000
0.118259 0.059531 0.000000
0.160172 0.062842 0.000000
0.204881 0.066438 0.000000
0.255148 0.067656 0.000000
0.315456 0.068113 0.000000
0.380013 0.073030 0.000000
0.446781 0.081051 0.000000
0.517635 0.088972 0.004144
0.594100 0.096944 0.013700
0.666908 0.104915 0.023646
0.728456 0.114551 0.033350
0.780633 0.127978 0.043141
0.824743 0.143150 0.047831
0.860899 0.156956 0.047831
0.883306 0.167138 0.048821
0.897419 0.173625 0.052097
0.907850 0.177475 0.055875
0.913700 0.180400 0.058800
0.913700 0.180400 0.058800
0.913700 0.180400 0.058800
0.913700 0.180400 0.058800
0.913700 0.180400 0.058800
0.913700 0.180400 0.058800
0.913700 0.180400 0.058800
0.913700 0.180400 0.058800
0.000000 0.077238 0.010925
0.000000 0.077238 0.007898
0.000000 0.078037 0.011550
0.000000 0.080852 0.011800
0.000000 0.080391 0.008300
0.013967 0.082135 0.004509
0.033882 0.085647 0.000731
0.075708 0.081617 0.000000
0.120910 0.078639 0.000000
0.167861 0.078720 0.000000
0.218289 0.079552 0.000000
0.268941 0.081818 0.000000
0.328453 0.084770 0.000000
0.394865 0.092399 0.000000
0.462859 0.101237 0.000000
0.533291 0.110463 0.004144
0.609413 0.121019 0.013700
0.683306 0.131574 0.021838
0.744751 0.141173 0.028195
0.792731 0.149956 0.035046
0.830904 0.158082 0.040166
0.862418 0.164053 0.045049
0.883306 0.169232 0.048319
0.897419 0.173625 0.052097
0.907850 0.177475 0.055875
0.913700 0.180400 0.058800
0.913700 0.180400 0.058800
0.913700 0.180400 0.058800
0.913700 0.180400 0.058800
0.913700 0.180400 0.058800
0.913700 0.180400 0.058800
0.913700 0.180400 0.058800
0.913700 0.180400 0.058800
0.000000 0.100025 0.011800
0.000000 0.097191 0.010831
0.000000 0.097100 0.011738
0.000000 0.100634 0.011800
0.000000 0.103559 0.010925
0.008248 0.109684 0.007446
0.023323 0.113980 0.003656
0.070923 0.106288 0.000640
0.120819 0.098806 0.000000
0.176317 0.094944 0.000000
0.230894 0.094100 0.000000
0.283438 0.096709 0.000000
0.343616 0.102341 0.000000
0.412300 0.111906 0.000000
0.481856 0.122733 0.000000
0.552318 0.133694 0.005738
0.628438 0.146575 0.015200
0.702694 0.159421 0.020057
0.764219 0.170375 0.022719
0.808648 0.177252 0.027090
0.840563 0.178791 0.032375
0.867848 0.178730 0.039605
0.886283 0.177755 0.045342
0.900344 0.179529 0.049172
0.910044 0.182594 0.052950
0.913700 0.182685 0.055875
0.913700 0.180400 0.055875
0.913700 0.180400 0.055875
0.913700 0.180400 0.056241
0.913700 0.180400 0.058800
0.913700 0.180400 0.058800
0.913700 0.180400 0.058800
0.913700 0.180400 0.058800
0.000000 0.119988 0.011800
0.000000 0.116209 0.011800
0.000000 0.116088 0.011800
0.000000 0.119622 0.011800
0.000000 0.123400 0.011800
0.006581 0.130529 0.008425
0.020556 0.134951 0.004631
0.067270 0.133095 0.000853
0.119856 0.128621 0.000000
0.178438 0.120467 0.000000
0.239625 0.113862 0.000000
0.297324 0.112826 0.000000
0.360606 0.118132 0.000000
0.429203 0.128091 0.000000
0.498009 0.139466 0.001577
0.568477 0.150853 0.007583
0.644598 0.165636 0.015700
0.720192 0.183033 0.019600
0.783206 0.198654 0.021306
0.829121 0.209146 0.023957
0.862858 0.213553 0.026526
0.889213 0.214973 0.031411
0.906115 0.213355 0.035042
0.916684 0.210110 0.036913
0.920658 0.204748 0.040691
0.918136 0.195679 0.045471
0.913700 0.184955 0.052097
0.913700 0.180400 0.052535
0.913700 0.180400 0.055388
0.913700 0.180400 0.058800
0.913700 0.180400 0.058800
0.913700 0.180400 0.058800
0.913700 0.180400 0.058800
0.000000 0.141656 0.011800
0.000000 0.137878 0.009136
0.000000 0.137756 0.009050
0.000000 0.138861 0.009050
0.000000 0.142388 0.009050
0.004319 0.149541 0.007995
0.017875 0.156122 0.006810
0.063709 0.161546 0.003534
0.114883 0.161805 0.000670
0.176929 0.153068 0.000000
0.243778 0.140651 0.000000
0.307577 0.134747 0.000000
0.377163 0.135368 0.000000
0.447575 0.143259 0.001592
0.515918 0.154645 0.004875
0.584929 0.167487 0.010778
0.659794 0.184075 0.017041
0.735916 0.204319 0.019600
0.800686 0.224198 0.020133
0.850117 0.239913 0.020819
0.886774 0.250274 0.021288
0.913094 0.255372 0.022488
0.928806 0.255043 0.023288
0.935418 0.246748 0.023630
0.934631 0.233667 0.026169
0.926743 0.218184 0.034309
0.916381 0.199710 0.045569
0.916381 0.190775 0.046189
0.916381 0.188169 0.050025
0.916130 0.185511 0.053689
0.913700 0.182914 0.056119
0.913700 0.180400 0.056119
0.913700 0.180400 0.056119
0.000000 0.169606 0.011800
0.000000 0.165828 0.007925
0.000000 0.165706 0.007800
0.000000 0.165706 0.007800
0.000000 0.166879 0.007800
0.003291 0.173657 0.007800
0.012497 0.181272 0.007800
0.053322 0.190840 0.004753
0.100527 0.196995 0.000975
0.165221 0.193513 0.000000
0.236094 0.182655 0.000000
0.309467 0.169248 0.000000
0.389786 0.161125 0.000000
0.463983 0.164647 0.002316
0.533770 0.173548 0.007570
0.606023 0.187263 0.013227
0.681434 0.205622 0.017650
0.752645 0.225238 0.019600
0.812749 0.244938 0.019600
0.860868 0.263407 0.018560
0.897681 0.278185 0.017041
0.925622 0.286924 0.017041
0.940933 0.289537 0.017041
0.947039 0.282918 0.017041
0.947559 0.272099 0.018359
0.941863 0.258215 0.024623
0.934687 0.241634 0.032863
0.930528 0.230709 0.033077
0.930200 0.221584 0.034725
0.927298 0.210274 0.038743
0.921120 0.198998 0.044921
0.916179 0.187902 0.049941
0.913700 0.180400 0.054900
0.000000 0.202463 0.011800
0.000000 0.198684 0.007925
0.002285 0.198563 0.007800
0.000229 0.198563 0.007800
0.000000 0.198563 0.007800
0.003291 0.205144 0.007800
0.008288 0.212781 0.007800
0.040306 0.225307 0.004753
0.082484 0.236153 0.000975
0.148949 0.237659 0.000000
0.223482 0.234221 0.000000
0.306440 0.219988 0.000000
0.396722 0.205266 0.000000
0.477166 0.200787 0.003763
0.551125 0.202645 0.009410
0.627777 0.214338 0.015167
0.704888 0.232106 0.020088
0.771211 0.249875 0.020895
0.824902 0.268863 0.019600
0.870338 0.288855 0.018016
0.905936 0.307288 0.015700
0.933213 0.319716 0.015700
0.948532 0.326031 0.015700
0.955720 0.323492 0.015700
0.959909 0.317297 0.016066
0.958493 0.307374 0.017811
0.956345 0.294819 0.020125
0.951607 0.283088 0.020125
0.948745 0.268808 0.020308
0.942153 0.251009 0.022553
0.932381 0.231075 0.032377
0.924777 0.211241 0.040047
0.918638 0.195088 0.050025
0.000000 0.238975 0.014116
0.000000 0.235197 0.010298
0.003656 0.237246 0.010175
0.000366 0.235292 0.010175
0.000000 0.233049 0.010175
0.003291 0.239341 0.010175
0.007069 0.246930 0.010175
0.033569 0.258825 0.005273
0.071403 0.270594 0.000975
0.138002 0.278537 0.000000
0.213969 0.283715 0.000000
0.300249 0.281475 0.003039
0.395344 0.271169 0.006116
0.483694 0.255550 0.007478
0.565119 0.243053 0.008714
0.643986 0.246927 0.014830
0.720706 0.261794 0.021550
0.786726 0.278831 0.021672
0.838421 0.297819 0.019600
0.881731 0.318391 0.018016
0.916781 0.338231 0.015700
0.942348 0.352080 0.015700
0.956864 0.359784 0.015700
0.966057 0.359339 0.015700
0.971706 0.356819 0.015700
0.971706 0.350107 0.015700
0.970964 0.338729 0.015700
0.967138 0.326722 0.015700
0.962867 0.311604 0.015700
0.955344 0.296743 0.016367
0.948444 0.278515 0.023152
0.940866 0.260175 0.028518
0.935553 0.241188 0.035463
0.000000 0.276950 0.017894
0.000000 0.275297 0.014116
0.003656 0.278900 0.013994
0.000366 0.273621 0.013994
0.000000 0.271557 0.013994
0.003291 0.276074 0.013994
0.007069 0.283333 0.013994
0.032331 0.293981 0.007822
0.068600 0.305400 0.003169
0.133205 0.318377 0.002194
0.207080 0.330748 0.002194
0.292666 0.342942 0.008789
0.390134 0.342686 0.014709
0.485368 0.322335 0.013846
0.573547 0.298982 0.011010
0.655082 0.291746 0.015123
0.732109 0.298794 0.021550
0.798900 0.313638 0.021672
0.850744 0.332625 0.019600
0.893163 0.353197 0.018907
0.927369 0.373038 0.017894
0.950984 0.386118 0.017894
0.964961 0.393059 0.017894
0.975250 0.394606 0.017894
0.980888 0.393617 0.017345
0.980888 0.388571 0.015700
0.980148 0.378931 0.015700
0.976334 0.366891 0.015700
0.972336 0.352450 0.015700
0.967221 0.342832 0.015860
0.965322 0.329654 0.017513
0.959972 0.314444 0.019167
0.958319 0.297581 0.020863
0.002072 0.321194 0.023797
0.000065 0.319187 0.019967
0.003656 0.320836 0.019844
0.000366 0.317637 0.019844
0.001813 0.317294 0.019844
0.003614 0.320584 0.019844
0.007069 0.324203 0.019844
0.032331 0.334079 0.015332
0.068600 0.345460 0.011144
0.131947 0.361170 0.008680
0.204188 0.378387 0.008097
0.286499 0.398198 0.013086
0.383591 0.409707 0.018138
0.481491 0.403420 0.021006
0.574401 0.386545 0.022106
0.660551 0.367122 0.023054
0.740384 0.355156 0.023648
0.809202 0.359087 0.021672
0.862152 0.373837 0.019600
0.903699 0.393265 0.020442
0.936039 0.413118 0.022469
0.959306 0.426309 0.023797
0.973992 0.434703 0.023797
0.982255 0.438841 0.023797
0.986903 0.437854 0.022809
0.988497 0.432269 0.019844
0.987756 0.420694 0.019455
0.983934 0.409021 0.017772
0.980409 0.396281 0.017513
0.978769 0.386301 0.015700
0.978525 0.372800 0.015700
0.974869 0.357699 0.015700
0.974869 0.344497 0.015700
0.007850 0.372550 0.031400
0.004023 0.368772 0.027573
0.005728 0.368650 0.027450
0.004083 0.368650 0.027450
0.007356 0.370356 0.027450
0.007850 0.372245 0.027450
0.009434 0.372550 0.027450
0.034292 0.383292 0.025927
0.070588 0.395113 0.022575
0.135348 0.412138 0.018761
0.208103 0.432466 0.016309
0.286689 0.454655 0.016980
0.379400 0.476250 0.020088
0.476995 0.490169 0.028556
0.572781 0.489734 0.035544
0.661547 0.467547 0.035178
0.745125 0.440200 0.030400
0.817664 0.428486 0.025622
0.871584 0.431738 0.023550
0.913183 0.446025 0.025134
0.945594 0.464719 0.028931
0.968817 0.477869 0.031400
0.982853 0.486753 0.032009
0.988798 0.492698 0.033350
0.991188 0.492625 0.032363
0.994150 0.484777 0.029400
0.993409 0.470347 0.028669
0.989895 0.458956 0.025195
0.988250 0.447531 0.023056
0.988250 0.435600 0.019600
0.988128 0.418669 0.019478
0.986300 0.403581 0.017650
0.986300 0.392150 0.017650
0.015456 0.425734 0.040831
0.013398 0.420185 0.037008
0.013331 0.418248 0.035171
0.013331 0.419830 0.036713
0.015191 0.423419 0.036884
0.015456 0.422364 0.036884
0.016942 0.422078 0.035399
0.040346 0.437200 0.035056
0.076243 0.453027 0.032131
0.145068 0.469664 0.028315
0.220635 0.489562 0.024522
0.296097 0.511756 0.023303
0.383272 0.537022 0.024598
0.477688 0.560057 0.033584
0.572781 0.572902 0.042448
0.661547 0.566159 0.045817
0.747100 0.545470 0.044488
0.822448 0.524616 0.039731
0.878134 0.512152 0.035867
0.921581 0.514913 0.036416
0.955149 0.527793 0.039536
0.977055 0.537988 0.041460
0.988597 0.544449 0.043878
0.994028 0.548431 0.046559
0.994546 0.549259 0.045584
0.996100 0.539922 0.042659
0.995712 0.525522 0.041928
0.994028 0.514091 0.038143
0.994028 0.502672 0.034318
0.994028 0.490597 0.030859
0.994028 0.471853 0.030616
0.994028 0.456823 0.026902
0.994028 0.447163 0.025131
0.024763 0.475506 0.050513
0.024763 0.469561 0.048333
0.024763 0.465660 0.044606
0.024763 0.468998 0.047897
0.024763 0.471288 0.048263
0.024763 0.469712 0.048263
0.027931 0.469369 0.045094
0.050113 0.486395 0.043029
0.085552 0.507175 0.039698
0.157359 0.523797 0.035909
0.236722 0.541688 0.032131
0.309540 0.562115 0.030913
0.392309 0.586766 0.030913
0.481815 0.612055 0.035833
0.572587 0.633063 0.044604
0.659817 0.645980 0.053856
0.745350 0.643634 0.059188
0.821689 0.625198 0.057186
0.879406 0.603138 0.052941
0.924712 0.592781 0.052589
0.959313 0.594399 0.053285
0.980522 0.598776 0.053559
0.990669 0.603398 0.057351
0.996100 0.602842 0.060063
0.996100 0.602455 0.059514
0.996100 0.593514 0.057486
0.996420 0.580732 0.055388
0.997806 0.570694 0.051867
0.997806 0.559094 0.049481
0.997806 0.545488 0.046069
0.997806 0.526850 0.045825
0.997806 0.513432 0.042047
0.997806 0.504169 0.038269
0.034569 0.521094 0.058069
0.034569 0.517258 0.058069
0.034569 0.513478 0.054413
0.034569 0.516769 0.057703
0.034569 0.517134 0.058069
0.034569 0.517134 0.058069
0.037738 0.517134 0.054900
0.061145 0.531209 0.051122
0.098127 0.551631 0.047299
0.169184 0.568409 0.043506
0.248527 0.587389 0.039700
0.321140 0.607912 0.038469
0.401338 0.632344 0.038469
0.487184 0.657998 0.039844
0.573031 0.681728 0.046531
0.656752 0.703285 0.057216
0.740723 0.715266 0.066284
0.815535 0.711499 0.069498
0.873112 0.696007 0.069078
0.920217 0.677474 0.069078
0.956723 0.664499 0.067616
0.979455 0.661673 0.065974
0.990669 0.663481 0.068236
0.996100 0.659881 0.069869
0.996100 0.656049 0.069869
0.996100 0.649153 0.069349
0.996831 0.639698 0.067060
1.000000 0.631478 0.065178
1.000000 0.619609 0.064691
1.000000 0.604187 0.061278
1.000000 0.587060 0.061034
1.000000 0.574096 0.057255
1.000000 0.561188 0.053438
0.043625 0.565200 0.064200
0.043625 0.561386 0.064200
0.044996 0.558977 0.061915
0.045088 0.561034 0.063971
0.045088 0.561263 0.064200
0.045088 0.561263 0.064200
0.047068 0.561263 0.062220
0.069742 0.572386 0.059858
0.106094 0.588006 0.056372
0.176414 0.604511 0.052584
0.255937 0.625494 0.047758
0.330253 0.648259 0.046063
0.409800 0.673525 0.046063
0.492513 0.697791 0.046063
0.574684 0.720556 0.048840
0.655522 0.744152 0.057216
0.736519 0.765944 0.069331
0.808328 0.779890 0.078494
0.865016 0.779380 0.082002
0.913219 0.761485 0.082825
0.951475 0.739102 0.081911
0.976937 0.728416 0.079885
0.990669 0.723348 0.078925
0.996100 0.716394 0.078925
0.996100 0.709813 0.078925
0.996100 0.705488 0.078925
0.996557 0.699018 0.078925
0.998538 0.690806 0.078925
0.998538 0.679258 0.078438
0.998538 0.666646 0.075025
0.998538 0.651588 0.074779
0.998538 0.637784 0.070964
0.998538 0.622575 0.067125
0.056397 0.602959 0.069381
0.056397 0.599118 0.069381
0.058796 0.598994 0.069381
0.058956 0.598994 0.069381
0.058956 0.598994 0.069381
0.058956 0.598994 0.069381
0.058956 0.598994 0.069381
0.073099 0.606091 0.069381
0.101523 0.615923 0.066407
0.172670 0.633589 0.062613
0.258493 0.655634 0.056129
0.335191 0.678423 0.053681
0.415575 0.703679 0.053681
0.496510 0.727931 0.053681
0.575750 0.750716 0.053681
0.655522 0.775604 0.059203
0.735300 0.802195 0.071238
0.805891 0.823900 0.082103
0.861513 0.833006 0.089179
0.908231 0.826810 0.093440
0.946838 0.810303 0.094256
0.974458 0.792614 0.092904
0.990669 0.777706 0.089903
0.996100 0.765547 0.088981
0.996100 0.758941 0.088981
0.996100 0.755163 0.088981
0.996100 0.750634 0.088981
0.996100 0.742796 0.088981
0.996100 0.734156 0.088661
0.996100 0.725985 0.086422
0.996100 0.712324 0.086174
0.996100 0.702164 0.082334
0.996100 0.688253 0.078556
0.069138 0.628406 0.075719
0.069138 0.625809 0.075719
0.069138 0.625725 0.075719
0.069138 0.625725 0.075719
0.069138 0.625725 0.075719
0.069138 0.625725 0.075719
0.069138 0.625725 0.075719
0.073327 0.627820 0.075719
0.094188 0.633394 0.072794
0.165581 0.652845 0.069016
0.254806 0.675963 0.062488
0.334342 0.698773 0.060019
0.417175 0.724020 0.060019
0.496826 0.748259 0.060019
0.573828 0.771081 0.060019
0.653070 0.795963 0.063568
0.733456 0.822556 0.072550
0.804655 0.845494 0.082674
0.860294 0.859852 0.092651
0.904906 0.866423 0.101357
0.941419 0.862177 0.104438
0.971978 0.842953 0.102654
0.990669 0.820606 0.098021
0.996100 0.804909 0.095319
0.996100 0.798256 0.095319
0.996100 0.794478 0.095319
0.996100 0.789950 0.095319
0.996100 0.782922 0.095319
0.996100 0.778809 0.095319
0.996100 0.772061 0.095319
0.996100 0.762011 0.095075
0.996100 0.754377 0.091335
0.996100 0.745338 0.088738
0.074500 0.642519 0.079525
0.074500 0.642519 0.079525
0.074500 0.642519 0.079525
0.074500 0.642519 0.079525
0.074500 0.642519 0.079525
0.074500 0.642519 0.079525
0.074500 0.642519 0.079525
0.074500 0.642519 0.079525
0.092125 0.645444 0.076579
0.161254 0.666184 0.072005
0.247265 0.690075 0.065169
0.329886 0.712841 0.062700
0.414953 0.737403 0.062700
0.493013 0.761264 0.062700
0.567394 0.784081 0.062700
0.645466 0.809548 0.064825
0.727192 0.836655 0.072550
0.800258 0.859578 0.083931
0.856996 0.875122 0.095363
0.902225 0.886513 0.105169
0.938738 0.889916 0.109800
0.970219 0.874871 0.107873
0.990669 0.852170 0.102953
0.996100 0.837681 0.099913
0.996100 0.830259 0.099125
0.996100 0.826235 0.099125
0.996100 0.821039 0.099125
0.996100 0.815096 0.099125
0.996100 0.812244 0.099125
0.996100 0.808306 0.099125
0.996100 0.802731 0.098950
0.996100 0.795203 0.096322
0.996100 0.791425 0.096322
0.075475 0.652950 0.083375
0.075475 0.652950 0.083375
0.075475 0.652950 0.083375
0.075475 0.652950 0.083375
0.075475 0.652950 0.083375
0.075475 0.652950 0.083375
0.075475 0.652950 0.083375
0.075475 0.652950 0.083375
0.090906 0.655144 0.080394
0.151735 0.674221 0.073776
0.230845 0.696886 0.066831
0.315405 0.719363 0.064035
0.404269 0.742747 0.063700
0.484013 0.766516 0.063700
0.558817 0.789719 0.063700
0.636885 0.816681 0.065294
0.718613 0.845100 0.072063
0.793016 0.867988 0.083413
0.852895 0.884416 0.095363
0.900250 0.896944 0.105169
0.937138 0.902459 0.110166
0.969244 0.892567 0.110775
0.989694 0.874738 0.109556
0.995125 0.863334 0.105778
0.995369 0.853944 0.102975
0.996100 0.849277 0.102975
0.996283 0.842577 0.102975
0.997075 0.840200 0.102975
0.997075 0.839834 0.102975
0.997075 0.837275 0.102975
0.997014 0.836783 0.102975
0.996100 0.829277 0.102975
0.996100 0.825475 0.102975
0.078400 0.658800 0.086300
0.078400 0.658800 0.086300
0.078400 0.658800 0.086300
0.078400 0.658800 0.086300
0.078400 0.658800 0.086300
0.078400 0.658800 0.086300
0.078400 0.658800 0.086300
0.078400 0.658800 0.086300
0.085970 0.658800 0.083375
0.127396 0.670419 0.077964
0.190357 0.687854 0.073532
0.279742 0.709760 0.069187
0.382160 0.736371 0.067020
0.469407 0.763609 0.066700
0.546192 0.788483 0.066700
0.624187 0.815363 0.066700
0.705513 0.843809 0.070600
0.780278 0.867534 0.081459
0.841891 0.886975 0.094500
0.891246 0.902794 0.104303
0.930090 0.908977 0.110729
0.964891 0.902803 0.113700
0.986182 0.889947 0.112748
0.992200 0.878298 0.109316
0.993175 0.868052 0.105900
0.996100 0.863095 0.105900
0.996831 0.858334 0.105900
1.000000 0.858334 0.105900
1.000000 0.858334 0.105900
1.000000 0.858334 0.105900
0.999756 0.857900 0.105900
0.996100 0.851263 0.105900
0.996100 0.847388 0.105900
0.078400 0.658800 0.086300
0.078400 0.658800 0.086300
0.078400 0.658800 0.086300
0.078400 0.658800 0.086300
0.078400 0.658800 0.086300
0.078400 0.658800 0.086300
0.078400 0.658800 0.086300
0.078400 0.658800 0.086300
0.080838 0.658800 0.083923
0.096964 0.661078 0.083131
0.135995 0.671757 0.080394
0.230759 0.694721 0.074019
0.350957 0.726481 0.068437
0.447372 0.755999 0.066700
0.527859 0.782596 0.066700
0.605887 0.809185 0.066700
0.686150 0.837738 0.070234
0.763413 0.864453 0.079300
0.827431 0.885832 0.090688
0.878346 0.902360 0.100478
0.920588 0.911263 0.108094
0.958325 0.911270 0.113471
0.982835 0.902944 0.114431
