luts/A_v_log/F-8700-VLOG.cube
# Copyright: (C) Copyright 2010-2019 by IWLTBAP SAS
# Cannot be resold, shared or otherwise redistributed
# Website: https://luts.iwltbap.com
TITLE "IWLTBAP 8700 (V-Log L)"
LUT_3D_SIZE 5
0.062700 0.078400 0.090200
0.169625 0.107850 0.090200
0.554900 0.158800 0.103900
0.816675 0.220575 0.133300
0.819600 0.223500 0.133300
0.073525 0.164675 0.102000
0.180894 0.161750 0.088250
0.583313 0.199038 0.101463
0.818869 0.223519 0.130375
0.819600 0.223500 0.133300
0.098050 0.372550 0.115700
0.132375 0.393600 0.104925
0.682350 0.428450 0.112725
0.901950 0.472538 0.112725
0.884300 0.392150 0.101950
0.146075 0.604875 0.153900
0.156388 0.607069 0.150956
0.661313 0.766650 0.144613
0.921825 0.771306 0.165675
0.933300 0.746100 0.165675
0.149000 0.607800 0.156900
0.149000 0.607800 0.156900
0.517650 0.717650 0.141200
0.905900 0.801950 0.171525
0.929400 0.788200 0.168600
0.058800 0.104925 0.160775
0.121575 0.115650 0.147050
0.537263 0.166650 0.135325
0.816675 0.220575 0.133300
0.819600 0.223500 0.133300
0.067431 0.153706 0.172556
0.113456 0.165242 0.172048
0.566772 0.189725 0.118500
0.816675 0.222769 0.130375
0.819600 0.223500 0.133300
0.090200 0.403925 0.179425
0.111747 0.394256 0.146556
0.669138 0.410769 0.109800
0.894600 0.456250 0.109800
0.876500 0.382350 0.102000
0.146075 0.601950 0.156881
0.150477 0.601219 0.153164
0.635891 0.756972 0.141078
0.920320 0.770575 0.165675
0.929644 0.743175 0.165675
0.149000 0.607800 0.156900
0.149000 0.607800 0.156900
0.500488 0.710288 0.139250
0.905900 0.801950 0.171525
0.929400 0.788200 0.168600
0.080400 0.203950 0.386300
0.090200 0.200000 0.367675
0.320575 0.226475 0.298050
0.786300 0.341688 0.301463
0.819650 0.315700 0.239200
0.088738 0.223538 0.401975
0.093125 0.223647 0.398919
0.294613 0.224025 0.299019
0.784809 0.332741 0.292647
0.821600 0.303900 0.227450
0.111750 0.369600 0.482325
0.107850 0.362263 0.471075
0.409788 0.506850 0.510788
0.869850 0.569612 0.414675
0.877475 0.419600 0.217650
0.168600 0.742663 0.705400
0.167138 0.737141 0.695713
0.463238 0.782338 0.493869
0.915919 0.810541 0.237722
0.930375 0.758825 0.195075
0.154900 0.707850 0.537250
0.147050 0.686788 0.489200
0.345100 0.735300 0.348025
0.896563 0.825963 0.198038
0.929400 0.790200 0.172550
0.109800 0.322575 0.636275
0.109800 0.322575 0.633350
0.151000 0.334325 0.590213
0.703200 0.437250 0.514700
0.728425 0.434325 0.499975
0.109800 0.322575 0.636275
0.109617 0.322575 0.633350
0.149403 0.332338 0.592163
0.700950 0.431156 0.507692
0.731350 0.434325 0.499975
0.131350 0.421600 0.700975
0.127450 0.413213 0.693003
0.182344 0.470088 0.753925
0.770225 0.569125 0.667419
0.762738 0.499500 0.566175
0.165675 0.589444 0.774494
0.165127 0.589444 0.774494
0.208338 0.637281 0.807850
0.864188 0.861019 0.816269
0.898019 0.847025 0.791906
0.172500 0.607800 0.781375
0.168600 0.603900 0.773500
0.189225 0.634838 0.787275
0.841419 0.886544 0.801488
0.916625 0.875475 0.710775
0.109800 0.325500 0.639200
0.109800 0.325500 0.639200
0.137250 0.331350 0.617650
0.668600 0.441175 0.545100
0.721600 0.454900 0.545100
0.109800 0.325500 0.639200
0.109800 0.325500 0.639200
0.137250 0.331350 0.613250
0.662750 0.441175 0.543881
0.721600 0.454900 0.545100
0.123550 0.390200 0.684300
0.119600 0.382850 0.677963
0.147050 0.406875 0.706850
0.685775 0.493613 0.615188
0.725500 0.462750 0.554900
0.165675 0.576425 0.777475
0.161775 0.572525 0.773500
0.174988 0.591188 0.791175
0.826719 0.840444 0.847081
0.880375 0.812725 0.829450
0.172500 0.607800 0.788200
0.172500 0.607800 0.788200
0.174500 0.609800 0.790200
0.758850 0.857850 0.865700
0.905900 0.898000 0.851000
