luts/A_v_log/F-8700-VLOG.cube
# Copyright: (C) Copyright 2010-2019 by IWLTBAP SAS
# Cannot be resold, shared or otherwise redistributed
# Website: https://luts.iwltbap.com
TITLE "IWLTBAP 8700 (V-Log L)"
LUT_3D_SIZE 9
0.062700 0.078400 0.090200
0.084825 0.089713 0.097513
0.169625 0.107850 0.090200
0.328413 0.124038 0.083863
0.554900 0.158800 0.103900
0.750500 0.195125 0.126963
0.816675 0.220575 0.133300
0.819600 0.223500 0.133300
0.819600 0.223500 0.133300
0.066200 0.104425 0.097025
0.078350 0.105350 0.097513
0.176084 0.116138 0.094100
0.325488 0.125317 0.083863
0.558356 0.157094 0.103900
0.756570 0.192938 0.126963
0.816675 0.220575 0.133300
0.819600 0.223500 0.133300
0.819600 0.223500 0.133300
0.073525 0.164675 0.102000
0.077913 0.165550 0.101000
0.180894 0.161750 0.088250
0.349353 0.161278 0.085203
0.583313 0.199038 0.101463
0.766428 0.222950 0.116147
0.818869 0.223519 0.130375
0.819600 0.223500 0.130741
0.819600 0.223500 0.133300
0.078400 0.240688 0.102000
0.078400 0.240688 0.102000
0.150222 0.268041 0.088616
0.393186 0.240139 0.085752
0.650750 0.263200 0.103950
0.819127 0.321098 0.102000
0.865809 0.331619 0.102366
0.854558 0.292041 0.105108
0.824538 0.233313 0.124525
0.098050 0.372550 0.115700
0.096050 0.372550 0.110288
0.132375 0.393600 0.104925
0.385550 0.458081 0.106388
0.682350 0.428450 0.112725
0.851963 0.450256 0.111263
0.901950 0.472538 0.112725
0.893613 0.435781 0.105900
0.884300 0.392150 0.101950
0.124525 0.534838 0.138763
0.124525 0.532650 0.134800
0.156128 0.551825 0.129409
0.406936 0.621648 0.126963
0.674500 0.701469 0.139981
0.857352 0.677377 0.148963
0.920091 0.653806 0.148025
0.923063 0.629417 0.148025
0.919100 0.578950 0.137725
0.146075 0.604875 0.153900
0.146075 0.604875 0.153900
0.156388 0.607069 0.150956
0.401244 0.680047 0.136175
0.661313 0.766650 0.144613
0.843653 0.816188 0.172875
0.921825 0.771306 0.165675
0.929400 0.760303 0.166041
0.933300 0.746100 0.165675
0.149000 0.607800 0.156900
0.149000 0.607800 0.156900
0.149000 0.607800 0.154275
0.308025 0.651938 0.142175
0.596581 0.746563 0.142906
0.820245 0.822258 0.171563
0.916163 0.798538 0.168966
0.929400 0.788200 0.168600
0.929400 0.784788 0.168600
0.149000 0.607800 0.156900
0.149000 0.607800 0.156900
0.149000 0.607800 0.156900
0.176000 0.615175 0.150463
0.517650 0.717650 0.141200
0.791625 0.813688 0.167625
0.905900 0.801950 0.171525
0.929400 0.788200 0.168600
0.929400 0.788200 0.168600
0.062700 0.085313 0.108825
0.071027 0.093125 0.108825
0.161263 0.108825 0.106266
0.311567 0.126170 0.091175
0.547050 0.154900 0.105650
0.748617 0.192938 0.126963
0.816675 0.220575 0.133300
0.819600 0.223500 0.133300
0.819600 0.223500 0.133300
0.063138 0.101927 0.112725
0.070484 0.100569 0.111758
0.157908 0.115650 0.101988
0.316895 0.124038 0.086300
0.545161 0.151000 0.102444
0.747817 0.192625 0.126963
0.816675 0.220575 0.133300
0.819600 0.223500 0.133300
0.819600 0.223500 0.133300
0.070966 0.167234 0.113700
0.074500 0.161750 0.106753
0.173281 0.158825 0.092643
0.345941 0.161278 0.086163
0.575988 0.191644 0.100370
0.761138 0.217630 0.119598
0.816675 0.222863 0.130375
0.819600 0.223500 0.130741
0.819600 0.223500 0.133300
0.073220 0.240200 0.101500
0.074805 0.240688 0.102000
0.133959 0.262266 0.090078
0.384253 0.235514 0.084952
0.628986 0.257502 0.105016
0.817733 0.316979 0.102000
0.860634 0.326111 0.101867
0.854558 0.289420 0.105108
0.824538 0.233313 0.124525
0.094100 0.372550 0.113700
0.092180 0.366681 0.110074
0.126947 0.387750 0.103613
0.382363 0.448027 0.102959
0.681725 0.415213 0.109800
0.850229 0.443873 0.111750
0.898538 0.465492 0.113700
0.894687 0.429943 0.107393
0.882594 0.386500 0.102244
0.124525 0.531338 0.138763
0.120563 0.526998 0.134800
0.145267 0.541278 0.131358
0.393386 0.616372 0.120586
0.667188 0.697781 0.137981
0.851958 0.671344 0.145588
0.920401 0.647075 0.145085
0.926048 0.625683 0.143858
0.920563 0.583155 0.137542
0.146075 0.604875 0.153900
0.146075 0.602636 0.153900
0.154194 0.604144 0.150956
0.389627 0.676661 0.137666
0.651463 0.758800 0.139555
0.843160 0.815063 0.172570
0.922465 0.770575 0.165675
0.929400 0.756940 0.165721
0.930375 0.745734 0.166163
0.149000 0.607800 0.156900
0.149000 0.607800 0.156900
0.149000 0.607800 0.154275
0.312473 0.651633 0.140263
0.590651 0.743083 0.142906
0.820222 0.822070 0.169110
0.916163 0.794125 0.168600
0.929400 0.788200 0.168600
0.929400 0.784788 0.168600
0.149000 0.607800 0.156900
0.149000 0.607800 0.156900
0.149000 0.607800 0.156900
0.173500 0.615175 0.150463
0.518138 0.717894 0.139494
0.788213 0.812225 0.163725
0.905900 0.801950 0.171525
0.929400 0.788200 0.168600
0.929400 0.788200 0.168600
0.058800 0.104925 0.160775
0.067553 0.107484 0.156875
0.121575 0.115650 0.147050
0.272188 0.133713 0.147903
0.537263 0.166650 0.135325
0.749875 0.198050 0.132325
0.816675 0.220575 0.133300
0.819600 0.223500 0.133300
0.819600 0.223500 0.133300
0.062700 0.111263 0.160775
0.063575 0.111750 0.160288
0.112481 0.119484 0.150847
0.263716 0.133347 0.138250
0.519064 0.162798 0.131808
0.746720 0.194500 0.128791
0.816675 0.220575 0.133300
0.819600 0.223500 0.133300
0.819600 0.223500 0.133300
0.067431 0.153706 0.172556
0.069869 0.151456 0.171673
0.113456 0.165242 0.172048
0.298913 0.179735 0.153660
0.566772 0.189725 0.118500
0.754916 0.203870 0.123051
0.816675 0.222769 0.130375
0.819600 0.223500 0.133300
0.819600 0.223500 0.133300
0.079909 0.281106 0.217441
0.075597 0.270525 0.202657
0.105388 0.266081 0.165291
0.336592 0.250791 0.119673
0.627036 0.261006 0.107972
0.810969 0.314227 0.103097
0.855845 0.321579 0.099500
0.847803 0.282500 0.106875
0.824538 0.233313 0.124525
0.090200 0.403925 0.179425
0.088006 0.394125 0.166663
0.111747 0.394256 0.146556
0.333811 0.440370 0.111445
0.669138 0.410769 0.109800
0.841736 0.437238 0.111019
0.894600 0.456250 0.109800
0.893369 0.425250 0.105717
0.876500 0.382350 0.102000
0.120563 0.527303 0.162238
0.118125 0.521103 0.154803
0.133538 0.528686 0.140480
0.378166 0.610763 0.125988
0.661014 0.690225 0.140888
0.850899 0.662843 0.145106
0.917133 0.641022 0.143912
0.920091 0.616678 0.143820
0.917638 0.582850 0.134800
0.146075 0.601950 0.156881
0.145984 0.599025 0.157155
0.150477 0.601219 0.153164
0.373771 0.669130 0.138275
0.635891 0.756972 0.141078
0.835305 0.809775 0.168966
0.920320 0.770575 0.165675
0.930040 0.754418 0.165675
0.929644 0.743175 0.165675
0.149000 0.605241 0.156900
0.148680 0.605241 0.156900
0.149000 0.607800 0.156900
0.283987 0.648013 0.138763
0.584150 0.740213 0.142906
0.817320 0.820529 0.168158
0.916163 0.798538 0.168966
0.929400 0.787773 0.168600
0.929400 0.784788 0.168600
0.149000 0.607800 0.156900
0.149000 0.607800 0.156900
0.149000 0.607800 0.156900
0.171063 0.612738 0.150463
0.500488 0.710288 0.139250
0.783216 0.809788 0.163725
0.905900 0.801950 0.171525
0.929400 0.788200 0.168600
0.929400 0.788200 0.168600
0.062700 0.139213 0.239225
0.062700 0.139213 0.237092
0.086422 0.143628 0.229900
0.176341 0.157898 0.213797
0.455394 0.191175 0.198500
0.746964 0.251952 0.197063
0.835300 0.266175 0.168488
0.831883 0.244808 0.144120
0.819600 0.226000 0.133300
0.065200 0.136775 0.236788
0.068645 0.136775 0.233320
0.084325 0.143628 0.228556
0.177469 0.152452 0.208327
0.448279 0.186436 0.195331
0.744844 0.248336 0.191105
0.835909 0.262641 0.160763
0.828563 0.244419 0.142972
0.819600 0.226000 0.133300
0.068528 0.166153 0.254422
0.066700 0.162253 0.248525
0.087543 0.173248 0.259419
0.179283 0.187135 0.233141
0.471209 0.210603 0.209191
0.743802 0.247063 0.189589
0.834447 0.260334 0.154022
0.825505 0.238543 0.138466
0.819600 0.226000 0.133300
0.082400 0.238539 0.283628
0.077247 0.232277 0.276658
0.092150 0.247745 0.284110
0.198196 0.272148 0.280443
0.557947 0.312062 0.237428
0.805813 0.351303 0.181484
0.865322 0.333579 0.140455
0.845105 0.269813 0.117623
0.824538 0.231813 0.126963
0.107606 0.464731 0.411281
0.108002 0.464884 0.403435
0.111567 0.457308 0.375858
0.190198 0.460184 0.284795
0.598041 0.468856 0.191172
0.829395 0.508617 0.179473
0.888555 0.498884 0.150441
0.886690 0.425719 0.114824
0.880400 0.375719 0.103219
0.127938 0.601036 0.399511
0.125569 0.601219 0.394742
0.126728 0.588796 0.365626
0.230579 0.624330 0.283241
0.596799 0.697324 0.224909
0.841248 0.693475 0.177559
0.909800 0.655312 0.163668
0.918910 0.609850 0.147408
0.915725 0.566236 0.133825
0.142175 0.634700 0.345941
0.138641 0.629275 0.337048
0.141200 0.629138 0.326493
0.273792 0.688528 0.258138
0.594734 0.759288 0.226402
0.830522 0.815156 0.178352
0.918844 0.769478 0.166406
0.929400 0.753413 0.167503
0.930009 0.739200 0.165675
0.141200 0.606758 0.258708
0.145100 0.604837 0.248797
0.145831 0.599513 0.229471
0.199633 0.638913 0.204403
0.553036 0.734319 0.160366
0.802582 0.814413 0.166581
0.908459 0.801950 0.171525
0.929400 0.787773 0.168600
0.929400 0.784788 0.168600
0.142663 0.606338 0.174025
0.142663 0.603900 0.171588
0.142663 0.603900 0.171588
0.163163 0.609752 0.161798
0.465438 0.703950 0.144125
0.772550 0.807350 0.161288
0.898025 0.807359 0.171525
0.929400 0.788200 0.168600
0.929400 0.788200 0.168600
0.080400 0.203950 0.386300
0.080400 0.202000 0.384594
0.090200 0.200000 0.367675
0.114463 0.205900 0.348044
0.320575 0.226475 0.298050
0.670581 0.288969 0.288950
0.786300 0.341688 0.301463
0.804438 0.327206 0.277669
0.819650 0.315700 0.239200
0.078450 0.198000 0.378894
0.078480 0.198031 0.379138
0.087214 0.201308 0.369625
0.111811 0.205900 0.343930
0.290691 0.225744 0.304800
0.668613 0.286531 0.280827
0.786300 0.336763 0.296466
0.802050 0.328738 0.276749
0.821356 0.309800 0.231350
0.088738 0.223538 0.401975
0.083363 0.218650 0.394588
0.093125 0.223647 0.398919
0.111994 0.219869 0.369131
0.294613 0.224025 0.299019
0.662031 0.284433 0.283569
0.784809 0.332741 0.292647
0.807363 0.325006 0.269680
0.821600 0.303900 0.227450
0.092150 0.260275 0.421338
0.088981 0.256680 0.420588
0.094892 0.258081 0.420242
0.129436 0.289055 0.454760
0.346941 0.333463 0.398050
0.717656 0.401141 0.366968
0.820100 0.399267 0.338427
0.819765 0.336647 0.263410
0.829188 0.302438 0.215913
0.111750 0.369600 0.482325
0.109800 0.368747 0.478425
0.107850 0.362263 0.471075
0.141172 0.410797 0.506734
0.409788 0.506850 0.510788
0.780403 0.577200 0.474750
0.869850 0.569612 0.414675
0.877944 0.508447 0.325116
0.877475 0.419600 0.217650
0.155863 0.639456 0.670575
0.151963 0.634654 0.661110
0.152877 0.635678 0.656673
0.179155 0.657149 0.645955
0.456984 0.706763 0.528197
0.816730 0.742840 0.366912
0.902075 0.729172 0.338134
0.910288 0.688459 0.270277
0.906875 0.625494 0.213731
0.168600 0.742663 0.705400
0.168236 0.742236 0.709544
0.167138 0.737141 0.695713
0.186033 0.740053 0.646914
0.463238 0.782338 0.493869
0.807288 0.839327 0.371164
0.915919 0.810541 0.237722
0.932338 0.786291 0.214708
0.930375 0.758825 0.195075
0.168113 0.736513 0.641913
0.165949 0.732186 0.628206
0.161403 0.723727 0.609372
0.165916 0.721588 0.575335
0.419853 0.766916 0.419491
0.774458 0.835069 0.334260
0.908211 0.830713 0.224934
0.934806 0.801432 0.196507
0.931106 0.792150 0.176206
0.154900 0.707850 0.537250
0.149000 0.692394 0.498538
0.147050 0.686788 0.489200
0.150219 0.674013 0.440438
0.345100 0.735300 0.348025
0.737006 0.816419 0.286538
0.896563 0.825963 0.198038
0.931106 0.793856 0.175963
0.929400 0.790200 0.172550
0.099500 0.284288 0.562238
0.099500 0.283983 0.565650
0.099500 0.280388 0.552975
0.120100 0.286688 0.532300
0.171556 0.297288 0.488731
0.563386 0.345098 0.394003
0.738734 0.379888 0.399366
0.755583 0.368150 0.375013
0.768113 0.362750 0.358338
0.099500 0.280388 0.560105
0.099500 0.280388 0.559800
0.099871 0.280388 0.553112
0.120214 0.283373 0.527929
0.168875 0.294119 0.490713
0.559700 0.338961 0.390274
0.736297 0.373025 0.390880
0.760420 0.368394 0.377450
0.764700 0.354888 0.352938
0.103463 0.290916 0.570600
0.099500 0.285629 0.560242
0.097848 0.283038 0.552113
0.116549 0.286145 0.531862
0.166377 0.290188 0.488713
0.545353 0.336144 0.390698
0.741659 0.369125 0.382355
0.756863 0.362750 0.367631
0.764213 0.358788 0.354438
0.109800 0.331800 0.590698
0.109495 0.330863 0.589213
0.105900 0.327877 0.586775
0.130390 0.354532 0.617937
0.187299 0.364926 0.580088
0.586043 0.408988 0.467354
0.753193 0.407049 0.420845
0.766833 0.373396 0.375249
0.764213 0.354888 0.342638
0.121081 0.392656 0.631388
0.119359 0.391406 0.629406
0.120094 0.388706 0.626458
0.139456 0.413286 0.649757
0.234425 0.478191 0.695100
0.669108 0.578468 0.643077
0.818581 0.594100 0.615077
0.822050 0.542775 0.550810
0.814200 0.481363 0.461769
0.148025 0.519503 0.691028
0.145953 0.520417 0.688880
0.147096 0.514697 0.684142
0.157486 0.535677 0.702968
0.261475 0.616046 0.748927
0.741082 0.759936 0.727102
0.871032 0.769138 0.703147
0.884525 0.740923 0.658149
0.882925 0.692650 0.595455
0.167503 0.632963 0.749975
0.164213 0.628000 0.750237
0.164578 0.629918 0.748147
0.174501 0.644058 0.754215
0.242583 0.714700 0.789381
0.721204 0.843391 0.718269
0.900132 0.849519 0.596554
0.924333 0.829647 0.529045
0.927450 0.812250 0.430900
0.174688 0.655717 0.756588
0.172500 0.659617 0.757388
0.172500 0.661592 0.757022
0.175000 0.671458 0.759338
0.227456 0.726609 0.779979
0.673584 0.850002 0.685902
0.888116 0.873980 0.545236
0.932606 0.847958 0.390654
0.935488 0.843625 0.301775
0.172500 0.679400 0.758363
0.174505 0.688080 0.761775
0.175000 0.691200 0.763725
0.176500 0.700523 0.760739
0.206625 0.737275 0.756863
0.612680 0.839397 0.637750
0.877816 0.866928 0.481238
0.933800 0.843625 0.304700
0.937300 0.839725 0.269125
0.109800 0.322575 0.636275
0.109800 0.322575 0.636275
0.109800 0.322575 0.633350
0.126963 0.328303 0.619122
0.151000 0.334325 0.590213
0.432359 0.403328 0.562250
0.703200 0.437250 0.514700
0.728425 0.440684 0.517138
0.728425 0.434325 0.499975
0.109800 0.322575 0.636275
0.109800 0.322575 0.636275
0.109800 0.322575 0.633350
0.122192 0.325805 0.616989
0.151183 0.332586 0.594361
0.425670 0.401500 0.564078
0.700950 0.436519 0.517625
0.728425 0.437679 0.513786
0.728425 0.431400 0.496197
0.109800 0.322575 0.636275
0.109160 0.322575 0.633350
0.109617 0.322575 0.633350
0.121935 0.324860 0.619609
0.149403 0.332338 0.592163
0.407069 0.402963 0.571106
0.700950 0.431156 0.507692
0.728425 0.439826 0.513634
0.731350 0.434325 0.499975
0.116138 0.362713 0.660400
0.116138 0.359300 0.659853
0.115315 0.358081 0.658313
0.128163 0.371187 0.672673
0.156058 0.373355 0.655077
0.409155 0.428736 0.602490
0.699731 0.442919 0.523294
0.728425 0.437113 0.506354
0.725622 0.424988 0.486766
0.131350 0.421600 0.700975
0.127998 0.414194 0.699878
0.127450 0.413213 0.693003
0.139597 0.429400 0.711275
0.182344 0.470088 0.753925
0.532159 0.573794 0.738908
0.770225 0.569125 0.667419
0.777945 0.543497 0.626161
0.762738 0.499500 0.566175
0.150463 0.519128 0.745100
0.146563 0.513722 0.744013
0.146563 0.509421 0.742815
0.153084 0.515349 0.748086
0.200906 0.568377 0.792338
0.638613 0.729257 0.819122
0.840236 0.752338 0.795085
0.855596 0.733799 0.776508
0.845575 0.690684 0.744603
0.165675 0.589444 0.774494
0.164944 0.589444 0.770556
0.165127 0.589444 0.774494
0.166772 0.589444 0.770556
0.208338 0.637281 0.807850
0.596819 0.792014 0.842996
0.864188 0.861019 0.816269
0.894100 0.857025 0.810066
0.898019 0.847025 0.791906
0.168600 0.603900 0.781375
0.168600 0.603900 0.781314
0.168600 0.603900 0.778328
0.168905 0.604205 0.776978
0.200503 0.641197 0.800494
0.462201 0.774586 0.848616
0.858091 0.886056 0.809548
0.905413 0.879835 0.775291
0.908825 0.875966 0.749163
0.172500 0.607800 0.781375
0.169453 0.607313 0.773500
0.168600 0.603900 0.773500
0.169575 0.607800 0.773500
0.189225 0.634838 0.787275
0.344372 0.738750 0.835066
0.841419 0.886544 0.801488
0.912725 0.882878 0.751113
0.916625 0.875475 0.710775
0.109800 0.325500 0.639200
0.109800 0.325500 0.639200
0.109800 0.325500 0.639200
0.118638 0.327633 0.629450
0.145100 0.337006 0.606344
0.339200 0.402963 0.591005
0.687900 0.447700 0.542175
0.721600 0.454900 0.545100
0.721600 0.454900 0.545100
0.109800 0.325500 0.639200
0.109800 0.325500 0.639200
0.109800 0.325500 0.639200
0.118165 0.325340 0.629450
0.144613 0.335300 0.605850
0.322807 0.398623 0.591188
0.687413 0.447578 0.542373
0.721600 0.454900 0.545100
0.721600 0.454900 0.542114
0.109800 0.325500 0.639200
0.107561 0.325500 0.639200
0.109160 0.325500 0.639200
0.118142 0.326917 0.629450
0.141194 0.332338 0.607850
0.316883 0.395709 0.595941
0.681863 0.442028 0.541413
0.721600 0.454900 0.545100
0.721600 0.454900 0.544247
0.112238 0.346253 0.653920
0.114530 0.346093 0.651483
0.112009 0.340820 0.647550
0.118752 0.339700 0.651092
0.140706 0.341345 0.621258
0.305789 0.400723 0.605991
0.676625 0.443308 0.545603
0.721600 0.454900 0.542967
0.721600 0.454900 0.541688
0.131350 0.403456 0.695119
0.127450 0.401500 0.692095
0.127450 0.398509 0.684300
0.126963 0.399700 0.693823
0.161991 0.439097 0.734194
0.387413 0.514209 0.727598
0.730213 0.532967 0.651988
0.755142 0.513455 0.615413
0.729200 0.468400 0.565913
0.146563 0.497055 0.741192
0.146075 0.497055 0.741192
0.144734 0.493764 0.741329
0.145458 0.487850 0.737238
0.183091 0.538319 0.782333
0.527828 0.680814 0.825434
0.816683 0.720527 0.797628
0.841675 0.688315 0.768507
0.826158 0.646070 0.744770
0.165675 0.586884 0.781375
0.165675 0.586763 0.781314
0.165675 0.583959 0.781009
0.165370 0.582859 0.778755
0.191480 0.611772 0.802664
0.462123 0.735760 0.850429
0.847543 0.854663 0.844348
0.887275 0.850636 0.836275
0.884350 0.836413 0.832375
0.172500 0.607800 0.788200
0.172500 0.607800 0.788200
0.172500 0.607800 0.788200
0.172233 0.607533 0.788200
0.185313 0.626017 0.804913
0.352555 0.720614 0.845758
0.834348 0.880116 0.850086
0.895015 0.889834 0.842683
0.898500 0.887275 0.839688
0.172500 0.607800 0.788200
0.172500 0.607800 0.788200
0.172500 0.607800 0.788200
0.172500 0.607800 0.788200
0.174500 0.607850 0.795606
0.296405 0.697038 0.844905
0.801072 0.877938 0.857338
0.898011 0.893673 0.839688
0.902000 0.890688 0.839688
0.109800 0.325500 0.639200
0.109800 0.325500 0.639200
0.109800 0.325500 0.639200
0.109800 0.325500 0.636763
0.137250 0.331350 0.617650
0.246538 0.369613 0.599513
0.668600 0.441175 0.545100
0.721600 0.454900 0.545100
0.721600 0.454900 0.545100
0.109800 0.325500 0.639200
0.109800 0.325500 0.639200
0.109800 0.325500 0.639200
0.109800 0.322088 0.633350
0.137250 0.331350 0.613750
0.239225 0.369613 0.599208
0.666041 0.441175 0.542784
0.718538 0.451914 0.542114
0.721600 0.454900 0.545100
0.109800 0.325500 0.639200
0.109800 0.325500 0.639200
0.109800 0.325500 0.639200
0.109800 0.321600 0.632863
0.137250 0.331350 0.613250
0.234688 0.368516 0.598903
0.662750 0.441175 0.543881
0.718100 0.451488 0.541688
0.721600 0.454900 0.545100
0.109800 0.327938 0.641638
0.109800 0.327938 0.641638
0.109800 0.327938 0.639809
0.109800 0.326475 0.636823
0.133350 0.332569 0.618638
0.220698 0.361750 0.597989
0.647075 0.436275 0.543150
0.718100 0.451488 0.541688
0.721600 0.454900 0.545100
0.123550 0.390200 0.684300
0.123550 0.386788 0.680888
0.119600 0.382850 0.677963
0.121600 0.378400 0.672550
0.147050 0.406875 0.706850
0.251238 0.436525 0.683325
0.685775 0.493613 0.615188
0.732863 0.471813 0.563963
0.725500 0.462750 0.554900
0.144125 0.476975 0.731388
0.142663 0.474788 0.731875
0.143028 0.470575 0.727488
0.142663 0.465152 0.724988
0.160281 0.491425 0.753438
0.342311 0.590336 0.800623
0.783097 0.683803 0.783591
0.826158 0.646070 0.744588
0.806375 0.603913 0.709325
0.165675 0.576425 0.777475
0.161775 0.572525 0.773500
0.161775 0.572525 0.773500
0.159338 0.570088 0.771047
0.174988 0.591188 0.791175
0.338869 0.685263 0.836772
0.826719 0.840444 0.847081
0.883375 0.829888 0.832009
0.880375 0.812725 0.829450
0.172500 0.607800 0.788200
0.169088 0.604388 0.788200
0.169088 0.604388 0.788200
0.169088 0.604388 0.786067
0.176206 0.609800 0.791906
0.303092 0.698317 0.843625
0.812981 0.873550 0.851000
0.894588 0.886788 0.843538
0.898000 0.886788 0.843100
0.172500 0.607800 0.788200
0.172500 0.607800 0.788200
0.172500 0.607800 0.788200
0.172500 0.607800 0.788200
0.174500 0.609800 0.790200
0.254400 0.673500 0.837288
0.758850 0.857850 0.865700
0.891175 0.890688 0.847100
0.905900 0.898000 0.851000
