luts/A_v_log/H-9110-VLOG.cube
# Copyright: (C) Copyright 2010-2019 by IWLTBAP SAS
# Cannot be resold, shared or otherwise redistributed
# Website: https://luts.iwltbap.com
TITLE "IWLTBAP 9110 (V-Log L)"
LUT_3D_SIZE 9
0.000000 0.000000 0.000000
0.060250 0.000000 0.003413
0.180375 0.000000 0.010800
0.381363 0.000000 0.026000
0.666700 0.000000 0.045100
0.898563 0.000000 0.060263
0.985275 0.000000 0.066700
0.988200 0.000000 0.066700
0.988200 0.000000 0.066700
0.056838 0.022525 0.000000
0.065580 0.022038 0.000000
0.179375 0.009163 0.014359
0.374805 0.000000 0.023813
0.668650 0.000000 0.045100
0.904595 0.000000 0.060263
0.985275 0.000000 0.066700
0.988200 0.000000 0.066700
0.988200 0.000000 0.066700
0.186300 0.082375 0.000000
0.183853 0.070575 0.000000
0.204438 0.076725 0.001463
0.360788 0.059788 0.026500
0.647063 0.018163 0.039688
0.885300 0.001828 0.060263
0.985275 0.000000 0.066700
0.988200 0.000000 0.066700
0.988200 0.000000 0.066700
0.381363 0.178963 0.000000
0.378925 0.167650 0.000000
0.400513 0.161387 0.000000
0.426742 0.163239 0.012714
0.653925 0.144375 0.071781
0.881848 0.094659 0.060323
0.978450 0.050878 0.063700
0.984300 0.009508 0.066700
0.985763 0.002438 0.066700
0.645100 0.360750 0.011750
0.643350 0.358556 0.007606
0.643150 0.333363 0.002438
0.697800 0.292413 0.000000
0.728450 0.312750 0.027450
0.922538 0.316656 0.154138
0.987238 0.275950 0.144600
0.991700 0.209056 0.106625
0.986250 0.127450 0.074500
0.803938 0.848088 0.079900
0.802658 0.843783 0.079595
0.797538 0.822772 0.069213
0.829547 0.716052 0.053900
0.906144 0.438694 0.000000
0.970016 0.450914 0.018855
0.993297 0.475741 0.103572
0.992200 0.450488 0.146250
0.992200 0.410288 0.168625
0.879400 0.938275 0.090200
0.879034 0.938275 0.089834
0.879400 0.938275 0.090200
0.910409 0.918744 0.096172
0.919125 0.657863 0.006388
0.986288 0.534919 0.000000
0.996100 0.535294 0.000000
0.995125 0.535275 0.002925
0.995125 0.528450 0.008850
0.882400 0.941200 0.090200
0.882400 0.941200 0.090200
0.882400 0.941200 0.090200
0.899213 0.936575 0.092638
0.923550 0.733806 0.015944
0.955863 0.550675 0.000000
0.995978 0.541688 0.000000
0.992200 0.549000 0.000000
0.992200 0.549000 0.000000
0.882400 0.941200 0.090200
0.882400 0.941200 0.090200
0.882400 0.941200 0.090200
0.884838 0.941200 0.090200
0.923550 0.833350 0.054900
0.946113 0.607825 0.000000
0.995125 0.538275 0.000000
0.992200 0.549000 0.000000
0.992200 0.549000 0.000000
0.000000 0.003413 0.086275
0.049038 0.000000 0.057702
0.168163 0.000000 0.037238
0.370600 0.000000 0.031217
0.657344 0.000000 0.041150
0.899050 0.000000 0.060263
0.985275 0.000000 0.066700
0.988200 0.000000 0.066700
0.988200 0.000000 0.066700
0.009225 0.037727 0.060261
0.045188 0.032477 0.041592
0.157706 0.015192 0.031220
0.364326 0.000000 0.026004
0.653224 0.000000 0.041150
0.896102 0.000000 0.060263
0.984909 0.000000 0.066700
0.988200 0.000000 0.066700
0.988200 0.000000 0.066700
0.152097 0.095928 0.000853
0.158979 0.081936 0.000853
0.196069 0.075350 0.004495
0.361013 0.052925 0.025009
0.642967 0.015200 0.037738
0.887263 0.000000 0.057338
0.982350 0.000000 0.066700
0.988200 0.000000 0.066700
0.988200 0.000000 0.066700
0.372550 0.172525 0.000000
0.370113 0.167383 0.000000
0.387246 0.154894 0.000000
0.420617 0.160158 0.009652
0.637650 0.143625 0.071538
0.875906 0.087303 0.060323
0.977841 0.044347 0.062700
0.984361 0.007642 0.063052
0.984788 0.000305 0.064513
0.634081 0.359044 0.008094
0.629894 0.347569 0.004369
0.633306 0.328256 0.002438
0.686752 0.284304 0.000000
0.723041 0.307094 0.026450
0.922538 0.308931 0.151395
0.986250 0.257823 0.132817
0.984513 0.198526 0.101043
0.984300 0.123794 0.072794
0.803938 0.846775 0.081180
0.796113 0.831297 0.075596
0.794811 0.817425 0.069523
0.832167 0.723647 0.057838
0.902213 0.443646 0.000000
0.966055 0.448720 0.018855
0.992276 0.470316 0.103938
0.995772 0.454116 0.140213
0.993480 0.414250 0.166188
0.879400 0.938275 0.090200
0.876475 0.935978 0.087275
0.876475 0.934635 0.087275
0.909313 0.919917 0.090931
0.917138 0.664764 0.006388
0.985175 0.532436 0.000000
0.995003 0.535294 0.000000
0.994759 0.535116 0.003245
0.992200 0.528450 0.008850
0.882400 0.941200 0.090200
0.882400 0.941200 0.090200
0.882400 0.941200 0.090200
0.895800 0.933156 0.092333
0.926993 0.744923 0.014695
0.959773 0.547137 0.000000
0.995978 0.541688 0.000000
0.992200 0.549000 0.000000
0.992200 0.549000 0.000000
0.882400 0.941200 0.090200
0.882400 0.941200 0.090200
0.882400 0.941200 0.090200
0.884838 0.941200 0.090200
0.925500 0.827450 0.052950
0.944650 0.607825 0.000000
0.995125 0.538275 0.000000
0.992200 0.549000 0.000000
0.992200 0.549000 0.000000
0.002925 0.000000 0.250975
0.034800 0.000000 0.203084
0.160025 0.003169 0.150756
0.357338 0.000000 0.145075
0.651975 0.000000 0.131388
0.893138 0.000000 0.092416
0.985275 0.000000 0.071819
0.988200 0.000000 0.066700
0.988200 0.000000 0.066700
0.002925 0.022538 0.236547
0.012580 0.019978 0.216022
0.145450 0.005612 0.150391
0.344591 0.000000 0.133304
0.635241 0.000000 0.120519
0.887077 0.000000 0.083457
0.985275 0.000000 0.069625
0.988200 0.000000 0.066700
0.988200 0.000000 0.066700
0.033594 0.130669 0.151975
0.038884 0.127066 0.140305
0.141667 0.124758 0.135905
0.331334 0.098864 0.128947
0.629900 0.040066 0.105256
0.880884 0.000000 0.079141
0.980888 0.000000 0.068894
0.988200 0.000000 0.066700
0.988200 0.000000 0.066700
0.304569 0.244828 0.035678
0.291870 0.221012 0.026572
0.325006 0.182826 0.020243
0.383156 0.189883 0.071081
0.630894 0.157711 0.100920
0.874391 0.084923 0.066375
0.978450 0.040093 0.063544
0.984300 0.007141 0.065747
0.985397 0.000000 0.066075
0.615213 0.345100 0.000488
0.603316 0.327634 0.000061
0.612756 0.317794 0.000000
0.664900 0.280430 0.000914
0.707606 0.307338 0.031625
0.908156 0.307375 0.152980
0.986738 0.250000 0.130009
0.984300 0.188981 0.097495
0.984300 0.118638 0.074538
0.793150 0.818872 0.070197
0.785324 0.804123 0.067254
0.784284 0.797524 0.066759
0.823659 0.713675 0.054884
0.900231 0.432089 0.000000
0.960414 0.445214 0.021040
0.992200 0.464512 0.107863
0.992992 0.445117 0.150662
0.992566 0.411278 0.166188
0.874281 0.936025 0.087275
0.874462 0.935184 0.087275
0.874281 0.935092 0.087275
0.899434 0.919734 0.089012
0.916406 0.678313 0.007850
0.980930 0.528534 0.000000
0.992261 0.532341 0.000000
0.992474 0.534788 0.003291
0.992200 0.527700 0.008850
0.882400 0.941200 0.090200
0.882072 0.940880 0.090200
0.882400 0.941200 0.090200
0.896409 0.936209 0.092333
0.926170 0.759731 0.016797
0.955375 0.548711 0.000000
0.995978 0.541688 0.000000
0.992200 0.549000 0.000000
0.992200 0.546441 0.000000
0.882400 0.941200 0.090200
0.882400 0.941200 0.090200
0.882400 0.941200 0.090200
0.884838 0.941200 0.090200
0.923550 0.845100 0.062750
0.942150 0.625963 0.000000
0.995125 0.538275 0.000000
0.992200 0.549000 0.000000
0.992200 0.549000 0.000000
0.007800 0.000000 0.388250
0.008625 0.000000 0.383320
0.138225 0.001463 0.366700
0.331788 0.002438 0.338164
0.634313 0.000000 0.298781
0.879388 0.000000 0.277025
0.982350 0.000000 0.230388
0.985763 0.000000 0.156266
0.988200 0.000000 0.081388
0.003900 0.001280 0.379717
0.004060 0.000160 0.374815
0.130899 0.001463 0.360271
0.324134 0.002986 0.321029
0.623525 0.001219 0.299152
0.875975 0.000000 0.268138
0.982350 0.000000 0.219488
0.984483 0.000000 0.152490
0.988200 0.000000 0.078950
0.004997 0.092641 0.414797
0.004509 0.086752 0.397290
0.057326 0.092390 0.370173
0.303973 0.088521 0.308559
0.607850 0.046613 0.286775
0.870064 0.004753 0.257568
0.982350 0.000000 0.203958
0.985763 0.000000 0.143079
0.988200 0.000000 0.078950
0.097963 0.297136 0.314298
0.082606 0.277866 0.316311
0.132157 0.272522 0.291123
0.293455 0.260523 0.280123
0.590413 0.234264 0.270070
0.860078 0.160087 0.235865
0.979547 0.082711 0.191536
0.980400 0.008396 0.116294
0.988200 0.000000 0.074950
0.489694 0.520119 0.133850
0.522648 0.497113 0.118385
0.511641 0.450495 0.090517
0.565510 0.354754 0.073281
0.663850 0.378434 0.190316
0.878927 0.353699 0.235817
0.977573 0.272964 0.190208
0.984056 0.180385 0.109008
0.988200 0.107850 0.078675
0.796441 0.708169 0.043808
0.794491 0.702447 0.040695
0.786446 0.698308 0.040433
0.797485 0.593588 0.015858
0.910854 0.429927 0.031662
0.949898 0.479954 0.086800
0.991028 0.471595 0.139581
0.993663 0.438286 0.159513
0.993114 0.393613 0.175488
0.852350 0.933447 0.073038
0.851694 0.933630 0.072504
0.849866 0.933447 0.076947
0.880413 0.924533 0.084043
0.913822 0.673088 0.012555
0.979288 0.523269 0.004969
0.992200 0.531731 0.004113
0.995125 0.534788 0.006084
0.994028 0.525622 0.010678
0.860300 0.941200 0.080395
0.870113 0.941040 0.084045
0.870113 0.940834 0.084274
0.881882 0.937950 0.086483
0.925348 0.787981 0.028446
0.945930 0.556992 0.000000
0.995125 0.538275 0.000000
0.992200 0.549000 0.000000
0.992200 0.545588 0.000000
0.877463 0.941200 0.087763
0.877463 0.941200 0.087763
0.876338 0.938275 0.087763
0.878423 0.937300 0.087763
0.924250 0.873525 0.074288
0.943636 0.636347 0.000000
0.995125 0.531375 0.000000
0.992200 0.549000 0.000000
0.992200 0.549000 0.000000
0.007800 0.000000 0.664700
0.007800 0.000000 0.664456
0.109313 0.001463 0.652950
0.302456 0.007069 0.631388
0.609800 0.007800 0.588250
0.866175 0.009800 0.555350
0.983813 0.011750 0.512750
0.984300 0.001950 0.427194
0.988200 0.001950 0.345100
0.007800 0.000000 0.657344
0.007800 0.000000 0.655876
0.097550 0.001463 0.649000
0.294911 0.006094 0.622395
0.592641 0.007800 0.593128
0.861738 0.008550 0.545117
0.980400 0.008936 0.493698
0.984513 0.001920 0.423050
0.988200 0.000000 0.334081
0.005850 0.062238 0.653438
0.007800 0.059970 0.645588
0.074756 0.067666 0.636153
0.280648 0.052200 0.617008
0.583094 0.017406 0.576969
0.852902 0.011848 0.538227
0.977447 0.005850 0.481853
0.984300 0.001950 0.412773
0.988700 0.001950 0.324488
0.004631 0.196056 0.664231
0.004631 0.190694 0.665095
0.010209 0.184619 0.645423
0.131515 0.201085 0.624544
0.549750 0.218131 0.553178
0.842095 0.177644 0.518126
0.974048 0.105581 0.466602
0.984605 0.020809 0.382844
0.988200 0.003656 0.300975
0.131375 0.487225 0.566675
0.158938 0.515809 0.563847
0.149763 0.491919 0.551469
0.255038 0.501234 0.529278
0.537763 0.493625 0.517175
0.828056 0.464606 0.490944
0.971550 0.388231 0.437763
0.984788 0.290063 0.370344
0.984300 0.181350 0.275500
0.534063 0.813013 0.349025
0.527023 0.799844 0.346923
0.537189 0.790564 0.324430
0.575431 0.757266 0.314986
0.790441 0.613969 0.315206
0.903387 0.621112 0.402005
0.980888 0.590616 0.397908
0.988040 0.521563 0.342327
0.990200 0.437019 0.277700
0.767163 0.925488 0.236763
0.734272 0.929792 0.239738
0.798909 0.911406 0.219019
0.839528 0.827867 0.152822
0.902469 0.620581 0.102444
0.987113 0.617028 0.238091
0.991075 0.641188 0.220113
0.993480 0.605036 0.153806
0.992200 0.561750 0.092675
0.869338 0.837269 0.089225
0.868600 0.852226 0.094349
0.865431 0.872428 0.098773
0.872473 0.905431 0.114466
0.918356 0.744722 0.055516
0.985412 0.574057 0.113856
0.995125 0.614292 0.113225
0.992444 0.595620 0.053698
0.992200 0.560506 0.017163
0.833300 0.939250 0.109850
0.819356 0.947050 0.094350
0.819600 0.944125 0.091175
0.842156 0.940469 0.089469
0.906850 0.871550 0.075500
0.971319 0.560063 0.023275
0.995125 0.571050 0.026475
0.993906 0.560263 0.015456
0.992200 0.554900 0.005900
0.010300 0.000000 0.898563
0.010300 0.000000 0.899530
0.052841 0.000000 0.885300
0.258386 0.009752 0.884225
0.566175 0.015700 0.861738
0.844673 0.011800 0.839273
0.978450 0.014238 0.818013
0.986255 0.015517 0.759320
0.988200 0.014238 0.713688
0.010300 0.000000 0.891155
0.010300 0.000000 0.891732
0.041797 0.000000 0.886889
0.247720 0.006338 0.875312
0.552854 0.013598 0.862256
0.842648 0.010238 0.835467
0.974338 0.012455 0.806484
0.988388 0.015479 0.764608
0.984788 0.011800 0.693613
0.011425 0.026341 0.892163
0.007800 0.020293 0.884325
0.025131 0.011991 0.877438
0.232280 0.012948 0.871100
0.543406 0.015273 0.855034
0.834116 0.011800 0.831638
0.973470 0.014512 0.794344
0.988200 0.015700 0.747671
0.984300 0.015700 0.691650
0.011800 0.162250 0.880363
0.008480 0.157179 0.880363
0.016568 0.149696 0.870871
0.186124 0.180745 0.862797
0.513602 0.173518 0.846026
0.820527 0.120318 0.815689
0.971321 0.059559 0.781797
0.988692 0.026731 0.733839
0.984300 0.012348 0.671089
0.005119 0.370613 0.874756
0.001950 0.363956 0.874604
0.002255 0.359300 0.874756
0.014718 0.352943 0.862969
0.256000 0.390453 0.868256
0.794199 0.432106 0.796081
0.964220 0.378669 0.755441
0.984300 0.284544 0.710781
0.984300 0.184544 0.642881
0.162956 0.693077 0.819856
0.158643 0.685536 0.812094
0.189353 0.706759 0.801872
0.217652 0.690732 0.789393
0.439348 0.733484 0.775648
0.781721 0.742956 0.760484
0.954999 0.724283 0.732079
0.984300 0.663658 0.678186
0.984300 0.575686 0.603911
0.470247 0.954144 0.647538
0.464498 0.956034 0.653296
0.465557 0.950122 0.644338
0.482647 0.948553 0.619753
0.607002 0.934630 0.609113
0.899939 0.821946 0.621857
0.981506 0.825540 0.657003
0.990700 0.796237 0.601036
0.989200 0.740678 0.509081
0.511080 0.967442 0.587092
0.517688 0.967442 0.568688
0.520613 0.966117 0.559557
0.528847 0.965980 0.538225
0.632067 0.938703 0.512066
0.910147 0.809017 0.528991
0.991151 0.796633 0.558477
0.992505 0.780660 0.491076
0.994820 0.732825 0.387250
0.537250 0.962263 0.508300
0.552942 0.962263 0.481875
0.560263 0.960434 0.475650
0.599648 0.953364 0.449073
0.645856 0.912013 0.400981
0.906730 0.753606 0.416331
0.991684 0.752181 0.454753
0.992200 0.738403 0.397542
0.996100 0.704450 0.302975
0.008800 0.000000 0.986275
0.008800 0.000000 0.989200
0.016169 0.000000 0.986275
0.189322 0.007328 0.981375
0.491688 0.013750 0.979913
0.819109 0.017894 0.973378
0.968625 0.012531 0.967650
0.992200 0.011800 0.960425
0.992200 0.011800 0.944150
0.008800 0.000000 0.986275
0.008800 0.000000 0.986275
0.013244 0.000000 0.985525
0.182802 0.004738 0.980217
0.489095 0.013323 0.978633
0.815133 0.015746 0.971550
0.968625 0.012440 0.967650
0.989903 0.011800 0.957702
0.992200 0.011800 0.936275
0.008800 0.002194 0.985525
0.008800 0.002194 0.983331
0.013244 0.000000 0.982595
0.170704 0.006338 0.978450
0.482353 0.013263 0.976463
0.802828 0.017345 0.971550
0.964725 0.011800 0.958119
0.991544 0.011800 0.959281
0.992200 0.014725 0.944150
0.011800 0.122050 0.983813
0.011800 0.116322 0.981375
0.014695 0.111899 0.979425
0.149619 0.129088 0.978450
0.453797 0.117636 0.976463
0.789453 0.066011 0.966964
0.963838 0.023284 0.962178
0.989700 0.013628 0.947496
0.988200 0.012897 0.931994
0.011800 0.324513 0.983325
0.009863 0.316606 0.976163
0.010175 0.307228 0.976481
0.030636 0.299736 0.971489
0.231606 0.331838 0.975000
0.761080 0.365377 0.963489
0.954509 0.293900 0.945603
0.984727 0.211763 0.932467
0.985275 0.131375 0.912775
0.002194 0.554159 0.968006
0.001234 0.549625 0.968006
0.001920 0.543107 0.970088
0.009278 0.541050 0.964645
0.106175 0.556881 0.962364
0.592582 0.675018 0.968814
0.943238 0.687256 0.931002
0.983447 0.636323 0.922036
0.984300 0.545981 0.894638
0.176006 0.800731 0.971550
0.175275 0.800091 0.971550
0.172092 0.797258 0.973195
0.186893 0.802224 0.960947
0.363481 0.835053 0.947928
0.702572 0.904016 0.926369
0.934563 0.915925 0.922586
0.980888 0.903441 0.908184
0.985031 0.872038 0.878675
0.260784 0.875503 0.970844
0.282441 0.890582 0.964859
0.283541 0.891549 0.964585
0.291050 0.897943 0.959006
0.415125 0.939511 0.935241
0.705277 0.968728 0.895709
0.960188 0.939803 0.880878
0.988263 0.936875 0.869294
0.991200 0.919722 0.834069
0.328425 0.922525 0.949050
0.338875 0.929425 0.939591
0.336250 0.929425 0.941419
0.357716 0.946072 0.933300
0.416188 0.966688 0.905850
0.654669 0.972547 0.835150
0.948763 0.919600 0.831131
0.988700 0.920088 0.833459
0.992200 0.902925 0.792125
0.011800 0.000000 0.992200
0.011800 0.000000 0.992200
0.011800 0.000000 0.992200
0.119648 0.006338 0.984788
0.422756 0.013750 0.984788
0.767541 0.017467 0.980705
0.957800 0.014725 0.987225
0.992200 0.011800 0.984300
0.992200 0.011800 0.984300
0.011800 0.000000 0.992200
0.011800 0.000000 0.992200
0.011800 0.000000 0.989575
0.110744 0.002133 0.988200
0.405150 0.011581 0.984300
0.755079 0.017467 0.984460
0.956947 0.014725 0.986859
0.992200 0.011800 0.984300
0.992200 0.011800 0.984300
0.011800 0.000000 0.989575
0.011800 0.000000 0.989575
0.011800 0.000000 0.991544
0.094150 0.002133 0.988200
0.397063 0.013256 0.984605
0.749138 0.017467 0.984300
0.955027 0.014725 0.984940
0.992200 0.011800 0.984300
0.992200 0.011800 0.984300
0.012105 0.068325 0.984300
0.012105 0.064113 0.984483
0.011800 0.054425 0.988200
0.076186 0.047233 0.986677
0.372550 0.037389 0.985031
0.739834 0.030327 0.985100
0.950488 0.018686 0.986128
0.990013 0.011800 0.984300
0.992200 0.011800 0.984300
0.009800 0.271081 0.984788
0.010513 0.263694 0.980888
0.011606 0.255819 0.977231
0.027383 0.250348 0.982838
0.293406 0.300153 0.980400
0.707127 0.284556 0.984117
0.943653 0.220145 0.980400
0.984361 0.138425 0.974994
0.988200 0.051481 0.978938
0.000000 0.512242 0.983813
0.000000 0.508670 0.979913
0.000000 0.495602 0.977119
0.000000 0.488644 0.974938
0.025934 0.485544 0.984788
0.491011 0.595175 0.987217
0.934539 0.632423 0.980446
0.981314 0.547078 0.972653
0.984300 0.465188 0.969088
0.063359 0.699634 0.980400
0.063359 0.697075 0.980019
0.061278 0.697683 0.977475
0.057011 0.696744 0.974991
0.198866 0.720369 0.969088
0.571929 0.820230 0.970555
0.881656 0.901216 0.980766
0.983873 0.887852 0.969088
0.984300 0.852559 0.966163
0.156900 0.788200 0.992200
0.156900 0.788200 0.992200
0.156900 0.788200 0.992200
0.156627 0.787933 0.991927
0.221582 0.806601 0.988237
0.577163 0.900330 0.981154
0.886432 0.958353 0.973766
0.980400 0.976115 0.979600
0.984727 0.969577 0.976988
0.156900 0.788200 0.992200
0.156900 0.788200 0.992200
0.156900 0.788200 0.992200
0.160313 0.791700 0.992200
0.180881 0.800725 0.988200
0.493808 0.884495 0.983020
0.849025 0.954388 0.975991
0.987713 0.980461 0.972573
0.991700 0.976988 0.970075
0.011800 0.000000 0.992200
0.011800 0.000000 0.992200
0.011800 0.000000 0.992200
0.028925 0.000000 0.992200
0.317650 0.009800 0.988200
0.704425 0.017163 0.986738
0.944150 0.014725 0.987225
0.992200 0.011800 0.984300
0.992200 0.011800 0.984300
0.011800 0.000000 0.992200
0.011800 0.000000 0.992200
0.011800 0.000000 0.992200
0.026792 0.000000 0.986255
0.318388 0.009800 0.988200
0.698520 0.019600 0.984117
0.944150 0.014725 0.984300
0.989138 0.011800 0.984300
0.992200 0.011800 0.984300
0.011800 0.000000 0.992200
0.011800 0.000000 0.992200
0.011800 0.000000 0.992200
0.026488 0.000000 0.987591
0.306388 0.009800 0.986250
0.695916 0.019600 0.982838
0.941150 0.014725 0.984300
0.988700 0.011800 0.984300
0.992200 0.011800 0.984300
0.011800 0.012250 0.985763
0.011800 0.009813 0.988388
0.011800 0.009813 0.989325
0.022527 0.007375 0.986677
0.270344 0.014706 0.984300
0.668652 0.017163 0.984300
0.931994 0.011800 0.986128
0.988700 0.011800 0.984300
0.992200 0.011800 0.984300
0.011800 0.209800 0.988200
0.013750 0.202438 0.986250
0.015213 0.195125 0.987713
0.021094 0.179913 0.984300
0.222525 0.200975 0.984300
0.636756 0.187256 0.981619
0.929425 0.135763 0.986250
0.988450 0.055669 0.984056
0.990200 0.027450 0.982350
0.000000 0.465675 0.977963
0.000000 0.469392 0.976500
0.000000 0.454922 0.977475
0.000000 0.445100 0.976500
0.009313 0.430150 0.983081
0.382900 0.504461 0.986738
0.907216 0.549403 0.980400
0.986738 0.465188 0.972500
0.988200 0.365188 0.975000
0.038275 0.668625 0.977475
0.026597 0.666675 0.976125
0.026475 0.664481 0.976500
0.024038 0.661297 0.974625
0.102925 0.672075 0.972500
0.472175 0.773159 0.977597
0.835300 0.856844 0.983325
0.980522 0.846213 0.969575
0.984300 0.806825 0.972500
0.156900 0.788200 0.992200
0.153400 0.784788 0.988700
0.153400 0.784788 0.988700
0.153400 0.784788 0.988700
0.179913 0.797806 0.986744
0.490395 0.873988 0.984300
0.852072 0.944616 0.976866
0.976988 0.973498 0.980400
0.984300 0.973488 0.980400
0.156900 0.788200 0.992200
0.156900 0.788200 0.992200
0.156900 0.788200 0.992200
0.156900 0.788200 0.992200
0.164700 0.790200 0.990200
0.414200 0.858838 0.984300
0.820575 0.948050 0.980400
0.977475 0.980888 0.980888
0.988200 0.988200 0.988200
