luts/A_v_log/H-9110-VLOG.cube
# Copyright: (C) Copyright 2010-2019 by IWLTBAP SAS
# Cannot be resold, shared or otherwise redistributed
# Website: https://luts.iwltbap.com
TITLE "IWLTBAP 9110 (V-Log L)"
LUT_3D_SIZE 33
0.000000 0.000000 0.000000
0.011431 0.000000 0.000000
0.022769 0.000000 0.000000
0.041263 0.000000 0.000000
0.060250 0.000000 0.003413
0.085903 0.000000 0.003900
0.115713 0.000000 0.007069
0.149178 0.000000 0.007800
0.180375 0.000000 0.010800
0.222053 0.000000 0.014603
0.267681 0.000000 0.018381
0.318428 0.000000 0.022159
0.381363 0.000000 0.026000
0.452094 0.000000 0.032131
0.524306 0.000000 0.037494
0.594406 0.000000 0.041272
0.666700 0.000000 0.045100
0.735291 0.000000 0.047100
0.794369 0.000000 0.048806
0.849803 0.000000 0.054169
0.898563 0.000000 0.060263
0.936294 0.000000 0.064075
0.961775 0.000000 0.066700
0.975819 0.000000 0.066700
0.985275 0.000000 0.066700
0.988200 0.000000 0.066700
0.988200 0.000000 0.066700
0.988200 0.000000 0.066700
0.988200 0.000000 0.066700
0.988200 0.000000 0.066700
0.988200 0.000000 0.066700
0.988200 0.000000 0.066700
0.988200 0.000000 0.066700
0.011431 0.003778 0.000000
0.015449 0.003778 0.000000
0.023005 0.003778 0.000000
0.041263 0.000354 0.000000
0.056944 0.000000 0.000107
0.082125 0.000000 0.003310
0.111856 0.000000 0.007069
0.145303 0.000000 0.007800
0.176573 0.000000 0.010800
0.215559 0.000000 0.011888
0.260058 0.000000 0.014603
0.310775 0.000000 0.020861
0.376131 0.000000 0.026000
0.448258 0.000000 0.029888
0.520431 0.000000 0.033716
0.592590 0.000000 0.039501
0.666700 0.000000 0.045100
0.735291 0.000000 0.047100
0.794369 0.000000 0.048806
0.848229 0.000000 0.054169
0.896141 0.000000 0.060263
0.936294 0.000000 0.064075
0.961775 0.000000 0.066700
0.975819 0.000000 0.066700
0.985275 0.000000 0.066700
0.988200 0.000000 0.066700
0.988200 0.000000 0.066700
0.988200 0.000000 0.066700
0.988200 0.000000 0.066700
0.988200 0.000000 0.066700
0.988200 0.000000 0.066700
0.988200 0.000000 0.066700
0.988200 0.000000 0.066700
0.022769 0.007556 0.000000
0.023005 0.007556 0.000000
0.026985 0.007556 0.000000
0.041614 0.004022 0.000000
0.056838 0.000457 0.000000
0.082003 0.000000 0.003291
0.111731 0.000000 0.007069
0.145178 0.000000 0.007800
0.176450 0.000000 0.010800
0.212655 0.000000 0.011800
0.253613 0.000000 0.014481
0.305615 0.000000 0.020819
0.372306 0.000000 0.028285
0.444478 0.000000 0.031301
0.518707 0.000000 0.033594
0.592531 0.000000 0.039444
0.666700 0.000000 0.045100
0.735291 0.000000 0.047100
0.794369 0.000000 0.048806
0.848178 0.000000 0.054169
0.896063 0.000000 0.060263
0.936294 0.000000 0.064075
0.961775 0.000000 0.066700
0.975819 0.000000 0.066700
0.985275 0.000000 0.066700
0.988200 0.000000 0.066700
0.988200 0.000000 0.066700
0.988200 0.000000 0.066700
0.988200 0.000000 0.066700
0.988200 0.000000 0.066700
0.988200 0.000000 0.066700
0.988200 0.000000 0.066700
0.988200 0.000000 0.066700
0.041263 0.014959 0.000000
0.041263 0.014959 0.000000
0.045013 0.014959 0.000000
0.049791 0.011425 0.000000
0.060825 0.010739 0.000000
0.085538 0.010694 0.003291
0.112394 0.007748 0.010014
0.145178 0.007069 0.011425
0.179101 0.004418 0.011706
0.216075 0.000994 0.011800
0.259193 0.000000 0.014481
0.310037 0.000000 0.020819
0.373388 0.000000 0.026229
0.444234 0.000000 0.029964
0.518600 0.000000 0.033594
0.592531 0.000000 0.039444
0.668467 0.000000 0.045100
0.738825 0.000000 0.047100
0.797903 0.000000 0.048806
0.853185 0.000000 0.054169
0.901863 0.000000 0.060263
0.938613 0.000000 0.064075
0.961775 0.000000 0.066700
0.975819 0.000000 0.066700
0.985275 0.000000 0.066700
0.988200 0.000000 0.066700
0.988200 0.000000 0.066700
0.988200 0.000000 0.066700
0.988200 0.000000 0.066700
0.988200 0.000000 0.066700
0.988200 0.000000 0.066700
0.988200 0.000000 0.066700
0.988200 0.000000 0.066700
0.056838 0.022525 0.000000
0.056838 0.022525 0.000000
0.060505 0.025806 0.000000
0.061192 0.022411 0.000000
0.065580 0.022038 0.000000
0.089329 0.022038 0.003291
0.115946 0.018859 0.010319
0.145944 0.015459 0.011800
0.179375 0.009163 0.014359
0.218900 0.004509 0.015213
0.263225 0.001066 0.017894
0.313941 0.000000 0.021992
0.374805 0.000000 0.023813
0.444234 0.000000 0.028394
0.516680 0.000000 0.033594
0.590932 0.000000 0.039444
0.668650 0.000000 0.045100
0.740831 0.000000 0.048700
0.801730 0.000000 0.052219
0.857116 0.000000 0.056195
0.904595 0.000000 0.060263
0.938853 0.000000 0.064075
0.961775 0.000000 0.066700
0.975819 0.000000 0.066700
0.985275 0.000000 0.066700
0.988200 0.000000 0.066700
0.988200 0.000000 0.066700
0.988200 0.000000 0.066700
0.988200 0.000000 0.066700
0.988200 0.000000 0.066700
0.988200 0.000000 0.066700
0.988200 0.000000 0.066700
0.988200 0.000000 0.066700
0.082003 0.033456 0.000000
0.082003 0.033456 0.000000
0.085659 0.037127 0.000000
0.085903 0.033823 0.000000
0.089329 0.030577 0.000000
0.101832 0.030166 0.000514
0.118311 0.029671 0.004286
0.146053 0.026509 0.007705
0.176907 0.024730 0.013881
0.213534 0.021558 0.015700
0.257105 0.015494 0.018381
0.307847 0.008873 0.022159
0.370463 0.004525 0.023500
0.440944 0.001337 0.028191
0.513116 0.000000 0.033594
0.587368 0.000000 0.039444
0.665317 0.000000 0.045100
0.737735 0.000000 0.048928
0.798887 0.000000 0.052706
0.854313 0.000000 0.056484
0.901609 0.000000 0.060263
0.936694 0.000000 0.064075
0.961775 0.000000 0.066700
0.975819 0.000000 0.066700
0.985275 0.000000 0.066700
0.988200 0.000000 0.066700
0.988200 0.000000 0.066700
0.988200 0.000000 0.066700
0.988200 0.000000 0.066700
0.988200 0.000000 0.066700
0.988200 0.000000 0.066700
0.988200 0.000000 0.066700
0.988200 0.000000 0.066700
0.111731 0.048056 0.000000
0.111731 0.048056 0.000000
0.112417 0.048742 0.000000
0.115408 0.045253 0.000000
0.119125 0.041404 0.000000
0.121479 0.040906 0.000000
0.124217 0.040906 0.000594
0.146746 0.040335 0.003778
0.174073 0.040175 0.010556
0.209306 0.037358 0.017086
0.250478 0.030894 0.021550
0.302342 0.021192 0.023249
0.364425 0.012970 0.023500
0.433916 0.006073 0.028191
0.507916 0.001386 0.033594
0.581898 0.000000 0.037760
0.658322 0.000000 0.041891
0.730738 0.000000 0.047202
0.791896 0.000000 0.052706
0.847284 0.000000 0.056484
0.895800 0.000000 0.060263
0.933097 0.000000 0.064075
0.959541 0.000000 0.066700
0.975819 0.000000 0.066700
0.985275 0.000000 0.066700
0.988200 0.000000 0.066700
0.988200 0.000000 0.066700
0.988200 0.000000 0.066700
0.988200 0.000000 0.066700
0.988200 0.000000 0.066700
0.988200 0.000000 0.066700
0.988200 0.000000 0.066700
0.988200 0.000000 0.066700
0.148303 0.066313 0.000000
0.145276 0.063361 0.000000
0.145178 0.063266 0.000000
0.148803 0.056899 0.000000
0.152591 0.055475 0.000000
0.153078 0.055366 0.000000
0.155554 0.057841 0.000000
0.168010 0.058413 0.000667
0.185048 0.058413 0.006720
0.217794 0.057799 0.016527
0.254261 0.054292 0.022281
0.302427 0.045114 0.023500
0.361321 0.036161 0.023500
0.431197 0.026753 0.028191
0.505142 0.018386 0.033594
0.577731 0.012075 0.037372
0.653803 0.006133 0.041150
0.727647 0.001619 0.045375
0.790425 0.000000 0.050992
0.843328 0.000000 0.056484
0.889620 0.000000 0.060263
0.930309 0.000000 0.064075
0.959025 0.000000 0.066700
0.975819 0.000000 0.066700
0.985275 0.000000 0.066700
0.988200 0.000000 0.066700
0.988200 0.000000 0.066700
0.988200 0.000000 0.066700
0.988200 0.000000 0.066700
0.988200 0.000000 0.066700
0.988200 0.000000 0.066700
0.988200 0.000000 0.066700
0.988200 0.000000 0.066700
0.186300 0.082375 0.000000
0.179591 0.078597 0.000000
0.176633 0.078475 0.000000
0.180007 0.071316 0.000000
0.183853 0.070575 0.000000
0.186818 0.070575 0.000000
0.192820 0.073744 0.000000
0.196405 0.074475 0.000000
0.204438 0.076725 0.001463
0.230816 0.077475 0.012534
0.262433 0.076805 0.021367
0.304739 0.068773 0.025469
0.360788 0.059788 0.026500
0.430850 0.049878 0.031146
0.504663 0.039036 0.036519
0.573730 0.028602 0.038743
0.647063 0.018163 0.039688
0.722715 0.009516 0.043421
0.788780 0.004570 0.049233
0.841446 0.002925 0.054748
0.885300 0.001828 0.060263
0.927815 0.000000 0.064075
0.959025 0.000000 0.066700
0.975819 0.000000 0.066700
0.985275 0.000000 0.066700
0.988200 0.000000 0.066700
0.988200 0.000000 0.066700
0.988200 0.000000 0.066700
0.988200 0.000000 0.066700
0.988200 0.000000 0.066700
0.988200 0.000000 0.066700
0.988200 0.000000 0.066700
0.988200 0.000000 0.066700
0.224275 0.100388 0.000000
0.219407 0.096609 0.000000
0.215594 0.096488 0.000000
0.218884 0.091868 0.000000
0.222687 0.088938 0.000000
0.226469 0.088588 0.000000
0.228861 0.089479 0.000000
0.231462 0.089684 0.000000
0.238000 0.092630 0.000000
0.252346 0.093613 0.005188
0.274921 0.093613 0.012631
0.313843 0.089595 0.023234
0.367490 0.084350 0.032756
0.434864 0.075476 0.037212
0.505920 0.064097 0.038720
0.572681 0.051223 0.039200
0.643698 0.038491 0.039200
0.718419 0.028921 0.042903
0.786654 0.021798 0.048806
0.842189 0.016849 0.053030
0.887128 0.012671 0.057459
0.929015 0.006529 0.062235
0.959025 0.001927 0.066700
0.975819 0.000000 0.066700
0.985275 0.000000 0.066700
0.988200 0.000000 0.066700
0.988200 0.000000 0.066700
0.988200 0.000000 0.066700
0.988200 0.000000 0.066700
0.988200 0.000000 0.066700
0.988200 0.000000 0.066700
0.988200 0.000000 0.066700
0.988200 0.000000 0.066700
0.264931 0.122056 0.000000
0.261153 0.118278 0.000000
0.259889 0.118156 0.000000
0.263347 0.114594 0.000000
0.267185 0.110752 0.000000
0.268710 0.107994 0.000000
0.268900 0.107575 0.000000
0.274042 0.107575 0.000000
0.281355 0.108489 0.000000
0.284013 0.108794 0.000876
0.294935 0.110637 0.002916
0.327100 0.110675 0.019314
0.376506 0.107819 0.036488
0.440205 0.100983 0.043514
0.509094 0.090686 0.044631
0.573938 0.077197 0.043170
0.643150 0.063972 0.041881
0.716033 0.054418 0.044328
0.783318 0.046811 0.048806
0.842132 0.038615 0.052584
0.890932 0.029145 0.056363
0.930617 0.018956 0.060570
0.956344 0.009934 0.064809
0.973138 0.004608 0.066700
0.983264 0.002681 0.066700
0.988200 0.002095 0.066700
0.987697 0.000000 0.066700
0.985519 0.000000 0.066700
0.985519 0.000000 0.066700
0.985519 0.000000 0.066700
0.985686 0.000000 0.066700
0.988200 0.000000 0.066700
0.988200 0.000000 0.066700
0.317053 0.147447 0.000000
0.315754 0.143605 0.000000
0.315713 0.143481 0.000000
0.316927 0.139947 0.000000
0.318256 0.136139 0.000000
0.318428 0.134516 0.000000
0.318428 0.132227 0.000000
0.328521 0.131747 0.000000
0.337246 0.131747 0.000000
0.334523 0.129907 0.000000
0.335476 0.130109 0.000000
0.355750 0.132208 0.011285
0.393579 0.133849 0.026988
0.447624 0.131195 0.042836
0.511432 0.125344 0.055455
0.577264 0.114109 0.057838
0.647022 0.099588 0.054683
0.715607 0.087522 0.051648
0.778402 0.077433 0.050246
0.836784 0.066813 0.052584
0.887019 0.055394 0.056363
0.926737 0.044007 0.059261
0.952566 0.033838 0.061370
0.969359 0.026590 0.064075
0.979791 0.020651 0.064731
0.985641 0.014790 0.066700
0.985389 0.006772 0.066700
0.984300 0.002159 0.066700
0.984300 0.000000 0.066700
0.984300 0.000000 0.066700
0.984544 0.000000 0.066700
0.988200 0.000000 0.066700
0.988200 0.000000 0.066700
0.381363 0.178963 0.000000
0.381363 0.175088 0.000000
0.381363 0.174963 0.000000
0.379154 0.171428 0.000000
0.378925 0.167650 0.000000
0.378925 0.167163 0.000000
0.378925 0.163994 0.000000
0.391161 0.163263 0.000000
0.400513 0.161387 0.000000
0.398561 0.157959 0.000000
0.395349 0.156863 0.000000
0.403636 0.159422 0.002904
0.426742 0.163239 0.012714
0.466849 0.166751 0.036020
0.518749 0.165944 0.060136
0.582439 0.157192 0.070930
0.653925 0.144375 0.071781
0.719423 0.131101 0.067394
0.776752 0.117325 0.062184
0.831603 0.105534 0.060391
0.881848 0.094659 0.060323
0.922056 0.081757 0.060400
0.948788 0.070807 0.059257
0.966267 0.060821 0.060948
0.978450 0.050878 0.063700
0.984300 0.040019 0.066700
0.984300 0.026998 0.066700
0.984300 0.017269 0.066700
0.984300 0.009508 0.066700
0.984300 0.007375 0.066700
0.984391 0.007219 0.066700
0.985763 0.004799 0.066700
0.985763 0.002438 0.066700
0.447403 0.213159 0.000000
0.449646 0.211585 0.000000
0.449719 0.211534 0.000000
0.446184 0.207946 0.000000
0.443793 0.204163 0.000000
0.443503 0.203675 0.000000
0.445385 0.200506 0.000000
0.454466 0.197966 0.000000
0.462768 0.192723 0.000000
0.466889 0.190005 0.000000
0.469870 0.189559 0.000000
0.474466 0.190599 0.000000
0.483780 0.193607 0.004443
0.502784 0.199751 0.019784
0.534885 0.203355 0.041675
0.591684 0.201128 0.066004
0.663856 0.194189 0.086564
0.728669 0.184308 0.094328
0.783925 0.171559 0.091156
0.836169 0.157637 0.083212
0.883294 0.143456 0.074954
0.920594 0.128186 0.069885
0.947325 0.116070 0.065083
0.965216 0.102407 0.063936
0.978450 0.089341 0.065481
0.984300 0.077069 0.066700
0.984734 0.062645 0.066700
0.986616 0.051247 0.066700
0.986326 0.040514 0.066700
0.984300 0.034635 0.066700
0.984300 0.029704 0.066700
0.984300 0.019228 0.066700
0.984300 0.010906 0.066700
0.512019 0.247300 0.002194
0.515797 0.247300 0.000069
0.517975 0.249409 0.000000
0.512590 0.243937 0.000000
0.508606 0.239944 0.000000
0.508119 0.239456 0.000000
0.511288 0.236288 0.000000
0.516433 0.232509 0.000000
0.523519 0.225731 0.000000
0.532692 0.223756 0.000000
0.543966 0.223756 0.000000
0.550366 0.223756 0.000000
0.554144 0.224823 0.001066
0.554764 0.230153 0.004771
0.566882 0.236790 0.017620
0.611643 0.241787 0.050332
0.676356 0.242138 0.088859
0.738905 0.237783 0.110839
0.795356 0.228897 0.115904
0.846042 0.214062 0.110623
0.889688 0.196910 0.100142
0.924227 0.181236 0.090414
0.949519 0.167175 0.082600
0.967409 0.152583 0.079302
0.980644 0.139377 0.076614
0.986494 0.125469 0.073281
0.987236 0.111069 0.072870
0.990450 0.099295 0.070745
0.989955 0.085957 0.068894
0.986288 0.074303 0.068688
0.984300 0.064087 0.066700
0.984300 0.046726 0.066630
0.984300 0.028919 0.064450
0.578706 0.281453 0.003900
0.580477 0.281453 0.000122
0.582248 0.283211 0.000000
0.579049 0.279972 0.000000
0.575247 0.276213 0.000000
0.574753 0.275725 0.000000
0.577965 0.272556 0.000000
0.580134 0.268778 0.000000
0.584830 0.263594 0.000000
0.593216 0.260623 0.000000
0.605307 0.258601 0.000000
0.617599 0.256593 0.000000
0.628162 0.255881 0.000000
0.627488 0.259310 0.000000
0.629724 0.266074 0.006471
0.651823 0.274754 0.029763
0.692789 0.281480 0.063377
0.748281 0.282721 0.095086
0.807664 0.278421 0.119262
0.859676 0.268725 0.131528
0.903532 0.255699 0.133002
0.937500 0.242515 0.127543
0.960343 0.229347 0.119328
0.974204 0.216659 0.113527
0.983904 0.203735 0.106704
0.988200 0.186529 0.098319
0.988950 0.170080 0.093563
0.992200 0.156356 0.086051
0.991700 0.140888 0.080495
0.987834 0.123847 0.076304
0.984300 0.108213 0.070585
0.984300 0.089059 0.066575
0.984300 0.066294 0.062700
0.645100 0.360750 0.011750
0.645100 0.355083 0.007972
0.643272 0.351197 0.006022
0.644917 0.356297 0.005900
0.643350 0.358556 0.007606
0.643100 0.355509 0.007850
0.643141 0.348522 0.006266
0.643150 0.340956 0.004338
0.643150 0.333363 0.002438
0.647355 0.321517 0.000548
0.655772 0.308197 0.000000
0.675552 0.298781 0.000000
0.697800 0.292413 0.000000
0.708216 0.290200 0.000000
0.712022 0.294616 0.002194
0.713750 0.303256 0.009133
0.728450 0.312750 0.027450
0.770713 0.320416 0.061400
0.825116 0.323528 0.100625
0.876391 0.321916 0.132702
0.922538 0.316656 0.154138
0.955178 0.308398 0.161359
0.974272 0.298922 0.157581
0.983447 0.288831 0.152692
0.987238 0.275950 0.144600
0.990200 0.258463 0.135106
0.990575 0.240206 0.125613
0.992200 0.224997 0.116119
0.991700 0.209056 0.106625
0.988017 0.188175 0.097314
0.986250 0.167497 0.089588
0.986250 0.150216 0.080216
0.986250 0.127450 0.074500
0.702306 0.519125 0.034319
0.700535 0.500616 0.028724
0.695064 0.485757 0.023174
0.699937 0.502127 0.026129
0.702078 0.517224 0.031525
0.700764 0.506295 0.030704
0.694301 0.489875 0.025727
0.692875 0.471708 0.018699
0.688579 0.451823 0.012703
0.685974 0.416456 0.005795
0.690947 0.379611 0.001143
0.713987 0.354514 0.000000
0.744206 0.334217 0.000000
0.769387 0.322946 0.000000
0.785024 0.322950 0.000000
0.787635 0.328934 0.000000
0.791673 0.338489 0.008070
0.813087 0.350729 0.029491
0.847762 0.361270 0.061879
0.892363 0.366290 0.102238
0.938308 0.367301 0.141055
0.966665 0.365754 0.164643
0.981413 0.360566 0.172400
0.988200 0.352343 0.175552
0.989200 0.341755 0.172852
0.992200 0.327903 0.167973
0.992200 0.312512 0.160527
0.992200 0.297341 0.154696
0.991934 0.281613 0.148160
0.990075 0.262042 0.138356
0.990075 0.239716 0.127311
0.990075 0.224377 0.117763
0.990075 0.205153 0.110206
0.746550 0.685819 0.059575
0.741119 0.659178 0.051922
0.735178 0.636288 0.044363
0.740367 0.661236 0.050944
0.745849 0.683088 0.058588
0.741820 0.667383 0.056284
0.732743 0.644839 0.049256
0.729517 0.618975 0.038634
0.724573 0.588181 0.030150
0.717403 0.536039 0.019725
0.719422 0.483806 0.011026
0.741921 0.445060 0.007455
0.772595 0.408128 0.005802
0.803464 0.378297 0.003110
0.828435 0.361401 0.000746
0.845315 0.357581 0.000000
0.855641 0.363009 0.002194
0.861630 0.374514 0.007499
0.875704 0.387968 0.023464
0.910637 0.397570 0.058771
0.950648 0.404717 0.103179
0.972923 0.409350 0.138656
0.984557 0.407961 0.159660
0.989950 0.403192 0.172175
0.990513 0.396289 0.178295
0.992200 0.386138 0.180781
0.992200 0.374634 0.180309
0.992200 0.362278 0.180179
0.992200 0.347282 0.180850
0.992200 0.332994 0.174321
0.992200 0.312265 0.162841
0.992200 0.297150 0.156897
0.992200 0.283594 0.150994
0.778188 0.787897 0.073769
0.773701 0.768970 0.067690
0.769862 0.752308 0.061667
0.773187 0.771005 0.066911
0.777609 0.784619 0.072984
0.772909 0.775116 0.070478
0.766833 0.759090 0.066058
0.763847 0.739414 0.057275
0.761604 0.715491 0.050326
0.758835 0.677098 0.043754
0.761777 0.637212 0.038575
0.779885 0.601120 0.033510
0.800651 0.551883 0.026191
0.817657 0.484801 0.013537
0.835727 0.426942 0.003110
0.864271 0.399570 0.000000
0.892283 0.392770 0.000000
0.904861 0.396663 0.000000
0.914883 0.407597 0.005785
0.937337 0.418972 0.026209
0.961799 0.431591 0.058389
0.976556 0.442036 0.091181
0.986769 0.444623 0.118408
0.992200 0.445089 0.137622
0.992200 0.441450 0.151867
0.992200 0.433646 0.160159
0.992200 0.425472 0.165800
0.992200 0.416929 0.172655
0.992200 0.403747 0.178562
0.992200 0.393303 0.177488
0.992200 0.377435 0.173241
0.992200 0.362403 0.172528
0.992200 0.350972 0.173394
0.803938 0.848088 0.079900
0.803938 0.841851 0.077539
0.801594 0.837080 0.075177
0.803703 0.841193 0.077234
0.802658 0.843783 0.079595
0.800366 0.842031 0.077843
0.797995 0.837689 0.077463
0.797538 0.831013 0.072482
0.797538 0.822772 0.069213
0.802470 0.808955 0.069666
0.809805 0.792278 0.071093
0.821606 0.768100 0.066407
0.829547 0.716052 0.053900
0.828748 0.617345 0.029116
0.834136 0.518893 0.007082
0.865245 0.464164 0.000000
0.906144 0.438694 0.000000
0.933255 0.427503 0.000000
0.950631 0.429699 0.001066
0.963246 0.437997 0.006424
0.970016 0.450914 0.018855
0.978043 0.465447 0.039148
0.988231 0.473245 0.063762
0.993663 0.476975 0.085128
0.993297 0.475741 0.103572
0.992200 0.471184 0.112978
0.992200 0.466949 0.121618
0.992200 0.460185 0.134385
0.992200 0.450488 0.146250
0.992200 0.442971 0.151112
0.992200 0.435306 0.152866
0.992200 0.420266 0.159591
0.992200 0.410288 0.168625
0.832953 0.893159 0.083741
0.831654 0.889318 0.082442
0.831613 0.889194 0.082400
0.831613 0.889194 0.082400
0.830546 0.889194 0.083573
0.830394 0.889194 0.083741
0.830394 0.889194 0.083741
0.830394 0.889194 0.081690
0.830394 0.886269 0.081116
0.836923 0.882491 0.083002
0.845786 0.875963 0.085500
0.857277 0.861614 0.083778
0.863470 0.821252 0.073482
0.858285 0.728767 0.044026
0.856966 0.626640 0.013564
0.875685 0.556230 0.001257
0.906431 0.507334 0.000000
0.934951 0.475629 0.000000
0.958040 0.464056 0.000000
0.971467 0.463873 0.000000
0.975865 0.472284 0.001920
0.982281 0.484833 0.010484
0.990669 0.493715 0.025177
0.996100 0.498533 0.038960
0.995125 0.499832 0.050784
0.992200 0.499984 0.057055
0.992200 0.496458 0.064833
0.992200 0.493359 0.078900
0.992200 0.487046 0.093130
0.992200 0.481394 0.100378
0.992200 0.480496 0.104650
0.992200 0.466833 0.116079
0.992200 0.460575 0.127447
0.855906 0.918606 0.087519
0.852098 0.914828 0.083741
0.851975 0.914706 0.083619
0.851975 0.914706 0.083619
0.855415 0.915773 0.087031
0.855906 0.915925 0.087519
0.855906 0.915925 0.087519
0.855906 0.915925 0.087519
0.855906 0.913000 0.087519
0.858709 0.909222 0.087519
0.867919 0.903532 0.087519
0.881889 0.897125 0.090878
0.892170 0.872667 0.085282
0.891922 0.805482 0.056002
0.889744 0.721452 0.023519
0.891281 0.644703 0.006032
0.901219 0.575397 0.000609
0.923362 0.527861 0.000000
0.949559 0.505743 0.000000
0.969265 0.494599 0.000000
0.980644 0.493522 0.000000
0.986870 0.500492 0.001843
0.991528 0.506875 0.006222
0.996100 0.510662 0.008867
0.995430 0.514463 0.011464
0.993419 0.516801 0.014062
0.993419 0.514706 0.018134
0.993419 0.514097 0.028779
0.993419 0.510471 0.040944
0.993419 0.508125 0.048137
0.993419 0.507464 0.052359
0.993419 0.497422 0.062580
0.993419 0.493644 0.072800
0.869991 0.931622 0.090200
0.866143 0.928906 0.086422
0.866019 0.928819 0.086300
0.866019 0.928819 0.086300
0.869494 0.931271 0.089713
0.869991 0.931622 0.090200
0.869991 0.931622 0.090200
0.869991 0.931622 0.090200
0.869991 0.929520 0.090200
0.872814 0.925995 0.090200
0.882012 0.922914 0.090200
0.895227 0.920176 0.095319
0.905142 0.902088 0.092059
0.908745 0.850200 0.065870
0.909823 0.778822 0.034938
0.906119 0.698476 0.013995
0.907767 0.622825 0.003061
0.922579 0.580157 0.000000
0.944359 0.559309 0.000000
0.967443 0.534193 0.000000
0.984158 0.515091 0.000000
0.991410 0.511504 0.000000
0.994173 0.517141 0.000000
0.996100 0.521247 0.000000
0.996100 0.525873 0.000000
0.996100 0.528819 0.000000
0.996100 0.528819 0.001051
0.996100 0.528205 0.006665
0.996100 0.524891 0.013082
0.996100 0.524891 0.018360
0.996100 0.524467 0.022310
0.996100 0.517994 0.027776
0.996100 0.514216 0.034297
0.879400 0.938275 0.090200
0.876566 0.938275 0.087366
0.876475 0.938275 0.087275
0.876475 0.938275 0.087275
0.879034 0.938275 0.089834
0.879400 0.938275 0.090200
0.879400 0.938275 0.090200
0.879400 0.938275 0.090200
0.879400 0.938275 0.090200
0.882257 0.936119 0.090200
0.890078 0.935275 0.090200
0.900869 0.935275 0.095319
0.910409 0.918744 0.096172
0.916609 0.875085 0.075288
0.921384 0.813384 0.046323
0.919366 0.733359 0.022877
0.919125 0.657863 0.006388
0.927145 0.624635 0.000000
0.940900 0.608386 0.000000
0.963493 0.571467 0.000000
0.986288 0.534919 0.000000
0.996100 0.520606 0.000000
0.996100 0.523794 0.000000
0.996100 0.528676 0.000000
0.996100 0.535294 0.000000
0.995887 0.538275 0.000000
0.995125 0.538275 0.000000
0.995125 0.537806 0.000457
0.995125 0.535275 0.002925
0.995125 0.535275 0.003199
0.995125 0.535031 0.005850
0.995125 0.531284 0.005944
0.995125 0.528450 0.008850
0.882400 0.941200 0.090200
0.882400 0.941200 0.090200
0.882400 0.941200 0.090200
0.882400 0.941200 0.090200
0.882400 0.941200 0.090200
0.882400 0.941200 0.090200
0.882400 0.941200 0.090200
0.882400 0.941200 0.090200
0.882400 0.941200 0.090200
0.884590 0.941200 0.090200
0.887542 0.941200 0.090200
0.896223 0.941200 0.095319
0.908131 0.926997 0.098000
0.918044 0.889773 0.082744
0.925988 0.835289 0.057330
0.925256 0.758197 0.030207
0.923550 0.682738 0.008277
0.927328 0.648313 0.000000
0.937602 0.629011 0.000000
0.960903 0.586016 0.000000
0.985434 0.542625 0.000000
0.995247 0.525500 0.000000
0.995513 0.526719 0.000000
0.996100 0.531622 0.000000
0.996100 0.538275 0.000000
0.995247 0.541200 0.000000
0.992200 0.541360 0.000000
0.992200 0.542053 0.000000
0.992200 0.542053 0.000000
0.992200 0.542053 0.000000
0.992200 0.541863 0.000000
0.992200 0.539006 0.000000
0.992200 0.539006 0.000000
0.882400 0.941200 0.090200
0.882400 0.941200 0.090200
0.882400 0.941200 0.090200
0.882400 0.941200 0.090200
0.882400 0.941200 0.090200
0.882400 0.941200 0.090200
0.882400 0.941200 0.090200
0.882400 0.941200 0.090200
0.882400 0.941200 0.090200
0.882400 0.941200 0.090200
0.882400 0.941200 0.090200
0.889598 0.941200 0.094839
0.903181 0.929864 0.097269
0.916509 0.900656 0.086945
0.925988 0.853038 0.067074
0.925645 0.777924 0.037971
0.923550 0.701350 0.010541
0.926940 0.660849 0.000000
0.935949 0.634261 0.000000
0.956523 0.588177 0.000000
0.980175 0.543368 0.000000
0.990490 0.526231 0.000000
0.992903 0.527450 0.000000
