luts/A_v_log/H-9110-VLOG.cube
# Copyright: (C) Copyright 2010-2019 by IWLTBAP SAS
# Cannot be resold, shared or otherwise redistributed
# Website: https://luts.iwltbap.com
TITLE "IWLTBAP 9110 (V-Log L)"
LUT_3D_SIZE 5
0.000000 0.000000 0.000000
0.180375 0.000000 0.010800
0.666700 0.000000 0.045100
0.985275 0.000000 0.066700
0.988200 0.000000 0.066700
0.186300 0.082375 0.000000
0.204438 0.076725 0.001463
0.647063 0.018163 0.039688
0.985275 0.000000 0.066700
0.988200 0.000000 0.066700
0.645100 0.360750 0.011750
0.643150 0.333363 0.002438
0.728450 0.312750 0.027450
0.987238 0.275950 0.144600
0.986250 0.127450 0.074500
0.879400 0.938275 0.090200
0.879400 0.938275 0.090200
0.919125 0.657863 0.006388
0.996100 0.535294 0.000000
0.995125 0.528450 0.008850
0.882400 0.941200 0.090200
0.882400 0.941200 0.090200
0.923550 0.833350 0.054900
0.995125 0.538275 0.000000
0.992200 0.549000 0.000000
0.002925 0.000000 0.250975
0.160025 0.003169 0.150756
0.651975 0.000000 0.131388
0.985275 0.000000 0.071819
0.988200 0.000000 0.066700
0.033594 0.130669 0.151975
0.141667 0.124758 0.135905
0.629900 0.040066 0.105256
0.980888 0.000000 0.068894
0.988200 0.000000 0.066700
0.615213 0.345100 0.000488
0.612756 0.317794 0.000000
0.707606 0.307338 0.031625
0.986738 0.250000 0.130009
0.984300 0.118638 0.074538
0.874281 0.936025 0.087275
0.874281 0.935092 0.087275
0.916406 0.678313 0.007850
0.992261 0.532341 0.000000
0.992200 0.527700 0.008850
0.882400 0.941200 0.090200
0.882400 0.941200 0.090200
0.923550 0.845100 0.062750
0.995125 0.538275 0.000000
0.992200 0.549000 0.000000
0.007800 0.000000 0.664700
0.109313 0.001463 0.652950
0.609800 0.007800 0.588250
0.983813 0.011750 0.512750
0.988200 0.001950 0.345100
0.005850 0.062238 0.653438
0.074756 0.067666 0.636153
0.583094 0.017406 0.576969
0.977447 0.005850 0.481853
0.988700 0.001950 0.324488
0.131375 0.487225 0.566675
0.149763 0.491919 0.551469
0.537763 0.493625 0.517175
0.971550 0.388231 0.437763
0.984300 0.181350 0.275500
0.767163 0.925488 0.236763
0.798909 0.911406 0.219019
0.902469 0.620581 0.102444
0.991075 0.641188 0.220113
0.992200 0.561750 0.092675
0.833300 0.939250 0.109850
0.819600 0.944125 0.091175
0.906850 0.871550 0.075500
0.995125 0.571050 0.026475
0.992200 0.554900 0.005900
0.008800 0.000000 0.986275
0.016169 0.000000 0.986275
0.491688 0.013750 0.979913
0.968625 0.012531 0.967650
0.992200 0.011800 0.944150
0.008800 0.002194 0.985525
0.013244 0.000000 0.982595
0.482353 0.013263 0.976463
0.964725 0.011800 0.958119
0.992200 0.014725 0.944150
0.011800 0.324513 0.983325
0.010175 0.307228 0.976481
0.231606 0.331838 0.975000
0.954509 0.293900 0.945603
0.985275 0.131375 0.912775
0.176006 0.800731 0.971550
0.172092 0.797258 0.973195
0.363481 0.835053 0.947928
0.934563 0.915925 0.922586
0.985031 0.872038 0.878675
0.328425 0.922525 0.949050
0.336250 0.929425 0.941419
0.416188 0.966688 0.905850
0.948763 0.919600 0.831131
0.992200 0.902925 0.792125
0.011800 0.000000 0.992200
0.011800 0.000000 0.992200
0.317650 0.009800 0.988200
0.944150 0.014725 0.987225
0.992200 0.011800 0.984300
0.011800 0.000000 0.992200
0.011800 0.000000 0.992200
0.306388 0.009800 0.986250
0.941150 0.014725 0.984300
0.992200 0.011800 0.984300
0.011800 0.209800 0.988200
0.015213 0.195125 0.987713
0.222525 0.200975 0.984300
0.929425 0.135763 0.986250
0.990200 0.027450 0.982350
0.038275 0.668625 0.977475
0.026475 0.664481 0.976500
0.102925 0.672075 0.972500
0.835300 0.856844 0.983325
0.984300 0.806825 0.972500
0.156900 0.788200 0.992200
0.156900 0.788200 0.992200
0.164700 0.790200 0.990200
0.820575 0.948050 0.980400
0.988200 0.988200 0.988200
