luts/A_v_log/W-8370-VLOG.cube
# Copyright: (C) Copyright 2010-2019 by IWLTBAP SAS
# Cannot be resold, shared or otherwise redistributed
# Website: https://luts.iwltbap.com
TITLE "IWLTBAP 8370 (V-Log L)"
LUT_3D_SIZE 5
0.011800 0.011800 0.011800
0.163750 0.018625 0.031400
0.892150 0.251000 0.156900
1.000000 0.499975 0.413750
1.000000 0.505900 0.419600
0.074550 0.083325 0.028450
0.167163 0.098800 0.020331
0.861263 0.285788 0.152900
1.000000 0.499975 0.413750
1.000000 0.505900 0.419600
0.405900 0.539200 0.266650
0.424513 0.533300 0.261775
0.700025 0.572525 0.269600
0.991188 0.724025 0.569613
0.996100 0.615650 0.496050
0.683375 0.884350 0.641175
0.683375 0.884350 0.641175
0.849050 0.886300 0.661750
0.978450 0.917625 0.770575
0.974475 0.899975 0.742125
0.686300 0.890200 0.647100
0.686300 0.890200 0.647100
0.772550 0.888250 0.664700
0.982350 0.934300 0.792125
0.996100 0.945100 0.819600
0.029425 0.025525 0.051950
0.088713 0.018625 0.059775
0.830888 0.222088 0.186275
1.000000 0.497050 0.413019
1.000000 0.505900 0.419600
0.027006 0.068625 0.071550
0.103005 0.074958 0.070570
0.809797 0.245575 0.167528
0.996527 0.497050 0.410769
1.000000 0.505900 0.419600
0.375988 0.525988 0.274525
0.400981 0.527197 0.271216
0.689225 0.550000 0.257825
0.994638 0.698041 0.548025
0.996100 0.602488 0.481338
0.681125 0.884350 0.641175
0.680375 0.884350 0.638250
0.835056 0.881875 0.662725
0.972848 0.913969 0.763994
0.974475 0.896075 0.732375
0.686300 0.890200 0.647100
0.686300 0.890200 0.647100
0.766650 0.886300 0.664700
0.982350 0.933300 0.788225
0.996100 0.945100 0.819600
0.000000 0.202000 0.519600
0.000000 0.188250 0.500975
0.527425 0.206850 0.418650
0.971088 0.520575 0.599013
0.996100 0.501950 0.513750
0.000000 0.195113 0.497563
0.000000 0.184666 0.478816
0.501713 0.198781 0.403181
0.977925 0.514688 0.581853
0.995613 0.506875 0.510788
0.011750 0.489200 0.520575
0.034800 0.472063 0.499031
0.486775 0.496563 0.478438
0.974763 0.651975 0.613238
0.996100 0.569600 0.506850
0.272088 0.866663 0.644125
0.298509 0.865931 0.641809
0.661019 0.876469 0.683338
0.962506 0.906516 0.757338
0.968613 0.891688 0.723988
0.547050 0.888250 0.658800
0.577950 0.888250 0.654900
0.694125 0.892150 0.674500
0.980400 0.932338 0.789200
0.992200 0.945100 0.819600
0.289225 0.558850 0.876475
0.289225 0.555869 0.873531
0.311788 0.510263 0.866663
0.896075 0.509806 0.843125
0.910775 0.523550 0.804925
0.286300 0.555869 0.875725
0.284064 0.550000 0.870602
0.304897 0.510528 0.864675
0.888744 0.506150 0.830394
0.913700 0.523550 0.804681
0.344613 0.625488 0.883338
0.328059 0.609800 0.874391
0.352431 0.622544 0.870588
0.863469 0.547672 0.823891
0.897038 0.529450 0.785325
0.103900 0.833350 0.891419
0.107369 0.832375 0.888494
0.080031 0.829450 0.881350
0.880766 0.900225 0.899508
0.930375 0.896338 0.889231
0.013725 0.842125 0.881350
0.013725 0.842125 0.878425
0.010288 0.850025 0.869613
0.889444 0.941200 0.904875
0.980400 0.965675 0.915675
0.298000 0.564700 0.882400
0.298000 0.564700 0.882400
0.298050 0.551000 0.874500
0.863725 0.509825 0.866700
0.917600 0.545100 0.874500
0.298000 0.564700 0.882400
0.298000 0.564700 0.882400
0.293613 0.547050 0.870600
0.860800 0.505900 0.865950
0.917600 0.545100 0.874500
0.296100 0.560750 0.872550
0.300975 0.566200 0.875963
0.295100 0.556850 0.873525
0.829888 0.503913 0.854413
0.911750 0.541200 0.868650
0.265700 0.827425 0.902975
0.257819 0.823525 0.902975
0.253900 0.819625 0.895075
0.841206 0.891688 0.915675
0.894125 0.833325 0.899000
0.239200 0.854900 0.913700
0.239200 0.854900 0.913700
0.235300 0.854900 0.909800
0.772575 0.930400 0.944125
0.984300 0.976500 0.980400
