luts/A_v_log/W-8370-VLOG.cube
# Copyright: (C) Copyright 2010-2019 by IWLTBAP SAS
# Cannot be resold, shared or otherwise redistributed
# Website: https://luts.iwltbap.com
TITLE "IWLTBAP 8370 (V-Log L)"
LUT_3D_SIZE 9
0.011800 0.011800 0.011800
0.011800 0.011800 0.011800
0.163750 0.018625 0.031400
0.515200 0.050963 0.026975
0.892150 0.251000 0.156900
0.997563 0.409338 0.314200
1.000000 0.499975 0.413750
1.000000 0.505900 0.419600
1.000000 0.505900 0.419600
0.011800 0.011800 0.011800
0.014786 0.014786 0.014786
0.167163 0.015578 0.023022
0.508850 0.050475 0.023258
0.892150 0.254656 0.158850
0.997563 0.409338 0.314017
1.000000 0.499975 0.413750
1.000000 0.505900 0.419600
1.000000 0.505900 0.419600
0.074550 0.083325 0.028450
0.083347 0.086759 0.029303
0.167163 0.098800 0.020331
0.474491 0.176353 0.029291
0.861263 0.285788 0.152900
0.995125 0.412263 0.306363
1.000000 0.499975 0.413750
1.000000 0.505900 0.419600
1.000000 0.505900 0.419600
0.235775 0.270588 0.117625
0.230717 0.264555 0.110313
0.301109 0.273025 0.102938
0.427047 0.287553 0.098414
0.832850 0.436525 0.195819
0.988725 0.502511 0.352450
0.996100 0.542991 0.442553
0.992200 0.516680 0.424538
1.000000 0.508338 0.422038
0.405900 0.539200 0.266650
0.405413 0.539200 0.268600
0.424513 0.533300 0.261775
0.534788 0.544106 0.252200
0.700025 0.572525 0.269600
0.940669 0.693163 0.474756
0.991188 0.724025 0.569613
0.996100 0.674538 0.533831
0.996100 0.615650 0.496050
0.598063 0.794125 0.527950
0.598063 0.795125 0.528925
0.606397 0.795625 0.522541
0.648173 0.778988 0.505813
0.788725 0.788213 0.504875
0.888127 0.800852 0.546841
0.961288 0.833341 0.643147
0.975975 0.827620 0.655230
0.975975 0.798513 0.634850
0.683375 0.884350 0.641175
0.683375 0.886909 0.641175
0.683375 0.884350 0.641175
0.720588 0.879400 0.649050
0.849050 0.886300 0.661750
0.944134 0.909313 0.710775
0.978450 0.917625 0.770575
0.978450 0.913359 0.770597
0.974475 0.899975 0.742125
0.686300 0.890200 0.647100
0.686300 0.890200 0.647100
0.686300 0.890200 0.647100
0.710953 0.884350 0.653438
0.816425 0.888250 0.666650
0.936263 0.912725 0.712275
0.988709 0.937778 0.801584
0.996100 0.945100 0.819600
0.996100 0.945100 0.816188
0.686300 0.890200 0.647100
0.686300 0.890200 0.647100
0.686300 0.890200 0.647100
0.688738 0.887763 0.647100
0.772550 0.888250 0.664700
0.926450 0.908825 0.705350
0.982350 0.934300 0.792125
0.996100 0.945100 0.819600
0.996100 0.945100 0.819600
0.007800 0.011800 0.019600
0.011300 0.011800 0.011800
0.141159 0.014725 0.030425
0.478450 0.041180 0.020575
0.879144 0.243638 0.151200
0.997380 0.409338 0.314200
0.999634 0.499975 0.413750
1.000000 0.505900 0.419600
1.000000 0.505900 0.419600
0.007800 0.011800 0.019113
0.011300 0.011300 0.011800
0.133130 0.011800 0.023022
0.483653 0.043125 0.020688
0.876511 0.241474 0.147538
0.995354 0.406938 0.307346
0.999314 0.499975 0.413750
1.000000 0.505900 0.419600
1.000000 0.505900 0.419600
0.053413 0.076013 0.031863
0.067655 0.076013 0.025891
0.157838 0.089049 0.023519
0.476259 0.169230 0.028925
0.861130 0.276956 0.151559
0.991892 0.408957 0.307230
0.997715 0.499975 0.413750
0.999680 0.505900 0.419600
1.000000 0.505900 0.419600
0.224508 0.261470 0.111288
0.227702 0.262323 0.115210
0.285292 0.252846 0.096084
0.417281 0.279306 0.097690
0.819834 0.427852 0.185706
0.987872 0.495028 0.345307
0.996420 0.539395 0.434969
0.992200 0.513379 0.424538
0.996100 0.508338 0.419600
0.400000 0.525988 0.261044
0.394832 0.520587 0.259094
0.420075 0.525013 0.255648
0.528115 0.525240 0.242906
0.699372 0.565213 0.267166
0.939846 0.689060 0.473616
0.993780 0.712203 0.559033
0.994150 0.665675 0.524763
0.996100 0.611506 0.490200
0.598063 0.794125 0.527950
0.590658 0.787908 0.521733
0.598891 0.788213 0.521413
0.643198 0.778727 0.503680
0.786135 0.792052 0.509081
0.884203 0.795473 0.541661
0.957359 0.827569 0.637775
0.973842 0.824992 0.651275
0.979388 0.799792 0.632163
0.683375 0.886909 0.641175
0.683375 0.884350 0.641175
0.680375 0.884350 0.641175
0.718698 0.880253 0.648730
0.845470 0.885813 0.660044
0.943152 0.905413 0.709275
0.974494 0.914700 0.764725
0.978450 0.913359 0.767217
0.977953 0.899975 0.741759
0.686300 0.890200 0.647100
0.686300 0.890200 0.647100
0.686300 0.890200 0.647100
0.705192 0.882621 0.649964
0.811207 0.889956 0.666869
0.939736 0.912565 0.712359
0.988709 0.937778 0.801584
0.996100 0.945100 0.819600
0.996100 0.945100 0.816188
0.686300 0.890200 0.647100
0.686300 0.890200 0.647100
0.686300 0.890200 0.647100
0.688738 0.886300 0.647100
0.771088 0.888250 0.664700
0.923038 0.908825 0.702913
0.982350 0.934300 0.792125
0.996100 0.945100 0.816614
0.996100 0.945100 0.819600
0.029425 0.025525 0.051950
0.021550 0.025525 0.047075
0.088713 0.018625 0.059775
0.399744 0.038250 0.098038
0.830888 0.222088 0.186275
0.987872 0.396075 0.306363
1.000000 0.497050 0.413019
1.000000 0.503341 0.417041
1.000000 0.505900 0.419600
0.025525 0.025525 0.050975
0.025525 0.025525 0.047075
0.072300 0.016431 0.051920
0.381671 0.031850 0.082966
0.814053 0.215127 0.173273
0.989654 0.394247 0.306591
1.000000 0.497050 0.410769
1.000000 0.505580 0.419280
1.000000 0.505900 0.419600
0.027006 0.068625 0.071550
0.027109 0.066431 0.064706
0.103005 0.074958 0.070570
0.376462 0.117607 0.086852
0.809797 0.245575 0.167528
0.988969 0.394978 0.301853
0.996527 0.497050 0.410769
1.000000 0.505900 0.419600
1.000000 0.505900 0.419600
0.151953 0.250472 0.137863
0.145554 0.236386 0.130337
0.227956 0.243638 0.130548
0.377383 0.254975 0.112625
0.805277 0.403486 0.191058
0.983911 0.482972 0.338091
0.996100 0.536988 0.432195
0.996100 0.510775 0.415258
0.996100 0.506509 0.419600
0.375988 0.525988 0.274525
0.371820 0.514725 0.265370
0.400981 0.527197 0.271216
0.508152 0.515517 0.239272
0.689225 0.550000 0.257825
0.936769 0.678011 0.465064
0.994638 0.698041 0.548025
0.996039 0.657863 0.521439
0.996100 0.602488 0.481338
0.593028 0.793500 0.527341
0.587649 0.784632 0.523425
0.582578 0.779128 0.509691
0.630463 0.772277 0.493466
0.779217 0.776972 0.490608
0.879617 0.791536 0.533102
0.961899 0.826137 0.637775
0.975442 0.817138 0.646779
0.976950 0.797050 0.629022
0.681125 0.884350 0.641175
0.680375 0.884350 0.641175
0.680375 0.884350 0.638250
0.713727 0.874635 0.644130
0.835056 0.881875 0.662725
0.937253 0.901466 0.701018
0.972848 0.913969 0.763994
0.975438 0.910313 0.757216
0.974475 0.896075 0.732375
0.686300 0.890200 0.647100
0.686300 0.889880 0.647100
0.686300 0.890200 0.647100
0.704659 0.885508 0.652097
0.808142 0.889956 0.666406
0.934861 0.910958 0.710317
0.986516 0.937778 0.798568
0.995673 0.944673 0.819173
0.992688 0.941688 0.816188
0.686300 0.890200 0.647100
0.686300 0.890200 0.647100
0.686300 0.890200 0.647100
0.688738 0.887397 0.647100
0.766650 0.886300 0.664700
0.916175 0.906388 0.695113
0.982350 0.933300 0.788225
0.996100 0.945100 0.818747
0.996100 0.945100 0.819600
0.014725 0.071050 0.207850
0.014725 0.071050 0.204438
0.026706 0.066663 0.197550
0.262202 0.069039 0.200803
0.709063 0.175231 0.268625
0.972856 0.377364 0.381863
0.997075 0.492150 0.446088
1.000000 0.498000 0.426670
1.000000 0.502000 0.418138
0.014725 0.071050 0.200483
0.014725 0.071050 0.196881
0.021334 0.066129 0.187749
0.257902 0.062702 0.186884
0.694313 0.174839 0.263144
0.977389 0.378751 0.375745
0.997075 0.491921 0.443391
0.997563 0.495403 0.423882
1.000000 0.499500 0.418138
0.027363 0.112641 0.204422
0.028459 0.100476 0.188564
0.065316 0.098555 0.181941
0.242137 0.095667 0.179586
0.684739 0.181131 0.251467
0.969325 0.368834 0.359868
0.996252 0.490688 0.441215
0.998400 0.495563 0.416675
0.998172 0.499500 0.418138
0.081327 0.229255 0.232302
0.077589 0.219583 0.225256
0.119250 0.224702 0.220291
0.284512 0.233207 0.219198
0.684849 0.315668 0.262493
0.963114 0.447839 0.370513
0.996100 0.521867 0.451656
0.996100 0.499411 0.415383
0.996648 0.503463 0.419600
0.173250 0.488238 0.312019
0.182948 0.489213 0.301859
0.212750 0.485117 0.296886
0.394222 0.487811 0.298074
0.640572 0.520847 0.299394
0.925913 0.671075 0.485361
0.992481 0.684727 0.542841
0.995034 0.641675 0.508819
0.996100 0.591663 0.472063
0.494344 0.776450 0.533373
0.494481 0.771212 0.527158
0.497607 0.762336 0.514520
0.570142 0.762275 0.511907
0.749494 0.761757 0.493960
0.869913 0.785105 0.533130
0.955091 0.823050 0.634409
0.974642 0.810247 0.641180
0.979898 0.793638 0.625061
0.659456 0.881866 0.651488
0.661556 0.883506 0.648005
0.662512 0.883741 0.647559
0.695700 0.880393 0.652874
0.819188 0.882363 0.663700
0.930900 0.898970 0.699632
0.971679 0.911897 0.755102
0.976116 0.907451 0.754091
0.971672 0.893272 0.727925
0.681363 0.890200 0.647100
0.681675 0.887907 0.649233
0.683081 0.888067 0.649233
0.692150 0.888433 0.650513
0.793777 0.889316 0.666406
0.930720 0.911438 0.710317
0.982350 0.934300 0.795744
0.994234 0.945100 0.817307
0.992688 0.941688 0.816188
0.686300 0.890200 0.647100
0.686300 0.890200 0.643100
0.686300 0.890200 0.643100
0.684838 0.886300 0.645600
0.753181 0.884350 0.658800
0.909798 0.902448 0.691213
0.982350 0.930375 0.780791
0.996100 0.945100 0.817467
0.996100 0.945100 0.819600
0.000000 0.202000 0.519600
0.000000 0.201750 0.526713
0.000000 0.188250 0.500975
0.084088 0.179913 0.476438
0.527425 0.206850 0.418650
0.855400 0.393625 0.534556
0.971088 0.520575 0.599013
0.988494 0.501950 0.550256
0.996100 0.501950 0.513750
0.000000 0.194588 0.505375
0.000000 0.192424 0.508369
0.000000 0.185592 0.500731
0.074092 0.174013 0.463306
0.511897 0.202950 0.423403
0.853054 0.394048 0.527854
0.975000 0.513230 0.589031
0.988250 0.501493 0.551262
0.992644 0.509063 0.513994
0.000000 0.195113 0.497563
0.000000 0.188206 0.485409
0.000000 0.184666 0.478816
0.071586 0.181253 0.456558
0.501713 0.198781 0.403181
0.850502 0.383586 0.517717
0.977925 0.514688 0.581853
0.990992 0.505070 0.546384
0.995613 0.506875 0.510788
0.011538 0.318875 0.503169
0.010444 0.315419 0.502194
0.022689 0.308217 0.489830
0.163877 0.300669 0.466425
0.475256 0.263863 0.406003
0.838950 0.406698 0.508130
0.975000 0.506069 0.564944
0.991419 0.501798 0.529925
0.994150 0.502681 0.489194
0.011750 0.489200 0.520575
0.016553 0.483300 0.506613
0.034800 0.472063 0.499031
0.161153 0.468391 0.481384
0.486775 0.496563 0.478438
0.847797 0.597781 0.562381
0.974763 0.651975 0.613238
0.990569 0.616547 0.576466
0.996100 0.569600 0.506850
0.045594 0.738969 0.592644
0.049817 0.733331 0.590431
0.054355 0.729413 0.575681
0.113882 0.723958 0.569806
0.560175 0.737734 0.574150
0.834341 0.772841 0.592723
0.948163 0.824147 0.689084
0.967785 0.808202 0.672105
0.981844 0.787238 0.643400
0.272088 0.866663 0.644125
0.268930 0.865139 0.643638
0.298509 0.865931 0.641809
0.367345 0.872806 0.651473
0.661019 0.876469 0.683338
0.914145 0.896075 0.713347
0.962506 0.906516 0.757338
0.975544 0.902473 0.754947
0.968613 0.891688 0.723988
0.410513 0.884838 0.643638
0.427006 0.884838 0.647087
0.444797 0.884838 0.645594
0.489113 0.886970 0.651000
0.693003 0.891297 0.682838
0.914880 0.911750 0.725238
0.979913 0.938027 0.800061
0.990632 0.941688 0.810330
0.988700 0.943394 0.817894
0.547050 0.888250 0.658800
0.570356 0.888250 0.652950
0.577950 0.888250 0.654900
0.605638 0.884350 0.652950
0.694125 0.892150 0.674500
0.896319 0.904925 0.701238
0.980400 0.932338 0.789200
0.992200 0.945100 0.817894
0.992200 0.945100 0.819600
0.090675 0.418150 0.794125
0.098834 0.416680 0.793325
0.076013 0.402459 0.780900
0.079523 0.392638 0.772550
0.356113 0.357106 0.749000
0.764445 0.368856 0.690030
0.895588 0.502947 0.705875
0.913708 0.527913 0.694808
0.922050 0.532875 0.682375
0.080100 0.408338 0.784313
0.086742 0.412786 0.787603
0.085275 0.405534 0.782972
0.065619 0.387580 0.767569
0.339895 0.359056 0.750250
0.761101 0.365064 0.680683
0.895892 0.498756 0.696209
0.911263 0.527333 0.696552
0.923330 0.534642 0.677463
0.078938 0.401850 0.783825
0.064272 0.391663 0.771795
0.061927 0.390688 0.769348
0.057963 0.379473 0.764225
0.326633 0.350244 0.739536
0.752220 0.359945 0.678253
0.892775 0.498543 0.689581
0.913754 0.527834 0.693025
0.925950 0.530375 0.678438
0.080934 0.421808 0.778425
0.073098 0.411622 0.771858
0.065319 0.405133 0.768323
0.057511 0.401637 0.758192
0.323434 0.399755 0.735281
0.733374 0.366063 0.656764
0.883450 0.497903 0.682923
0.915313 0.529408 0.688243
0.926964 0.534338 0.672038
0.109788 0.591913 0.783825
0.122069 0.591913 0.781052
0.120838 0.586831 0.777717
0.115007 0.572587 0.764469
0.388481 0.598022 0.756994
0.699605 0.514199 0.687559
0.875523 0.583281 0.702147
0.914142 0.580639 0.695777
0.924275 0.557338 0.669356
0.009933 0.740139 0.792014
0.012675 0.737297 0.788030
0.007359 0.728520 0.775805
0.013322 0.725306 0.775907
0.263029 0.732190 0.758802
0.699709 0.754450 0.751435
0.900075 0.787376 0.775927
0.935528 0.776594 0.764009
0.949161 0.738348 0.718711
0.000000 0.853925 0.803425
0.000000 0.851341 0.804771
0.000000 0.847072 0.798520
0.000000 0.846311 0.788456
0.090188 0.846317 0.773794
0.741552 0.882348 0.796081
0.936273 0.902919 0.808826
0.957359 0.906508 0.812571
0.960313 0.891200 0.780025
0.000305 0.867333 0.788883
0.000305 0.867661 0.777358
0.000609 0.867456 0.772998
0.005497 0.868953 0.761592
0.093211 0.871575 0.751658
0.718852 0.906356 0.791794
0.971312 0.935696 0.842696
0.986920 0.949975 0.853786
0.984788 0.945283 0.838750
0.022063 0.862700 0.743650
0.036141 0.868645 0.732338
0.038578 0.867309 0.728559
0.049000 0.870052 0.719150
0.105156 0.873038 0.713713
0.692459 0.899500 0.766114
0.967894 0.935791 0.816300
0.990700 0.949975 0.844783
0.988200 0.946563 0.833350
0.289225 0.558850 0.876475
0.292150 0.558850 0.879400
0.289225 0.555869 0.873531
0.286788 0.549513 0.871941
0.311788 0.510263 0.866663
0.694953 0.461872 0.858816
0.896075 0.509806 0.843125
0.910288 0.523550 0.828544
0.910775 0.523550 0.804925
0.289591 0.558850 0.876841
0.289225 0.558850 0.876475
0.289225 0.555852 0.876107
0.283197 0.546086 0.866659
0.309258 0.510263 0.869138
0.689545 0.462361 0.857856
0.893180 0.509806 0.840566
0.907302 0.523550 0.825878
0.906875 0.519575 0.798025
0.286300 0.555869 0.875725
0.284331 0.552925 0.873531
0.284064 0.550000 0.870602
0.279803 0.545597 0.866166
0.304897 0.510528 0.864675
0.672641 0.468546 0.860524
0.888744 0.506150 0.830394
0.909800 0.523550 0.826558
0.913700 0.523550 0.804681
0.274516 0.541172 0.870113
0.272567 0.539225 0.867346
0.274251 0.543759 0.870021
0.274525 0.538734 0.864675
0.292394 0.521922 0.862055
0.651686 0.467157 0.854080
0.886502 0.505291 0.833863
0.904742 0.521066 0.813405
0.906875 0.513222 0.791053
0.344613 0.625488 0.883338
0.337245 0.619444 0.877561
0.328059 0.609800 0.874391
0.321417 0.602475 0.866663
0.352431 0.622544 0.870588
0.638852 0.588922 0.866139
0.863469 0.547672 0.823891
0.897038 0.542219 0.802463
0.897038 0.529450 0.785325
0.284191 0.770588 0.888250
0.287051 0.769932 0.887763
0.297516 0.766230 0.884350
0.305872 0.764906 0.884350
0.327400 0.755820 0.884350
0.676367 0.796484 0.883286
0.837641 0.730448 0.841836
0.880759 0.717940 0.833907
0.882400 0.673644 0.805669
0.103900 0.833350 0.891419
0.100000 0.832375 0.888494
0.107369 0.832375 0.888494
0.082359 0.832375 0.885325
0.080031 0.829450 0.881350
0.528969 0.868856 0.897416
0.880766 0.900225 0.899508
0.929860 0.911590 0.900121
0.930375 0.896338 0.889231
0.072659 0.842734 0.892172
0.033789 0.840068 0.882546
0.031955 0.840053 0.882859
0.025588 0.839886 0.881670
0.018550 0.848369 0.877084
0.400304 0.881545 0.889884
0.916534 0.944125 0.922037
0.973374 0.968722 0.936311
0.975991 0.962263 0.922525
0.013725 0.842125 0.881350
0.013725 0.845603 0.878791
0.013725 0.842125 0.878425
0.013725 0.846100 0.878425
0.010288 0.850025 0.869613
0.271713 0.873059 0.873063
0.889444 0.941200 0.904875
0.979547 0.965675 0.925150
0.980400 0.965675 0.915675
0.298000 0.564700 0.882400
0.298000 0.564700 0.882400
0.298000 0.564700 0.882400
0.290688 0.556900 0.876455
0.307600 0.545594 0.874500
0.619308 0.489895 0.876458
0.880009 0.513725 0.863700
0.917600 0.545100 0.874500
0.917600 0.545100 0.874500
0.298000 0.564700 0.882400
0.298000 0.564700 0.882400
0.298000 0.564700 0.882400
0.292417 0.558401 0.876267
0.297806 0.539230 0.872337
0.597020 0.492089 0.881697
0.879522 0.513238 0.866200
0.917600 0.545100 0.874500
0.917600 0.542114 0.871514
0.295441 0.562141 0.879775
0.295441 0.562141 0.879775
0.298000 0.564700 0.881744
0.294100 0.557266 0.874683
0.300183 0.545588 0.870600
0.593413 0.493984 0.882992
0.873937 0.511409 0.863669
0.917600 0.545100 0.874500
0.917600 0.544247 0.873647
0.285813 0.546563 0.870783
0.279900 0.544125 0.872002
0.280271 0.545100 0.872063
0.286414 0.549114 0.870600
0.293748 0.539948 0.868741
0.575170 0.496938 0.885211
0.867381 0.508180 0.864825
0.915734 0.542967 0.872367
0.917600 0.541688 0.871088
0.322569 0.589175 0.882150
0.320613 0.583813 0.879906
0.311263 0.575153 0.876450
0.307600 0.573054 0.875231
0.313966 0.576469 0.871575
0.562308 0.585527 0.892180
0.850130 0.527823 0.855692
0.904438 0.545617 0.856850
0.904438 0.535794 0.861244
0.377925 0.765888 0.895380
0.375906 0.760283 0.894100
0.379748 0.749167 0.891663
0.378108 0.743430 0.895075
0.387374 0.738825 0.894984
0.615946 0.779583 0.906753
0.825245 0.705888 0.872321
0.887031 0.676438 0.868863
0.889042 0.639213 0.858130
0.276978 0.837250 0.906875
0.260103 0.836884 0.906388
0.253666 0.836763 0.906875
0.252926 0.831470 0.902366
0.257600 0.828738 0.902975
0.423848 0.854904 0.911263
0.877084 0.910952 0.927118
0.910143 0.894127 0.920672
0.898025 0.864700 0.902778
0.239200 0.854900 0.913700
0.238827 0.854527 0.913327
0.238773 0.854473 0.913273
0.236374 0.852341 0.911407
0.232911 0.852980 0.906174
0.308198 0.872934 0.914690
0.884414 0.947559 0.946090
0.964761 0.965188 0.961714
0.965188 0.965188 0.957448
0.232375 0.851488 0.910288
0.229389 0.851488 0.910288
0.228963 0.851488 0.910288
0.228963 0.851488 0.910288
0.221319 0.851488 0.906388
0.239964 0.864505 0.912725
0.823038 0.940703 0.943638
0.973000 0.972500 0.968600
0.976500 0.972500 0.961775
0.298000 0.564700 0.882400
0.298000 0.564700 0.882400
0.298000 0.564700 0.882400
0.298000 0.562263 0.879900
0.298050 0.551000 0.874500
0.501963 0.497575 0.888738
0.863725 0.509825 0.866700
0.917600 0.545100 0.874500
0.917600 0.545100 0.874500
0.298000 0.564700 0.882400
0.298000 0.564700 0.882400
0.298000 0.564700 0.882400
0.294588 0.558667 0.878400
0.290200 0.543150 0.870844
0.496113 0.497263 0.886970
0.863725 0.506025 0.863209
0.917600 0.542114 0.871514
0.917600 0.545100 0.874500
0.298000 0.564700 0.882400
0.298000 0.564700 0.882400
0.298000 0.564700 0.882400
0.291663 0.558363 0.875963
0.293613 0.547050 0.870600
0.490528 0.498184 0.886300
0.860800 0.505900 0.865950
0.917600 0.541688 0.871088
0.917600 0.545100 0.874500
0.291663 0.558363 0.875963
0.294100 0.558363 0.875963
0.295197 0.558363 0.877791
0.292577 0.557448 0.875963
0.284594 0.544613 0.871331
0.468673 0.510250 0.888738
0.847050 0.494978 0.856363
0.914188 0.541688 0.871088
0.917600 0.545100 0.874500
0.296100 0.560750 0.872550
0.300244 0.564950 0.876450
0.300975 0.566200 0.875963
0.296100 0.559531 0.874500
0.295100 0.556850 0.873525
0.455381 0.547813 0.884838
0.829888 0.503913 0.854413
0.904438 0.535300 0.857094
0.911750 0.541200 0.868650
0.382313 0.732338 0.891663
0.384125 0.736300 0.894100
0.387775 0.729900 0.892272
0.380789 0.722002 0.890200
0.402438 0.717644 0.898000
0.528695 0.736483 0.904986
0.798634 0.663350 0.869625
0.889042 0.639213 0.860263
0.895075 0.601963 0.862700
0.265700 0.827425 0.902975
0.254388 0.826084 0.902975
0.257819 0.823525 0.902975
0.269478 0.821088 0.904438
0.253900 0.819625 0.895075
0.364103 0.830509 0.907363
0.841206 0.891688 0.915675
0.891688 0.857500 0.906400
0.894125 0.833325 0.899000
0.239200 0.854900 0.913700
0.235788 0.851488 0.913700
0.235788 0.851488 0.910288
0.235788 0.851488 0.910288
0.222044 0.853194 0.908094
0.269430 0.864992 0.914530
0.837119 0.936372 0.942663
0.958363 0.961348 0.961348
0.962263 0.965188 0.965675
0.239200 0.854900 0.913700
0.239200 0.854900 0.913700
0.239200 0.854900 0.913700
0.239200 0.854900 0.913700
0.235300 0.854900 0.909800
0.243663 0.861763 0.911263
0.772575 0.930400 0.944125
0.973000 0.973000 0.973000
0.984300 0.976500 0.980400
