luts/A_v_log/W-8370-VLOG.cube
# Copyright: (C) Copyright 2010-2019 by IWLTBAP SAS
# Cannot be resold, shared or otherwise redistributed
# Website: https://luts.iwltbap.com
TITLE "IWLTBAP 8370 (V-Log L)"
LUT_3D_SIZE 33
0.011800 0.011800 0.011800
0.011800 0.011800 0.011800
0.011800 0.011800 0.011800
0.011800 0.011800 0.011800
0.011800 0.011800 0.011800
0.038209 0.011800 0.018381
0.068613 0.011800 0.029188
0.114344 0.014847 0.031400
0.163750 0.018625 0.031400
0.230047 0.019600 0.028597
0.307581 0.019600 0.022069
0.402797 0.027344 0.019600
0.515200 0.050963 0.026975
0.630625 0.102303 0.054675
0.737969 0.160281 0.090456
0.823878 0.207250 0.122581
0.892150 0.251000 0.156900
0.943875 0.296578 0.194875
0.974981 0.338750 0.232850
0.991409 0.375141 0.272409
0.997563 0.409338 0.314200
1.000000 0.442159 0.351959
1.000000 0.468856 0.379875
1.000000 0.486788 0.400516
1.000000 0.499975 0.413750
1.000000 0.505900 0.419600
1.000000 0.505900 0.419600
1.000000 0.505900 0.419600
1.000000 0.505900 0.419600
1.000000 0.505900 0.419600
1.000000 0.505900 0.419600
1.000000 0.505900 0.419600
1.000000 0.505900 0.419600
0.011800 0.011800 0.011800
0.011800 0.011800 0.011800
0.011800 0.011800 0.011800
0.011800 0.011800 0.011800
0.011800 0.011800 0.011800
0.035022 0.011800 0.015193
0.064834 0.011800 0.025409
0.110566 0.011895 0.030574
0.159899 0.014847 0.031400
0.223456 0.018537 0.028597
0.297397 0.019600 0.022069
0.391463 0.024864 0.019600
0.503805 0.047184 0.024614
0.621495 0.098525 0.050897
0.732538 0.156503 0.086678
0.820100 0.203420 0.120810
0.890261 0.249063 0.156900
0.943875 0.296578 0.194875
0.974981 0.338750 0.232850
0.991409 0.373606 0.270875
0.997563 0.406976 0.310422
1.000000 0.442159 0.349480
1.000000 0.468856 0.379875
1.000000 0.486788 0.400516
1.000000 0.499975 0.413750
1.000000 0.505900 0.419600
1.000000 0.505900 0.419600
1.000000 0.505900 0.419600
1.000000 0.505900 0.419600
1.000000 0.505900 0.419600
1.000000 0.505900 0.419600
1.000000 0.505900 0.419600
1.000000 0.505900 0.419600
0.011800 0.011800 0.011800
0.011800 0.011800 0.011800
0.011800 0.011800 0.011800
0.011800 0.011800 0.011800
0.011800 0.011800 0.011800
0.034919 0.011800 0.015091
0.061742 0.011800 0.022241
0.106714 0.011800 0.029727
0.156095 0.014725 0.034142
0.216960 0.018503 0.032253
0.289692 0.022114 0.025725
0.381291 0.026041 0.020857
0.494719 0.044777 0.024538
0.616058 0.094747 0.048548
0.728706 0.154782 0.082806
0.818264 0.203297 0.118995
0.890200 0.249000 0.156900
0.943875 0.296578 0.194875
0.974981 0.338750 0.232850
0.991409 0.373556 0.270825
0.997563 0.406900 0.308894
1.000000 0.442159 0.346939
1.000000 0.468856 0.379875
1.000000 0.486788 0.400516
1.000000 0.499975 0.413750
1.000000 0.505900 0.419600
1.000000 0.505900 0.419600
1.000000 0.505900 0.419600
1.000000 0.505900 0.419600
1.000000 0.505900 0.419600
1.000000 0.505900 0.419600
1.000000 0.505900 0.419600
1.000000 0.505900 0.419600
0.011800 0.011800 0.011800
0.011800 0.011800 0.011800
0.011800 0.011800 0.011800
0.011800 0.011800 0.011800
0.011800 0.011800 0.011800
0.037901 0.011800 0.015091
0.065078 0.011800 0.019166
0.112832 0.011800 0.023305
0.163009 0.014725 0.027234
0.223635 0.018503 0.027968
0.296331 0.022281 0.024864
0.387737 0.026125 0.020941
0.501206 0.046834 0.024538
0.620686 0.095939 0.048400
0.730009 0.154675 0.082556
0.818150 0.205223 0.118878
0.891967 0.252580 0.158667
0.947409 0.298456 0.196753
0.976969 0.338750 0.232850
0.991409 0.374992 0.272261
0.997563 0.409109 0.312368
1.000000 0.442159 0.349154
1.000000 0.468856 0.379875
1.000000 0.486788 0.400516
1.000000 0.499975 0.413750
1.000000 0.505900 0.419600
1.000000 0.505900 0.419600
1.000000 0.505900 0.419600
1.000000 0.505900 0.419600
1.000000 0.505900 0.419600
1.000000 0.505900 0.419600
1.000000 0.505900 0.419600
1.000000 0.505900 0.419600
0.011800 0.011800 0.011800
0.011800 0.011800 0.011800
0.011800 0.011800 0.011800
0.011800 0.011800 0.011800
0.014786 0.014786 0.014786
0.041696 0.015213 0.015624
0.068873 0.015213 0.018869
0.116903 0.015213 0.019981
0.167163 0.015578 0.023022
0.227844 0.018503 0.024000
0.300509 0.022281 0.021310
0.394181 0.028364 0.017528
0.508850 0.050475 0.023258
0.624008 0.099500 0.046374
0.728200 0.156168 0.079144
0.816509 0.207235 0.117279
0.892150 0.254656 0.158850
0.947775 0.298650 0.196947
0.977175 0.338750 0.232850
0.991409 0.375141 0.272409
0.997563 0.409338 0.314017
1.000000 0.442159 0.351639
1.000000 0.468856 0.379875
1.000000 0.486788 0.400516
1.000000 0.499975 0.413750
1.000000 0.505900 0.419600
1.000000 0.505900 0.419600
1.000000 0.505900 0.419600
1.000000 0.505900 0.419600
1.000000 0.505900 0.419600
1.000000 0.505900 0.419600
1.000000 0.505900 0.419600
1.000000 0.505900 0.419600
0.015091 0.021672 0.011800
0.015091 0.021672 0.011800
0.018176 0.021672 0.011800
0.021363 0.021672 0.011800
0.025158 0.025158 0.015213
0.046526 0.025656 0.015700
0.069979 0.025656 0.018869
0.114820 0.030798 0.019600
0.161828 0.034705 0.020057
0.219310 0.035966 0.020209
0.288781 0.041139 0.017528
0.381750 0.050701 0.013750
0.496591 0.072077 0.019732
0.613116 0.113988 0.042759
0.718010 0.162588 0.075366
0.808151 0.209036 0.113715
0.887214 0.254900 0.155517
0.944484 0.297068 0.193656
0.975324 0.335412 0.229559
0.991409 0.373187 0.270456
0.997563 0.409338 0.314200
1.000000 0.442159 0.351959
1.000000 0.468856 0.379875
1.000000 0.486788 0.400516
1.000000 0.499975 0.413750
1.000000 0.505900 0.419600
1.000000 0.505900 0.419600
1.000000 0.505900 0.419600
1.000000 0.505900 0.419600
1.000000 0.505900 0.419600
1.000000 0.505900 0.419600
1.000000 0.505900 0.419600
1.000000 0.505900 0.419600
0.018869 0.036256 0.014969
0.021938 0.033187 0.014969
0.025770 0.033088 0.014969
0.032425 0.033088 0.014969
0.039289 0.036516 0.018381
0.051982 0.037006 0.018869
0.070688 0.039581 0.019463
0.111868 0.046332 0.019600
0.155205 0.053358 0.019600
0.211300 0.057403 0.017322
0.277947 0.063725 0.013750
0.369709 0.076005 0.009919
0.482570 0.098280 0.015913
0.600198 0.135081 0.040856
0.708405 0.174315 0.074756
0.800228 0.212331 0.113097
0.879881 0.254900 0.153275
0.938980 0.296775 0.191320
0.971813 0.334794 0.228950
0.988241 0.372825 0.268806
0.995582 0.409338 0.311031
1.000000 0.442159 0.349880
1.000000 0.468856 0.379875
1.000000 0.486788 0.400516
1.000000 0.499975 0.413750
1.000000 0.505900 0.419600
1.000000 0.505900 0.419600
1.000000 0.505900 0.419600
1.000000 0.505900 0.419600
1.000000 0.505900 0.419600
1.000000 0.505900 0.419600
1.000000 0.505900 0.419600
1.000000 0.505900 0.419600
0.044131 0.057559 0.018747
0.044958 0.056733 0.018747
0.045805 0.056706 0.018747
0.052928 0.056706 0.018747
0.060553 0.060187 0.022159
0.074065 0.060684 0.022647
0.089770 0.063853 0.020171
0.122454 0.068315 0.019600
0.158495 0.075268 0.019600
0.212884 0.086610 0.016797
0.281164 0.099899 0.013019
0.369618 0.116575 0.011226
0.477996 0.138288 0.020204
0.596462 0.169435 0.044876
0.706613 0.202577 0.077803
0.795510 0.234241 0.114525
0.870783 0.268689 0.152900
0.931566 0.305994 0.190922
0.969367 0.341312 0.228950
0.987509 0.374634 0.267272
0.995125 0.409338 0.307224
1.000000 0.442159 0.347349
1.000000 0.468856 0.379875
1.000000 0.486788 0.400516
1.000000 0.499975 0.413750
1.000000 0.505900 0.419600
1.000000 0.505900 0.419600
1.000000 0.505900 0.419600
1.000000 0.505900 0.419600
1.000000 0.505900 0.419600
1.000000 0.505900 0.419600
1.000000 0.505900 0.419600
1.000000 0.505900 0.419600
0.074550 0.083325 0.028450
0.071644 0.083325 0.028450
0.068808 0.083325 0.028450
0.075762 0.083325 0.028450
0.083347 0.086759 0.029303
0.100040 0.087250 0.029425
0.115686 0.090419 0.026256
0.139289 0.094255 0.023181
0.167163 0.098800 0.020331
0.219609 0.113394 0.016797
0.286458 0.133441 0.015030
0.369298 0.153038 0.016645
0.474491 0.176353 0.029291
0.593116 0.205523 0.054904
0.703655 0.234636 0.085861
0.790084 0.259030 0.117702
0.861263 0.285788 0.152900
0.922327 0.318979 0.190922
0.964275 0.351955 0.228950
0.985773 0.381539 0.266925
0.995125 0.412263 0.306363
1.000000 0.444079 0.346775
1.000000 0.468856 0.379875
1.000000 0.486788 0.400516
1.000000 0.499975 0.413750
1.000000 0.505900 0.419600
1.000000 0.505900 0.419600
1.000000 0.505900 0.419600
1.000000 0.505900 0.419600
1.000000 0.505900 0.419600
1.000000 0.505900 0.419600
1.000000 0.505900 0.419600
1.000000 0.505900 0.419600
0.104897 0.121178 0.042684
0.103807 0.121178 0.042684
0.100116 0.121178 0.042684
0.106966 0.121178 0.042684
0.114588 0.122138 0.042684
0.129744 0.119910 0.042684
0.145125 0.122641 0.039457
0.166428 0.124251 0.035644
0.190038 0.127476 0.029757
0.229119 0.138475 0.027293
0.282783 0.156620 0.026984
0.364239 0.179676 0.031383
0.470697 0.207305 0.044186
0.589313 0.237270 0.069128
0.699866 0.265450 0.097930
0.785775 0.287881 0.124097
0.855997 0.311331 0.154338
0.917031 0.342141 0.192236
0.961161 0.373393 0.232979
0.985194 0.399466 0.273699
0.995125 0.426274 0.314844
1.000000 0.455040 0.353329
1.000000 0.475563 0.382728
1.000000 0.489611 0.404107
1.000000 0.502832 0.419374
1.000000 0.508703 0.425278
1.000000 0.508178 0.424739
1.000000 0.505900 0.421965
1.000000 0.505900 0.419600
1.000000 0.505900 0.419600
1.000000 0.505900 0.419600
1.000000 0.505900 0.419600
1.000000 0.505900 0.419600
0.140650 0.163000 0.060575
0.140650 0.163000 0.060575
0.139507 0.163000 0.060575
0.144132 0.163000 0.060575
0.151471 0.163000 0.058169
0.163435 0.159651 0.057825
0.178225 0.160021 0.054631
0.197433 0.160250 0.050847
0.217602 0.161188 0.046155
0.245150 0.166104 0.042948
0.284217 0.179538 0.042194
0.358814 0.204586 0.049072
0.462536 0.236238 0.062488
0.580172 0.269236 0.085427
0.690686 0.296991 0.110998
0.778027 0.319692 0.132889
0.852219 0.343869 0.160297
0.914678 0.371602 0.198149
0.957863 0.399507 0.239949
0.982485 0.423395 0.282843
0.992401 0.445520 0.326232
0.997319 0.468950 0.363061
0.997319 0.486279 0.389206
0.997319 0.498005 0.410894
0.997319 0.508642 0.426989
0.997319 0.512481 0.432863
0.997319 0.511750 0.431623
0.997319 0.508162 0.425211
0.997319 0.505900 0.419600
0.997319 0.505900 0.419600
0.997486 0.505900 0.419600
1.000000 0.505900 0.419600
1.000000 0.505900 0.419600
0.186369 0.212528 0.087241
0.183889 0.210049 0.084761
0.183809 0.209969 0.084681
0.185055 0.209969 0.084681
0.189770 0.209969 0.081239
0.202541 0.210968 0.080747
0.217541 0.211153 0.077578
0.237796 0.211153 0.075800
0.257344 0.211153 0.072581
0.276419 0.208415 0.066916
0.303637 0.211054 0.063322
0.357479 0.228242 0.066841
0.441967 0.258425 0.078916
0.553350 0.297220 0.101092
0.666763 0.333721 0.125493
0.762461 0.362407 0.147575
0.847128 0.388369 0.175613
0.912907 0.411329 0.212266
0.954056 0.431573 0.252703
0.979695 0.451029 0.295057
0.991163 0.468053 0.336659
0.996100 0.485420 0.371460
0.996100 0.500259 0.396028
0.996100 0.511622 0.415947
0.996100 0.521078 0.432009
0.996100 0.523443 0.437859
0.996100 0.520220 0.436397
0.995700 0.513909 0.428425
0.993541 0.508139 0.419600
0.993781 0.505900 0.419840
0.996344 0.505900 0.421999
1.000000 0.505900 0.419600
1.000000 0.505900 0.419600
0.235775 0.270588 0.117625
0.231997 0.269171 0.116208
0.234160 0.269125 0.116163
0.229895 0.266916 0.113954
0.230717 0.264555 0.110313
0.246204 0.269597 0.111882
0.261794 0.272568 0.109094
0.283097 0.273025 0.106409
0.301109 0.273025 0.102938
0.316684 0.263888 0.096329
0.334893 0.258594 0.091444
0.367552 0.265876 0.091185
0.427047 0.287553 0.098414
0.523139 0.325991 0.117271
0.632723 0.369917 0.140688
0.736604 0.406399 0.164792
0.832850 0.436525 0.195819
0.903608 0.458834 0.234234
0.945352 0.473590 0.274194
0.973546 0.488216 0.313607
0.988725 0.502511 0.352450
0.994500 0.514500 0.385544
0.996100 0.525238 0.408095
0.996100 0.535941 0.427125
0.996100 0.542991 0.442553
0.996100 0.543234 0.446575
0.996100 0.538261 0.444644
0.995491 0.527922 0.434441
0.992200 0.516680 0.424538
0.992566 0.512984 0.424675
0.996344 0.510623 0.425752
1.000000 0.508338 0.422038
1.000000 0.508338 0.422038
0.278175 0.331388 0.148044
0.276640 0.331388 0.148044
0.280247 0.331388 0.148044
0.273422 0.327799 0.144509
0.270664 0.324016 0.140679
0.284959 0.328156 0.143525
0.300367 0.334111 0.142856
0.319897 0.335288 0.137625
0.336274 0.335288 0.133319
0.351469 0.327361 0.130066
0.369875 0.323142 0.126494
0.396802 0.324741 0.125275
0.439552 0.334742 0.127255
0.508702 0.359727 0.136862
0.595499 0.394396 0.153258
0.697210 0.433350 0.177349
0.803353 0.474672 0.213222
0.883047 0.506834 0.258644
0.931332 0.526068 0.305500
0.964305 0.539760 0.347416
0.984368 0.549854 0.383654
0.993541 0.557667 0.411746
0.996100 0.564211 0.429542
0.996100 0.572250 0.446314
0.996100 0.575641 0.459713
0.996100 0.572500 0.462638
0.996100 0.565439 0.460425
0.995852 0.553431 0.449009
0.994516 0.539113 0.438841
0.994664 0.531024 0.436328
0.996344 0.525094 0.432030
1.000000 0.521365 0.430506
1.000000 0.519122 0.430506
0.318400 0.394363 0.180656
0.316220 0.394363 0.180656
0.319859 0.394363 0.182713
0.314975 0.390788 0.177328
0.311031 0.387006 0.173256
0.321940 0.389809 0.176131
0.334943 0.395009 0.178539
0.349375 0.396069 0.171064
0.364455 0.396069 0.165931
0.381230 0.393585 0.166533
0.403996 0.392613 0.164469
0.432597 0.392613 0.163250
0.467579 0.394773 0.161879
0.511203 0.404812 0.163082
0.571255 0.424723 0.170800
0.661430 0.459360 0.191241
0.766150 0.505863 0.228431
0.851379 0.547338 0.279749
0.909998 0.574979 0.334547
0.950929 0.592212 0.382176
0.976573 0.602444 0.419831
0.989870 0.607968 0.444853
0.994592 0.611525 0.460063
0.996100 0.617380 0.474639
0.996100 0.617103 0.485295
0.996100 0.610302 0.487770
0.996100 0.600238 0.483811
0.996100 0.588206 0.472432
0.996100 0.573537 0.461745
0.996100 0.562098 0.455433
0.996207 0.550582 0.446188
0.997806 0.544677 0.444131
0.997806 0.538719 0.444131
0.360197 0.463078 0.218997
0.356373 0.463078 0.218997
0.358008 0.463078 0.222653
0.356426 0.461421 0.217706
0.356463 0.459650 0.215528
0.362909 0.459216 0.216876
0.370236 0.460663 0.218654
0.379253 0.461006 0.213057
0.391563 0.461006 0.208469
0.410571 0.461006 0.207319
0.435551 0.461006 0.204532
0.464704 0.462366 0.203297
0.500134 0.465701 0.202154
0.535884 0.469474 0.201469
0.579693 0.478477 0.203525
0.644453 0.500574 0.215303
0.726103 0.535219 0.243641
0.808695 0.573888 0.291438
0.877435 0.606830 0.348597
0.927534 0.632176 0.403147
0.961896 0.651743 0.450920
0.981459 0.661990 0.483277
0.989886 0.667163 0.502600
0.994028 0.672563 0.516684
0.994546 0.669563 0.525045
0.996100 0.657531 0.522662
0.996100 0.644481 0.512478
0.996100 0.632780 0.501740
0.996100 0.619632 0.494091
0.996100 0.605828 0.484153
0.996100 0.589102 0.471205
0.996100 0.579485 0.465492
0.996100 0.569825 0.463484
0.405900 0.539200 0.266650
0.402122 0.537311 0.266650
0.400125 0.537250 0.270306
0.401813 0.539017 0.268783
0.405413 0.539200 0.268600
0.407545 0.535909 0.268600
0.409434 0.533675 0.267016
0.414409 0.533300 0.265127
0.424513 0.533300 0.261775
0.442975 0.533300 0.256595
0.466547 0.533300 0.252200
0.496386 0.537172 0.250950
0.534788 0.544106 0.252200
0.574255 0.547050 0.252950
0.611153 0.549244 0.251825
0.648302 0.556156 0.254084
0.700025 0.572525 0.269600
0.771952 0.600847 0.306256
0.843131 0.633338 0.358222
0.898327 0.664548 0.416484
0.940669 0.693163 0.474756
0.968097 0.711219 0.518644
0.981478 0.720103 0.544766
0.988798 0.726048 0.560753
0.991188 0.724025 0.569613
0.994577 0.710316 0.563216
0.996100 0.696203 0.548747
0.996100 0.686372 0.538591
0.996100 0.674538 0.533831
0.996100 0.659145 0.522078
0.996100 0.642291 0.507359
0.996100 0.628970 0.499877
0.996100 0.615650 0.496050
0.453431 0.611666 0.323538
0.449653 0.607842 0.321721
0.445825 0.606005 0.323605
0.449161 0.609425 0.323734
0.452944 0.611431 0.325375
0.451889 0.608335 0.324027
0.451603 0.605992 0.320566
0.454650 0.605594 0.319834
0.462982 0.605594 0.316909
0.478249 0.605594 0.311642
0.498146 0.605594 0.307245
0.526854 0.608348 0.306009
0.564168 0.614695 0.307338
0.607456 0.618723 0.308134
0.645133 0.620494 0.306939
0.673156 0.621294 0.305013
0.708845 0.626378 0.312106
0.762488 0.642732 0.336000
0.820555 0.666821 0.375663
0.872403 0.694227 0.429030
0.917384 0.721920 0.487788
0.949895 0.741444 0.536191
0.969432 0.753396 0.567838
0.980393 0.761126 0.588789
0.985989 0.762409 0.601770
0.991588 0.755512 0.600294
0.996100 0.746059 0.589405
0.996100 0.737843 0.581651
0.996100 0.726432 0.574263
0.996100 0.714810 0.566049
0.996100 0.702956 0.554647
0.996100 0.687861 0.547209
0.996100 0.676194 0.543334
0.499006 0.676238 0.387788
0.496881 0.672405 0.383913
0.493156 0.668625 0.382188
0.496447 0.671916 0.383628
0.498732 0.675743 0.387288
0.497155 0.672899 0.384413
0.496813 0.672281 0.380619
0.499859 0.672281 0.379888
0.506638 0.672281 0.376963
0.517413 0.672281 0.373184
0.531985 0.671108 0.369376
0.556465 0.670575 0.368144
0.590106 0.673352 0.367077
0.633422 0.678347 0.366438
0.674241 0.682819 0.366438
0.705947 0.684525 0.364336
0.737509 0.685622 0.366653
0.774240 0.692479 0.379441
0.813936 0.705323 0.405082
0.856115 0.723212 0.446609
0.898031 0.744198 0.496760
0.931984 0.760192 0.542388
0.955453 0.773045 0.576706
0.970071 0.782711 0.601605
0.978905 0.787208 0.619306
0.986506 0.787995 0.625882
0.992644 0.785095 0.623046
0.992644 0.778573 0.618270
0.992644 0.769113 0.609345
0.992644 0.761679 0.605317
0.992753 0.755282 0.599256
0.994394 0.741917 0.591819
0.994394 0.734306 0.587944
0.547803 0.739213 0.459350
0.547803 0.735395 0.455514
0.544147 0.733101 0.453220
0.547438 0.735055 0.455174
0.547803 0.738720 0.458855
0.547803 0.735888 0.456009
0.547803 0.735272 0.453509
0.550850 0.736541 0.453075
0.557628 0.736897 0.450120
0.564071 0.735729 0.447470
0.572814 0.732591 0.444097
0.590856 0.729292 0.440780
0.618723 0.728203 0.436238
0.657773 0.731894 0.434166
0.698297 0.736613 0.434166
0.732128 0.738319 0.432935
0.763309 0.739111 0.433008
0.793729 0.742102 0.438212
0.823604 0.747331 0.452687
0.855012 0.756865 0.479058
0.887418 0.770355 0.514264
0.917841 0.782230 0.552064
0.940947 0.793139 0.584290
0.958170 0.802802 0.609790
0.969712 0.810532 0.629649
0.976966 0.813488 0.639331
0.982127 0.812749 0.642272
0.983694 0.808576 0.640707
0.985031 0.802349 0.634963
0.985031 0.794954 0.630948
0.985180 0.789212 0.625491
0.987406 0.777992 0.618104
0.987406 0.771931 0.615803
0.598063 0.794125 0.527950
0.598063 0.791703 0.525589
0.595777 0.791625 0.525513
0.597834 0.791625 0.525513
0.598063 0.795125 0.528925
0.598063 0.793516 0.527356
0.598063 0.791906 0.525787
0.599967 0.794750 0.525513
0.606397 0.795625 0.522541
0.611166 0.792750 0.521550
0.616620 0.787938 0.518869
0.627943 0.782104 0.512507
0.648173 0.778988 0.505813
0.682097 0.780763 0.504281
0.720240 0.784556 0.504875
0.754985 0.786263 0.504875
0.788725 0.788213 0.504875
0.818551 0.790163 0.506047
0.843725 0.791896 0.512937
0.866709 0.796105 0.526846
0.888127 0.800852 0.546841
0.911038 0.807972 0.573488
0.931168 0.817675 0.599823
0.948053 0.824965 0.623277
0.961288 0.833341 0.643147
0.967991 0.836313 0.652817
0.971506 0.835570 0.656370
0.973918 0.831735 0.657969
0.975975 0.827620 0.655230
0.976112 0.821201 0.649719
0.977438 0.812108 0.642163
0.977392 0.802351 0.634850
0.975975 0.798513 0.634850
0.638259 0.834294 0.578175
0.638259 0.834294 0.578175
0.638259 0.834294 0.578175
0.638259 0.834294 0.578175
0.638259 0.837764 0.581588
0.638259 0.838259 0.582075
0.638259 0.835037 0.578906
0.638259 0.836345 0.578175
0.642098 0.835913 0.575250
0.646181 0.833691 0.573311
0.650905 0.828512 0.571175
0.659395 0.823912 0.566093
0.675228 0.820081 0.562250
0.705057 0.820948 0.564402
0.740294 0.824772 0.567285
0.776563 0.827206 0.567160
0.813275 0.829784 0.566531
0.842659 0.832363 0.567160
0.864873 0.834781 0.571328
0.883716 0.836975 0.580525
0.899885 0.836975 0.594319
0.917574 0.840110 0.612910
0.933614 0.846894 0.631903
0.946579 0.850488 0.649767
0.958850 0.856153 0.668635
0.965553 0.859078 0.678019
0.968349 0.858096 0.679516
0.967050 0.853213 0.677338
0.965919 0.849350 0.676354
0.966284 0.844966 0.668737
0.969819 0.835084 0.661150
0.969697 0.827556 0.653753
0.965919 0.823778 0.651122
0.663706 0.859806 0.611275
0.663706 0.859806 0.611275
0.663706 0.859806 0.611275
0.663706 0.859806 0.611275
0.663706 0.863219 0.613621
0.663706 0.863706 0.613956
0.663706 0.860538 0.611778
0.663706 0.859806 0.611275
0.663706 0.857795 0.608327
0.666509 0.857125 0.605417
0.673038 0.854444 0.604663
0.681425 0.850600 0.602903
0.696013 0.847549 0.601981
0.723142 0.848136 0.607355
0.756158 0.851475 0.613225
0.792541 0.855297 0.612212
0.831731 0.859075 0.610422
0.863005 0.862853 0.613431
0.884081 0.867178 0.619606
0.901979 0.870075 0.629311
0.917455 0.870532 0.642888
0.931473 0.872239 0.657667
0.943013 0.874044 0.670838
0.950856 0.875141 0.684463
0.961288 0.878919 0.700866
0.967724 0.881844 0.708079
0.969088 0.880381 0.707569
0.965309 0.873424 0.701041
0.962019 0.869588 0.699034
0.962384 0.865555 0.691558
0.965919 0.859071 0.684966
0.965797 0.851572 0.676235
0.962019 0.847794 0.668613
0.676722 0.873919 0.630791
0.676722 0.873919 0.630791
0.676722 0.873919 0.630791
0.676722 0.873919 0.630791
0.676722 0.877331 0.630791
0.676722 0.877819 0.630791
0.676722 0.874650 0.630791
0.676722 0.873919 0.630791
0.676722 0.873919 0.628634
0.680313 0.873919 0.628704
0.687131 0.871992 0.629786
0.697287 0.868491 0.630138
0.711131 0.867116 0.630138
0.734995 0.867116 0.636476
0.764956 0.868733 0.643006
0.801606 0.872077 0.641151
0.843372 0.875869 0.640508
0.875971 0.879647 0.646676
0.897549 0.885163 0.654771
0.917165 0.890493 0.666198
0.933645 0.893275 0.682224
0.945342 0.895713 0.697834
0.953538 0.895713 0.709929
0.959538 0.896809 0.723226
0.969695 0.900588 0.737500
0.974722 0.903513 0.741278
0.974196 0.902256 0.743068
0.971309 0.896200 0.737013
0.968019 0.892422 0.732738
0.968384 0.888740 0.725482
0.971850 0.885645 0.721186
0.970699 0.878184 0.709905
0.966894 0.874406 0.702322
0.683375 0.884350 0.641175
0.683375 0.884350 0.641175
0.683375 0.884350 0.641175
0.683375 0.884350 0.641175
0.683375 0.886909 0.641175
0.683375 0.887275 0.641175
0.683375 0.884898 0.641175
0.683375 0.884350 0.641175
0.683375 0.884350 0.641175
0.688981 0.884350 0.643277
0.696555 0.883680 0.647503
0.706727 0.880766 0.649050
0.720588 0.879400 0.649050
0.742165 0.879979 0.653681
0.770563 0.880375 0.659058
0.807250 0.882487 0.659221
0.849050 0.886300 0.661750
0.881616 0.890078 0.669353
0.904381 0.895573 0.678702
0.925999 0.903174 0.692069
0.944134 0.909313 0.710775
0.956942 0.911750 0.731257
0.963969 0.911750 0.746161
0.969695 0.913128 0.759016
0.978450 0.917625 0.770575
0.981375 0.920550 0.774572
0.981375 0.920002 0.777669
0.980918 0.917016 0.774043
0.978450 0.913359 0.770597
0.978724 0.910800 0.763469
0.981192 0.910306 0.760017
0.978326 0.902809 0.748809
0.974475 0.899975 0.742125
0.686300 0.890200 0.647100
0.686300 0.890200 0.647100
0.686300 0.890200 0.647100
0.686300 0.890200 0.647100
0.686300 0.890200 0.647100
0.686300 0.890200 0.647100
0.686300 0.890200 0.647100
0.686300 0.890200 0.647100
0.686300 0.890200 0.647100
0.691293 0.890200 0.647100
0.698077 0.887519 0.651876
0.708524 0.883741 0.654047
0.723193 0.882400 0.654580
0.743353 0.884716 0.659531
0.770083 0.886300 0.664950
0.806385 0.888372 0.667153
0.847748 0.892150 0.671453
0.880698 0.895928 0.678656
0.904381 0.901456 0.687519
0.927188 0.909069 0.702063
0.947088 0.915163 0.722870
0.960922 0.917901 0.745184
0.970092 0.918742 0.763755
0.975591 0.921544 0.778400
0.982228 0.928187 0.788070
0.985153 0.931128 0.793363
0.985317 0.931288 0.798963
0.986028 0.931505 0.796488
0.986028 0.928934 0.795716
0.986028 0.928934 0.790316
0.986028 0.928495 0.789685
0.985933 0.921909 0.780100
0.982981 0.921909 0.776322
0.686300 0.890200 0.647100
0.686300 0.890200 0.647100
0.686300 0.890200 0.647100
0.686300 0.890200 0.647100
0.686300 0.890200 0.647100
0.686300 0.890200 0.647100
0.686300 0.890200 0.647100
0.686300 0.890200 0.647100
0.686300 0.890200 0.647100
0.688578 0.890200 0.647100
0.692150 0.887519 0.649279
0.703672 0.883741 0.650749
0.720862 0.882400 0.653438
0.741456 0.884716 0.659097
0.766164 0.886300 0.663797
0.801094 0.887983 0.667689
0.840906 0.891419 0.673769
0.875568 0.895540 0.679535
0.903239 0.901456 0.686777
0.926152 0.909069 0.701331
0.945880 0.915163 0.723281
0.960430 0.919226 0.748798
0.971297 0.923550 0.770825
