luts/A_v_log/X-6500-VLOG.cube
# Copyright: (C) Copyright 2010-2019 by IWLTBAP SAS
# Cannot be resold, shared or otherwise redistributed
# Website: https://luts.iwltbap.com
TITLE "IWLTBAP 6500 (V-Log L)"
LUT_3D_SIZE 33
0.048309 0.063385 0.065094
0.049265 0.063479 0.065094
0.051195 0.063670 0.065094
0.053921 0.063939 0.065094
0.057409 0.064306 0.065107
0.062232 0.065037 0.065250
0.068423 0.066144 0.065751
0.076117 0.067895 0.067087
0.085735 0.070903 0.070752
0.096840 0.075991 0.076530
0.110530 0.083008 0.084631
0.128086 0.092525 0.095482
0.150518 0.105471 0.109165
0.178234 0.122041 0.125877
0.209981 0.141730 0.145672
0.245418 0.164360 0.168504
0.284577 0.190361 0.194862
0.326712 0.219014 0.224312
0.369464 0.248270 0.254099
0.411556 0.277028 0.283249
0.449637 0.303431 0.309905
0.481837 0.325937 0.332743
0.507062 0.343667 0.350634
0.525439 0.356631 0.363507
0.535757 0.363977 0.370692
0.540796 0.367622 0.374198
0.542014 0.368507 0.375047
0.542509 0.368873 0.375400
0.543004 0.369240 0.375755
0.543504 0.369610 0.376112
0.544000 0.369978 0.376467
0.544500 0.370349 0.376825
0.544997 0.370718 0.377183
0.048423 0.064080 0.065419
0.049384 0.064161 0.065232
0.052236 0.064365 0.065216
0.056341 0.064770 0.065216
0.062929 0.065661 0.065390
0.072341 0.067481 0.066532
0.084843 0.070998 0.070471
0.099947 0.077725 0.078261
0.114988 0.085505 0.087320
0.133947 0.095969 0.099079
0.158026 0.110044 0.113659
0.186869 0.127412 0.131173
0.219694 0.147899 0.151809
0.256421 0.171651 0.175795
0.296802 0.198649 0.203289
0.340030 0.228171 0.233690
0.382944 0.257469 0.263355
0.424271 0.285809 0.292077
0.460437 0.310978 0.317478
0.490391 0.331900 0.338734
0.513728 0.348377 0.355276
0.529028 0.359182 0.365942
0.537010 0.364870 0.371484
0.540549 0.367418 0.373945
0.541164 0.367864 0.374373
0.541667 0.368237 0.374731
0.542171 0.368610 0.375089
0.542671 0.368981 0.375444
0.543166 0.369346 0.375797
0.543665 0.369715 0.376153
0.544160 0.370081 0.376506
0.544660 0.370451 0.376863
0.545155 0.370818 0.377217
0.048657 0.065505 0.066086
0.049476 0.066014 0.066129
0.051703 0.065730 0.065508
0.056054 0.065904 0.065456
0.062354 0.066465 0.065578
0.070971 0.067834 0.066444
0.082820 0.070819 0.069767
0.097753 0.076859 0.077071
0.117884 0.087239 0.089098
0.146717 0.103525 0.106837
0.185344 0.126563 0.130224
0.231862 0.155730 0.159645
0.285513 0.191086 0.195484
0.345142 0.231694 0.237212
0.393669 0.264811 0.270747
0.433429 0.292189 0.298459
0.467702 0.316083 0.322599
0.495640 0.335628 0.342433
0.517243 0.350878 0.357702
0.530446 0.360220 0.366896
0.537216 0.365044 0.371594
0.539630 0.366787 0.373271
0.540350 0.367306 0.373771
0.540839 0.367651 0.374114
0.541333 0.368002 0.374459
0.541821 0.368353 0.374796
0.542315 0.368709 0.375136
0.542805 0.369062 0.375474
0.543294 0.369415 0.375813
0.543796 0.369783 0.376166
0.544295 0.370154 0.376522
0.544799 0.370528 0.376881
0.545299 0.370898 0.377236
0.048991 0.067542 0.067038
0.049906 0.068632 0.067354
0.050891 0.068499 0.067025
0.055021 0.067955 0.065899
0.062119 0.068106 0.065946
0.071072 0.069248 0.066761
0.082134 0.071734 0.069686
0.096070 0.076596 0.076194
0.114709 0.085938 0.087123
0.141444 0.100713 0.103614
0.177489 0.121912 0.125382
0.221915 0.149448 0.153204
0.274652 0.183867 0.188063
0.334680 0.224592 0.229897
0.395538 0.266111 0.272012
0.450339 0.303976 0.310296
0.492964 0.333765 0.340510
0.522138 0.354347 0.361083
0.535122 0.363571 0.370113
0.538773 0.366193 0.372643
0.539448 0.366682 0.373112
0.539990 0.367073 0.373488
0.540517 0.367452 0.373855
0.541006 0.367798 0.374198
0.541499 0.368147 0.374544
0.541988 0.368494 0.374885
0.542482 0.368849 0.375225
0.542971 0.369200 0.375562
0.543460 0.369552 0.375899
0.543953 0.369907 0.376239
0.544442 0.370259 0.376576
0.544936 0.370614 0.376916
0.545425 0.370968 0.377255
0.049491 0.070214 0.068251
0.050592 0.071945 0.068830
0.051353 0.072273 0.068825
0.053282 0.071738 0.068100
0.059939 0.070777 0.066504
0.070282 0.071249 0.067060
0.082240 0.073446 0.069967
0.096541 0.077978 0.076553
0.113884 0.086159 0.086596
0.137917 0.099205 0.101400
0.171795 0.118947 0.121905
0.215331 0.145477 0.148916
0.265929 0.178157 0.182097
0.323503 0.217033 0.221964
0.383775 0.258138 0.263836
0.439755 0.296646 0.302840
0.485003 0.328237 0.334860
0.517321 0.351003 0.357727
0.533764 0.362640 0.369140
0.539081 0.366442 0.372824
0.539617 0.366829 0.373196
0.540159 0.367220 0.373573
0.540686 0.367599 0.373939
0.541174 0.367945 0.374282
0.541668 0.368294 0.374628
0.542157 0.368640 0.374971
0.542650 0.368990 0.375316
0.543139 0.369342 0.375652
0.543628 0.369694 0.375989
0.544122 0.370049 0.376329
0.544610 0.370401 0.376666
0.545104 0.370756 0.377006
0.545593 0.371107 0.377343
0.050449 0.074011 0.069824
0.051691 0.076298 0.070634
0.052662 0.077746 0.071254
0.053727 0.077197 0.070715
0.056583 0.076039 0.069497
0.067173 0.074414 0.067739
0.081243 0.075664 0.070140
0.096585 0.079896 0.076785
0.114702 0.087625 0.087064
0.138382 0.100157 0.101606
0.169748 0.118301 0.120660
0.210034 0.142531 0.145517
0.258441 0.173461 0.177071
0.314817 0.211316 0.215829
0.374914 0.252210 0.257634
0.431942 0.291300 0.297265
0.478694 0.323918 0.330295
0.512779 0.347910 0.354466
0.531907 0.361386 0.367794
0.538903 0.366357 0.372645
0.539839 0.367023 0.373307
0.540332 0.367372 0.373659
0.540853 0.367745 0.374023
0.541341 0.368091 0.374365
0.541835 0.368440 0.374711
0.542324 0.368786 0.375054
0.542817 0.369135 0.375400
0.543306 0.369482 0.375742
0.543795 0.369834 0.376079
0.544289 0.370189 0.376419
0.544777 0.370541 0.376756
0.545271 0.370896 0.377096
0.545760 0.371247 0.377433
0.052053 0.079107 0.072090
0.053771 0.082318 0.073501
0.055347 0.085365 0.075014
0.055798 0.084771 0.074535
0.057251 0.083733 0.073643
0.061216 0.081855 0.071949
0.077082 0.079363 0.070440
0.095129 0.082298 0.076566
0.114792 0.089537 0.087144
0.138491 0.101402 0.101558
0.170141 0.119290 0.120847
0.209483 0.142752 0.145109
0.255745 0.172145 0.175123
0.308054 0.207056 0.211004
0.366320 0.246547 0.251563
0.424329 0.286166 0.291783
0.472830 0.319961 0.326002
0.508945 0.345332 0.351625
0.530714 0.360658 0.366869
0.539113 0.366639 0.372662
0.540512 0.367618 0.373646
0.540968 0.367929 0.373978
0.541410 0.368233 0.374302
0.541817 0.368508 0.374603
0.542232 0.368788 0.374910
0.542651 0.369072 0.375218
0.543081 0.369366 0.375532
0.543510 0.369659 0.375845
0.543962 0.369974 0.376168
0.544455 0.370329 0.376508
0.544944 0.370681 0.376845
0.545438 0.371036 0.377185
0.545927 0.371388 0.377522
0.054669 0.085740 0.075366
0.057232 0.090217 0.077902
0.059549 0.094238 0.080225
0.060415 0.095397 0.080980
0.060690 0.094116 0.079982
0.061758 0.092183 0.078509
0.067335 0.089069 0.075377
0.089314 0.086085 0.075674
0.112418 0.092136 0.086319
0.138096 0.103089 0.101172
0.168842 0.119807 0.119986
0.208040 0.142835 0.144285
0.255224 0.172396 0.174610
0.307136 0.206855 0.210212
0.364198 0.245361 0.249759
0.419553 0.283086 0.288232
0.467260 0.316242 0.321895
0.505251 0.342870 0.348841
0.529476 0.359983 0.365855
0.539496 0.367098 0.372790
0.541472 0.368481 0.374169
0.541882 0.368748 0.374471
0.542283 0.369009 0.374766
0.542657 0.369249 0.375039
0.543042 0.369500 0.375321
0.543420 0.369748 0.375606
0.543805 0.370000 0.375896
0.544183 0.370248 0.376182
0.544574 0.370509 0.376476
0.544976 0.370778 0.376776
0.545378 0.371047 0.377075
0.545792 0.371333 0.377375
0.546219 0.371633 0.377678
0.058991 0.094444 0.080435
0.062578 0.100453 0.084304
0.065702 0.105671 0.087670
0.067888 0.109581 0.090280
0.067505 0.108215 0.089372
0.067438 0.106364 0.088166
0.068129 0.102929 0.085466
0.074970 0.098075 0.080463
0.104232 0.095308 0.083517
0.134595 0.105060 0.099316
0.166844 0.120705 0.118735
0.205217 0.142451 0.142471
0.251954 0.171153 0.172296
0.305729 0.206485 0.208922
0.363683 0.245361 0.248971
0.419677 0.283511 0.288058
0.466923 0.316277 0.321459
0.503537 0.341920 0.347331
0.528422 0.359488 0.364875
0.539899 0.367623 0.372920
0.542767 0.369638 0.374899
0.543124 0.369860 0.375163
0.543472 0.370076 0.375422
0.543803 0.370277 0.375671
0.544147 0.370490 0.375928
0.544490 0.370702 0.376184
0.544839 0.370919 0.376444
0.545187 0.371136 0.376703
0.545532 0.371354 0.376969
0.545882 0.371576 0.377241
0.546239 0.371805 0.377515
0.546604 0.372041 0.377795
0.546973 0.372281 0.378075
0.065300 0.105722 0.087697
0.069514 0.112844 0.092545
0.073180 0.119143 0.096825
0.077047 0.125948 0.101512
0.076733 0.125287 0.101008
0.076074 0.123533 0.099721
0.075513 0.121302 0.098060
0.075206 0.116086 0.094357
0.083450 0.108654 0.086708
0.122212 0.106792 0.093632
0.162225 0.121563 0.116173
0.200854 0.142050 0.139738
0.248068 0.169949 0.169804
0.301264 0.204187 0.205479
0.360764 0.243874 0.246489
0.419806 0.284089 0.287815
0.467596 0.317082 0.321634
0.504454 0.342890 0.347652
0.529480 0.360510 0.365288
0.541068 0.368696 0.373400
0.544414 0.371090 0.375810
0.544748 0.371303 0.376090
0.545060 0.371487 0.376327
0.545338 0.371646 0.376539
0.545632 0.371819 0.376759
0.545923 0.371990 0.376978
0.546220 0.372164 0.377202
0.546505 0.372323 0.377427
0.546796 0.372487 0.377655
0.547095 0.372657 0.377889
0.547405 0.372839 0.378128
0.547739 0.373043 0.378381
0.548065 0.373245 0.378640
0.072824 0.118834 0.096670
0.077708 0.127321 0.102554
0.081869 0.134802 0.107653
0.086259 0.142794 0.113116
0.087745 0.145396 0.114825
0.086849 0.143705 0.113538
0.085968 0.141727 0.111938
0.084719 0.138212 0.109025
0.083777 0.131763 0.104436
0.094503 0.120452 0.094165
0.145844 0.121089 0.107975
0.195879 0.142196 0.137074
0.242009 0.168368 0.166323
0.298214 0.203400 0.203269
0.356285 0.241747 0.242865
0.416394 0.282384 0.284853
0.467485 0.317560 0.321172
0.505769 0.344280 0.348210
0.531099 0.362018 0.366051
0.542840 0.370284 0.374285
0.546361 0.372768 0.376775
0.546707 0.372986 0.377057
0.547028 0.373190 0.377328
0.547293 0.373351 0.377559
0.547523 0.373481 0.377773
0.547750 0.373609 0.377986
0.547984 0.373733 0.378188
0.548207 0.373843 0.378378
0.548434 0.373957 0.378570
0.548699 0.374105 0.378775
0.548965 0.374252 0.378981
0.549237 0.374399 0.379200
0.549513 0.374548 0.379420
0.081429 0.134109 0.107315
0.086810 0.143920 0.114037
0.092202 0.152964 0.119940
0.098067 0.162600 0.126110
0.102704 0.170167 0.130827
0.101473 0.168086 0.129461
0.100017 0.165694 0.127789
0.098383 0.163006 0.125652
0.095634 0.157550 0.121010
0.094074 0.149712 0.115219
0.109078 0.133913 0.104202
0.175833 0.139131 0.126742
0.235853 0.168220 0.162861
0.290709 0.200945 0.198703
0.352225 0.240674 0.239798
0.413129 0.281345 0.282087
0.465411 0.317059 0.319163
0.505771 0.344990 0.347699
0.533132 0.364075 0.367033
0.545244 0.372574 0.375548
0.548921 0.375097 0.378128
0.549201 0.375238 0.378367
0.549463 0.375373 0.378596
0.549698 0.375490 0.378804
0.549942 0.375614 0.379018
0.550154 0.375710 0.379213
0.550304 0.375757 0.379375
0.550410 0.375769 0.379512
0.550532 0.375797 0.379659
0.550733 0.375902 0.379859
0.550934 0.376002 0.380050
0.551145 0.376101 0.380233
0.551355 0.376200 0.380416
0.091595 0.151970 0.119385
0.098884 0.164010 0.127091
0.105535 0.174919 0.133914
0.113036 0.187216 0.141513
0.121126 0.200701 0.149917
0.120755 0.200011 0.149441
0.118935 0.196772 0.147293
0.116657 0.192679 0.144470
0.114211 0.188455 0.141355
0.109154 0.180088 0.134749
0.106650 0.170598 0.128005
0.129036 0.150702 0.115324
0.212762 0.163503 0.150129
0.284666 0.201411 0.195258
0.343608 0.237819 0.234461
0.407874 0.279793 0.278165
0.464373 0.317896 0.317957
0.505736 0.346261 0.347165
0.534585 0.366224 0.367596
0.548048 0.375508 0.377043
0.552033 0.378141 0.379866
0.552244 0.378189 0.380063
0.552449 0.378240 0.380249
0.552626 0.378276 0.380415
0.552818 0.378323 0.380590
0.553013 0.378376 0.380766
0.553204 0.378429 0.380940
0.553343 0.378440 0.381086
0.553423 0.378394 0.381198
0.553515 0.378374 0.381327
0.553617 0.378373 0.381464
0.553709 0.378373 0.381594
0.553799 0.378371 0.381723
0.104709 0.173647 0.133207
0.113876 0.188731 0.142537
0.122332 0.202875 0.151347
0.131448 0.218256 0.161090
0.141450 0.234986 0.171777
0.145382 0.241496 0.176011
0.143243 0.237870 0.173657
0.140839 0.233664 0.170916
0.138140 0.228658 0.167477
0.133572 0.220514 0.161692
0.126500 0.208641 0.152948
0.122983 0.196522 0.143646
0.161260 0.174171 0.130630
0.258851 0.195880 0.180734
0.337387 0.238266 0.231184
0.399899 0.278105 0.273267
0.460467 0.317933 0.315141
0.506304 0.348720 0.347228
0.536346 0.369219 0.368427
0.551251 0.379352 0.378947
0.556039 0.382451 0.382318
0.556052 0.382203 0.382353
0.556118 0.382060 0.382434
0.556223 0.381986 0.382542
0.556345 0.381929 0.382661
0.556472 0.381879 0.382782
0.556604 0.381832 0.382907
0.556692 0.381755 0.383006
0.556783 0.381681 0.383106
0.556873 0.381605 0.383207
0.556942 0.381529 0.383309
0.556962 0.381420 0.383387
0.556970 0.381305 0.383459
0.121091 0.200906 0.150180
0.132238 0.219678 0.162013
0.142536 0.236878 0.173002
0.153223 0.254684 0.184544
0.164871 0.274063 0.197221
0.174283 0.289793 0.207501
0.172112 0.286115 0.205108
0.169694 0.281957 0.202415
0.166669 0.276691 0.198982
0.163531 0.271182 0.195321
0.156633 0.259093 0.187035
0.148295 0.244665 0.176880
0.143466 0.227405 0.163295
0.198686 0.204201 0.154349
0.310882 0.232854 0.215877
0.394331 0.279776 0.270502
0.455465 0.319331 0.312419
0.504593 0.351612 0.346521
0.538715 0.374065 0.370274
0.555335 0.385048 0.381848
0.560825 0.388399 0.385650
0.560945 0.388045 0.385698
0.560794 0.387507 0.385556
0.560623 0.386969 0.385400
0.560624 0.386717 0.385409
0.560679 0.386554 0.385469
0.560743 0.386400 0.385535
0.560769 0.386204 0.385576
0.560782 0.385989 0.385597
0.560807 0.385785 0.385626
0.560834 0.385586 0.385656
0.560891 0.385436 0.385718
0.560881 0.385256 0.385758
0.140729 0.233945 0.171099
0.153808 0.255758 0.185223
0.165882 0.275795 0.198343
0.178313 0.296456 0.211898
0.191814 0.318762 0.226619
0.206393 0.342815 0.242688
0.206541 0.343024 0.242817
0.203665 0.338202 0.239566
0.200509 0.332730 0.235877
0.196927 0.326756 0.231843
0.192689 0.319494 0.227037
0.182682 0.302535 0.215605
0.172994 0.284720 0.203177
0.166941 0.261736 0.185233
0.242650 0.238362 0.182390
0.365155 0.273350 0.253301
0.451448 0.323234 0.310815
0.502492 0.356044 0.345949
0.539470 0.379821 0.371502
0.560107 0.392869 0.385721
0.566636 0.396530 0.390169
0.566923 0.396097 0.390296
0.566663 0.395351 0.390043
0.566377 0.394589 0.389765
0.566108 0.393848 0.389501
0.565901 0.393221 0.389300
0.565819 0.392773 0.389201
0.565754 0.392368 0.389122
0.565684 0.391957 0.389040
0.565601 0.391543 0.388954
0.565517 0.391135 0.388870
0.565446 0.390740 0.388795
0.565366 0.390336 0.388713
0.163512 0.271917 0.195791
0.178693 0.297072 0.212317
0.192782 0.320505 0.227771
0.207254 0.344287 0.243703
0.223046 0.369923 0.261129
0.239832 0.396933 0.279792
0.247031 0.408461 0.287813
0.243725 0.403134 0.284088
0.240458 0.397820 0.280340
0.236348 0.391109 0.275591
0.232285 0.384344 0.270783
0.225653 0.373045 0.262928
0.214901 0.354746 0.250325
0.203755 0.334090 0.235804
0.196402 0.301909 0.210194
0.293218 0.278164 0.215402
0.420670 0.317867 0.292487
0.500643 0.362973 0.346174
0.540684 0.387864 0.373595
0.565031 0.402591 0.390160
0.573729 0.407250 0.395948
0.574119 0.406458 0.396056
0.573678 0.405343 0.395628
0.573220 0.404231 0.395183
0.572813 0.403231 0.394791
0.572440 0.402286 0.394431
0.572086 0.401363 0.394085
0.571788 0.400562 0.393788
0.571557 0.399855 0.393544
0.571382 0.399235 0.393349
0.571224 0.398658 0.393177
0.571061 0.398096 0.393014
0.570894 0.397530 0.392848
0.189674 0.315417 0.224418
0.207330 0.344476 0.243854
0.224064 0.371618 0.262330
0.240708 0.398379 0.280823
0.257517 0.425425 0.299700
0.274073 0.452074 0.318462
0.286844 0.472639 0.333032
0.284505 0.468850 0.330331
0.281548 0.464034 0.326887
0.277994 0.458233 0.322718
0.274160 0.451810 0.318099
0.270179 0.445206 0.313291
0.261123 0.430283 0.302558
0.250124 0.411300 0.289018
0.238901 0.389613 0.273348
0.231943 0.350610 0.240875
0.349015 0.327066 0.254642
0.474490 0.364034 0.331224
0.542218 0.398915 0.376392
0.570760 0.415370 0.395640
0.582237 0.421150 0.403232
0.583375 0.420273 0.403725
0.582177 0.417956 0.402645
0.581489 0.416460 0.401983
0.580864 0.415052 0.401372
0.580259 0.413685 0.400784
0.579669 0.412359 0.400228
0.579144 0.411138 0.399732
0.578656 0.409975 0.399266
0.578288 0.409018 0.398884
0.577968 0.408132 0.398542
0.577671 0.407278 0.398219
0.577398 0.406490 0.397934
0.220134 0.365299 0.258044
0.240490 0.398073 0.280633
0.258517 0.427076 0.300876
0.274927 0.453488 0.319478
0.290885 0.479210 0.337714
0.306131 0.503841 0.355467
0.320906 0.527725 0.372981
0.321694 0.528992 0.373913
0.318946 0.524513 0.370598
0.316170 0.519968 0.367224
0.312709 0.514228 0.362959
0.309307 0.508519 0.358667
0.305112 0.501450 0.353409
0.295749 0.485554 0.341532
0.285707 0.467655 0.328363
0.275932 0.446291 0.312676
0.274999 0.405255 0.276417
0.405718 0.382057 0.296993
0.523724 0.409607 0.367153
0.577325 0.431847 0.402139
0.592214 0.438573 0.411850
0.594971 0.438088 0.413332
0.593341 0.434949 0.411884
0.591747 0.431990 0.410482
0.590708 0.429876 0.409538
0.589834 0.428055 0.408725
0.589067 0.426395 0.408004
0.588279 0.424709 0.407268
0.587458 0.423015 0.406508
0.586655 0.421349 0.405764
0.586028 0.419945 0.405155
0.585567 0.418809 0.404705
0.585131 0.417714 0.404276
0.254211 0.420178 0.296055
0.274529 0.452885 0.319068
0.291853 0.480826 0.338875
0.306958 0.505191 0.356458
0.321598 0.528880 0.373857
0.335518 0.551518 0.390704
0.348051 0.571913 0.406101
0.353231 0.580334 0.412551
0.351208 0.577020 0.409993
0.349271 0.573800 0.407481
0.346906 0.569802 0.404359
0.344123 0.565076 0.400716
0.341289 0.560193 0.396864
0.336084 0.551262 0.389928
0.327515 0.536155 0.378316
0.318786 0.519373 0.365515
0.311253 0.498596 0.349478
0.323331 0.459673 0.313389
0.462426 0.438960 0.339589
0.568132 0.453231 0.399557
0.604107 0.461351 0.422340
0.609036 0.460986 0.425131
0.607108 0.456906 0.423349
0.604977 0.452814 0.421461
0.602950 0.448928 0.419678
0.601328 0.445792 0.418250
0.600315 0.443625 0.417317
0.599290 0.441458 0.416377
0.598190 0.439262 0.415392
0.597151 0.437154 0.414454
0.596168 0.435153 0.413553
0.595183 0.433169 0.412646
0.594425 0.431532 0.411928
0.287668 0.474114 0.334124
0.306479 0.504437 0.355925
0.322473 0.530331 0.374953
0.336305 0.552836 0.391716
0.348786 0.573149 0.407077
0.359232 0.590055 0.420096
0.367305 0.603183 0.430284
0.372169 0.611102 0.436464
0.371582 0.610137 0.435702
0.370634 0.608571 0.434462
0.369703 0.607006 0.433166
0.368451 0.604867 0.431388
0.367116 0.602455 0.429395
0.365578 0.599619 0.427014
0.361405 0.592015 0.420807
0.355480 0.580730 0.411671
0.349494 0.566703 0.400496
0.344285 0.545076 0.382510
0.375443 0.509705 0.349535
0.518501 0.491044 0.379209
0.608543 0.495107 0.428960
0.625052 0.489642 0.438559
0.623602 0.484721 0.437075
0.621143 0.479577 0.434948
0.618646 0.474568 0.432796
0.616233 0.469789 0.430682
0.614064 0.465595 0.428776
0.612673 0.462641 0.427492
0.611265 0.459767 0.426212
0.609870 0.456941 0.424947
0.608561 0.454255 0.423769
0.607244 0.451640 0.422601
0.605945 0.449059 0.421449
0.318473 0.523867 0.370191
0.335768 0.551999 0.391111
0.349670 0.574595 0.408218
0.360082 0.591442 0.421213
0.368157 0.604589 0.431384
0.373922 0.613980 0.438732
0.377431 0.619702 0.443208
0.378830 0.621974 0.444981
0.378904 0.622082 0.445058
0.378998 0.622216 0.445155
0.379285 0.622635 0.445455
0.379345 0.622657 0.445422
0.379391 0.622602 0.445252
0.379457 0.622420 0.444929
0.379254 0.621688 0.444155
0.377435 0.617605 0.440458
0.375016 0.611312 0.434980
0.372992 0.602154 0.427171
0.374371 0.584362 0.410176
0.429190 0.555681 0.383079
0.571946 0.537346 0.415317
0.639386 0.531847 0.451719
0.641661 0.517751 0.451808
0.639101 0.511675 0.449639
0.636495 0.505870 0.447418
0.633838 0.500108 0.445163
0.631242 0.494535 0.442916
0.628558 0.489062 0.440613
0.626849 0.485251 0.439105
0.625195 0.481755 0.437668
0.623510 0.478270 0.436212
0.621928 0.474981 0.434795
0.620332 0.471752 0.433372
0.346429 0.569362 0.404228
0.359883 0.591136 0.420987
0.369024 0.606022 0.432517
0.374812 0.615463 0.439907
0.378387 0.621293 0.444467
0.379771 0.623541 0.446225
0.379845 0.623649 0.446302
0.379920 0.623757 0.446380
0.379995 0.623864 0.446458
0.380070 0.623973 0.446536
0.380297 0.624301 0.446772
0.380691 0.624876 0.447182
0.381262 0.625693 0.447732
0.381966 0.626622 0.448303
0.382688 0.627482 0.448783
0.383588 0.628250 0.449041
0.384736 0.628654 0.448763
0.385629 0.626525 0.446432
0.387915 0.621767 0.441718
0.399721 0.610099 0.426547
0.486862 0.592440 0.411782
0.620659 0.578334 0.447949
0.661585 0.564866 0.468877
0.656216 0.546483 0.463695
0.654108 0.540162 0.461789
0.651850 0.534059 0.459794
0.649693 0.528050 0.457842
0.647118 0.522134 0.455670
0.644401 0.516009 0.453378
0.642273 0.511163 0.451558
0.640581 0.507211 0.450088
0.638816 0.503258 0.448568
0.637049 0.499352 0.447031
0.367389 0.603375 0.430466
0.375121 0.615998 0.440339
0.379320 0.622848 0.445698
0.380689 0.625073 0.447450
0.380775 0.625198 0.447542
0.380850 0.625306 0.447619
0.380924 0.625413 0.447697
0.380999 0.625522 0.447775
0.381074 0.625629 0.447852
0.381149 0.625737 0.447931
0.381296 0.625949 0.448083
0.381646 0.626459 0.448448
0.382155 0.627189 0.448959
0.382824 0.628116 0.449558
0.383553 0.629008 0.450056
0.384289 0.629750 0.450389
0.385377 0.630412 0.450403
0.386844 0.630369 0.449765
0.389695 0.629369 0.448163
0.396670 0.627315 0.444627
0.426922 0.623454 0.430306
0.548710 0.615204 0.435306
0.658096 0.608704 0.473106
0.675234 0.594776 0.480767
0.669835 0.576018 0.475171
0.668150 0.569519 0.473435
0.666334 0.563236 0.471650
0.664488 0.557005 0.469878
0.662218 0.550638 0.467852
0.659969 0.544297 0.465854
0.657795 0.538706 0.463969
0.656306 0.534443 0.462625
0.654682 0.530336 0.461219
0.379299 0.622844 0.445710
0.381614 0.626617 0.448685
0.381714 0.626764 0.448794
0.381789 0.626872 0.448872
0.381865 0.626980 0.448950
0.381939 0.627088 0.449028
0.382014 0.627195 0.449105
0.382089 0.627303 0.449184
0.382163 0.627411 0.449261
0.382239 0.627519 0.449339
0.382330 0.627651 0.449435
0.382631 0.628086 0.449747
0.383075 0.628733 0.450209
0.383694 0.629603 0.450783
0.384430 0.630526 0.451340
0.385119 0.631339 0.451762
0.385985 0.631969 0.451869
0.387238 0.632323 0.451542
0.389348 0.631749 0.450373
0.394072 0.630084 0.447950
0.406004 0.627943 0.441772
0.470541 0.627126 0.429898
0.609822 0.626952 0.456939
0.679496 0.626144 0.487821
0.683609 0.617378 0.488880
0.680570 0.603543 0.485138
0.680025 0.598107 0.484093
0.679159 0.592480 0.482834
0.678043 0.586344 0.481391
0.676406 0.579942 0.479663
0.674573 0.573407 0.477826
0.672565 0.567153 0.475928
0.671265 0.562533 0.474650
0.382635 0.628304 0.450024
0.382712 0.628414 0.450105
0.382790 0.628525 0.450186
0.382868 0.628636 0.450267
0.382943 0.628745 0.450345
0.383018 0.628852 0.450423
0.383092 0.628959 0.450500
0.383168 0.629068 0.450578
0.383242 0.629175 0.450656
0.383318 0.629283 0.450734
0.383392 0.629391 0.450812
0.383619 0.629717 0.451047
0.384009 0.630285 0.451454
0.384567 0.631072 0.451992
0.385273 0.632001 0.452584
0.385975 0.632864 0.453045
0.386745 0.633550 0.453278
0.387786 0.634072 0.453188
0.389393 0.633898 0.452373
0.392647 0.632720 0.450601
0.400471 0.630585 0.446606
0.423261 0.629134 0.436109
0.532830 0.628674 0.438148
0.655415 0.632057 0.476651
0.688411 0.634210 0.494136
0.688761 0.630556 0.493805
0.688199 0.623071 0.492368
0.688481 0.619874 0.492093
0.688589 0.616150 0.491641
0.688523 0.611719 0.490979
0.687900 0.606773 0.489971
0.687145 0.601339 0.488812
0.685966 0.595539 0.487349
0.383721 0.630083 0.451430
0.383799 0.630193 0.451510
0.383877 0.630304 0.451592
0.383954 0.630414 0.451672
0.384032 0.630526 0.451753
0.384107 0.630634 0.451831
0.384182 0.630741 0.451909
0.384257 0.630849 0.451987
0.384332 0.630957 0.452064
0.384407 0.631065 0.452143
0.384482 0.631172 0.452220
0.384624 0.631377 0.452368
0.384977 0.631889 0.452736
0.385470 0.632589 0.453231
0.386134 0.633499 0.453828
0.386854 0.634400 0.454335
0.387562 0.635142 0.454651
0.388437 0.635720 0.454694
0.389698 0.635896 0.454246
0.392069 0.635190 0.452917
0.397580 0.633340 0.450134
0.411082 0.631352 0.443088
0.460112 0.630758 0.432008
