luts/A_v_log/X-6500-VLOG.cube
# Copyright: (C) Copyright 2010-2019 by IWLTBAP SAS
# Cannot be resold, shared or otherwise redistributed
# Website: https://luts.iwltbap.com
TITLE "IWLTBAP 6500 (V-Log L)"
LUT_3D_SIZE 5
0.048309 0.063385 0.065094
0.085735 0.070903 0.070752
0.284577 0.190361 0.194862
0.535757 0.363977 0.370692
0.544997 0.370718 0.377183
0.058991 0.094444 0.080435
0.104232 0.095308 0.083517
0.466923 0.316277 0.321459
0.544147 0.370490 0.375928
0.546973 0.372281 0.378075
0.163512 0.271917 0.195791
0.240458 0.397820 0.280340
0.420670 0.317867 0.292487
0.572813 0.403231 0.394791
0.570894 0.397530 0.392848
0.379299 0.622844 0.445710
0.382163 0.627411 0.449261
0.385985 0.631969 0.451869
0.683609 0.617378 0.488880
0.671265 0.562533 0.474650
0.390198 0.640686 0.459808
0.390820 0.641571 0.460454
0.392711 0.644201 0.462314
0.429941 0.641751 0.445225
0.703705 0.645538 0.504608
0.052647 0.065602 0.079623
0.094767 0.075690 0.085450
0.321337 0.216482 0.222620
0.540926 0.368950 0.376278
0.545689 0.372754 0.380148
0.063411 0.103373 0.110243
0.089692 0.107579 0.110595
0.436488 0.297279 0.302708
0.546271 0.373508 0.379430
0.548604 0.374817 0.381097
0.173250 0.295428 0.235326
0.224549 0.375904 0.280870
0.389823 0.324441 0.277655
0.586477 0.423052 0.406972
0.581906 0.412668 0.402295
0.387532 0.644330 0.492596
0.389508 0.644970 0.483108
0.390049 0.639411 0.464425
0.688848 0.634418 0.494950
0.693628 0.614915 0.494909
0.401213 0.667829 0.515707
0.398310 0.659783 0.496607
0.397044 0.653554 0.478544
0.438555 0.644569 0.447789
0.704615 0.647477 0.505877
0.085631 0.101284 0.163488
0.099722 0.092275 0.156714
0.358656 0.241308 0.262673
0.546262 0.375750 0.389218
0.552193 0.380169 0.395306
0.164373 0.190746 0.301955
0.186613 0.213985 0.337190
0.462151 0.316480 0.359819
0.558954 0.387752 0.410765
0.561902 0.388897 0.411779
0.222994 0.351824 0.401282
0.253868 0.429990 0.444990
0.388658 0.425585 0.432613
0.617532 0.468785 0.474391
0.605644 0.447764 0.458792
0.408609 0.703989 0.652564
0.412349 0.708388 0.647816
0.418369 0.705172 0.614212
0.705101 0.671420 0.529896
0.713469 0.656285 0.527658
0.424402 0.733942 0.702487
0.422542 0.729140 0.683192
0.422343 0.718372 0.633969
0.511861 0.690030 0.522629
0.713008 0.665313 0.519699
0.215852 0.242567 0.389008
0.206923 0.231761 0.371800
0.425877 0.280617 0.417921
0.583262 0.393967 0.488924
0.591942 0.398958 0.503235
0.260218 0.296486 0.463569
0.263320 0.300810 0.468429
0.533695 0.367378 0.569620
0.611325 0.405189 0.580407
0.615169 0.408138 0.576345
0.328177 0.423317 0.582496
0.364337 0.504584 0.643363
0.376743 0.447629 0.611586
0.654157 0.466140 0.642492
0.653489 0.457713 0.630349
0.448979 0.736590 0.787296
0.451546 0.743364 0.791117
0.459503 0.757413 0.799590
0.771172 0.858262 0.893491
0.804366 0.852229 0.893956
0.456064 0.755845 0.797993
0.456728 0.757103 0.798901
0.462104 0.767328 0.805866
0.619977 0.830473 0.855628
0.802776 0.850955 0.839410
0.255951 0.288269 0.456207
0.257106 0.289738 0.457586
0.401295 0.323523 0.534526
0.609386 0.400841 0.584412
0.615082 0.405029 0.584412
0.264156 0.300546 0.470127
0.267800 0.305727 0.476096
0.520183 0.364557 0.574441
0.611928 0.403681 0.588421
0.617586 0.407708 0.588313
0.322376 0.406127 0.571961
0.364763 0.499475 0.644365
0.366288 0.435513 0.604367
0.644378 0.447028 0.637057
0.649794 0.447431 0.634799
0.452013 0.738471 0.793084
0.454276 0.744245 0.796502
0.460364 0.755433 0.804234
0.762821 0.856897 0.904586
0.803589 0.851121 0.906536
0.458649 0.756683 0.803162
0.459295 0.757975 0.804071
0.464226 0.767469 0.810655
0.653937 0.842769 0.877281
0.799200 0.886572 0.924777
