luts/A_v_log/X-6500-VLOG.cube
# Copyright: (C) Copyright 2010-2019 by IWLTBAP SAS
# Cannot be resold, shared or otherwise redistributed
# Website: https://luts.iwltbap.com
TITLE "IWLTBAP 6500 (V-Log L)"
LUT_3D_SIZE 9
0.048309 0.063385 0.065094
0.057409 0.064306 0.065107
0.085735 0.070903 0.070752
0.150518 0.105471 0.109165
0.284577 0.190361 0.194862
0.449637 0.303431 0.309905
0.535757 0.363977 0.370692
0.543004 0.369240 0.375755
0.544997 0.370718 0.377183
0.049491 0.070214 0.068251
0.059939 0.070777 0.066504
0.113884 0.086159 0.086596
0.265929 0.178157 0.182097
0.485003 0.328237 0.334860
0.539617 0.366829 0.373196
0.541668 0.368294 0.374628
0.543628 0.369694 0.375989
0.545593 0.371107 0.377343
0.058991 0.094444 0.080435
0.067505 0.108215 0.089372
0.104232 0.095308 0.083517
0.251954 0.171153 0.172296
0.466923 0.316277 0.321459
0.542767 0.369638 0.374899
0.544147 0.370490 0.375928
0.545532 0.371354 0.376969
0.546973 0.372281 0.378075
0.091595 0.151970 0.119385
0.121126 0.200701 0.149917
0.114211 0.188455 0.141355
0.212762 0.163503 0.150129
0.464373 0.317896 0.317957
0.552033 0.378141 0.379866
0.552818 0.378323 0.380590
0.553423 0.378394 0.381198
0.553799 0.378371 0.381723
0.163512 0.271917 0.195791
0.223046 0.369923 0.261129
0.240458 0.397820 0.280340
0.214901 0.354746 0.250325
0.420670 0.317867 0.292487
0.573729 0.407250 0.395948
0.572813 0.403231 0.394791
0.571557 0.399855 0.393544
0.570894 0.397530 0.392848
0.287668 0.474114 0.334124
0.348786 0.573149 0.407077
0.371582 0.610137 0.435702
0.367116 0.602455 0.429395
0.349494 0.566703 0.400496
0.608543 0.495107 0.428960
0.618646 0.474568 0.432796
0.611265 0.459767 0.426212
0.605945 0.449059 0.421449
0.379299 0.622844 0.445710
0.381865 0.626980 0.448950
0.382163 0.627411 0.449261
0.383075 0.628733 0.450209
0.385985 0.631969 0.451869
0.406004 0.627943 0.441772
0.683609 0.617378 0.488880
0.678043 0.586344 0.481391
0.671265 0.562533 0.474650
0.385873 0.633605 0.454213
0.386184 0.634049 0.454537
0.386490 0.634486 0.454854
0.386934 0.635126 0.455317
0.389260 0.638244 0.457306
0.394895 0.638588 0.455420
0.584940 0.633953 0.452346
0.695954 0.639428 0.499241
0.701956 0.640123 0.502823
0.390198 0.640686 0.459808
0.390509 0.641129 0.460131
0.390820 0.641571 0.460454
0.391126 0.642009 0.460772
0.392711 0.644201 0.462314
0.395924 0.646729 0.462923
0.429941 0.641751 0.445225
0.697164 0.645023 0.500834
0.703705 0.645538 0.504608
0.049250 0.063784 0.068887
0.058232 0.064922 0.069076
0.089658 0.073635 0.075624
0.163540 0.113976 0.118161
0.304294 0.204061 0.209128
0.466804 0.315820 0.322681
0.538856 0.366687 0.373508
0.543280 0.369950 0.376692
0.545292 0.371469 0.378237
0.049649 0.071967 0.073864
0.057271 0.072969 0.073918
0.107314 0.084054 0.085423
0.253720 0.170741 0.174648
0.477003 0.322882 0.329553
0.539836 0.367253 0.373723
0.541893 0.368732 0.375126
0.543858 0.370146 0.376470
0.545855 0.371630 0.377908
0.058100 0.096375 0.087896
0.065109 0.105540 0.091709
0.098817 0.098604 0.084702
0.225532 0.156198 0.155955
0.446540 0.302472 0.307030
0.543797 0.370646 0.375671
0.544990 0.371338 0.376598
0.546198 0.372041 0.377537
0.547522 0.372864 0.378575
0.092308 0.156029 0.127138
0.116656 0.195389 0.150135
0.115045 0.190647 0.144253
0.199655 0.165622 0.144773
0.442860 0.305583 0.303121
0.554525 0.381550 0.381483
0.556739 0.382428 0.383155
0.556655 0.381607 0.383278
0.556743 0.381174 0.383593
0.164394 0.275330 0.203266
0.224736 0.373436 0.266794
0.236906 0.392503 0.278216
0.234424 0.386722 0.273080
0.405323 0.327093 0.285686
0.580273 0.419415 0.402077
0.581659 0.416145 0.402253
0.580219 0.412171 0.400739
0.578678 0.408218 0.399168
0.287270 0.475106 0.340749
0.349434 0.575352 0.413243
0.370157 0.608463 0.436809
0.371300 0.609528 0.436290
0.365793 0.593855 0.422465
0.608874 0.522064 0.432441
0.635016 0.502995 0.446469
0.628049 0.487196 0.440362
0.622314 0.474902 0.435268
0.381203 0.628135 0.457837
0.383979 0.631862 0.458023
0.383293 0.630006 0.454036
0.384041 0.630645 0.453195
0.387039 0.633637 0.454436
0.408556 0.629317 0.443558
0.687403 0.630138 0.493205
0.688042 0.613610 0.491164
0.686474 0.596515 0.488003
0.389224 0.641444 0.469072
0.388403 0.639195 0.464219
0.387715 0.637305 0.460116
0.387775 0.636872 0.458250
0.390256 0.640022 0.460073
0.395918 0.639888 0.457674
0.570533 0.635111 0.449787
0.696409 0.640398 0.499876
0.702411 0.641093 0.503458
0.393763 0.649082 0.475922
0.392859 0.646593 0.470501
0.392142 0.644614 0.466167
0.391778 0.643489 0.463522
0.393743 0.646180 0.465335
0.397214 0.648111 0.465104
0.433724 0.643145 0.446555
0.697619 0.645993 0.501469
0.704160 0.646508 0.505243
0.052647 0.065602 0.079623
0.061507 0.066156 0.080292
0.094767 0.075690 0.085450
0.173999 0.120805 0.127251
0.321337 0.216482 0.222620
0.481327 0.326781 0.334325
0.540926 0.368950 0.376278
0.543622 0.371071 0.378423
0.545689 0.372754 0.380148
0.058172 0.077154 0.097261
0.063157 0.078827 0.101761
0.109204 0.085473 0.097176
0.239998 0.163515 0.169979
0.459382 0.311864 0.319098
0.540413 0.368770 0.375887
0.542541 0.370313 0.377418
0.544551 0.371781 0.378858
0.546599 0.373352 0.380446
0.063411 0.103373 0.110243
0.066594 0.111151 0.113578
0.089692 0.107579 0.110595
0.214235 0.155227 0.157597
0.436488 0.297279 0.302708
0.544767 0.372677 0.378324
0.546271 0.373508 0.379430
0.547397 0.374133 0.380240
0.548604 0.374817 0.381097
0.094944 0.166849 0.151791
0.113853 0.197674 0.168558
0.111209 0.190331 0.158931
0.191305 0.170963 0.147106
0.413750 0.288885 0.285112
0.554066 0.382674 0.382435
0.558505 0.384674 0.385499
0.558052 0.383486 0.385403
0.557835 0.382715 0.385501
0.173250 0.295428 0.235326
0.229918 0.386326 0.293273
0.224549 0.375904 0.280870
0.221155 0.366123 0.265938
0.389823 0.324441 0.277655
0.579109 0.422062 0.402897
0.586477 0.423052 0.406972
0.584549 0.418291 0.404885
0.581906 0.412668 0.402295
0.295862 0.494409 0.374309
0.353766 0.587545 0.441313
0.365989 0.605998 0.450843
0.365326 0.602317 0.440733
0.365190 0.592890 0.425955
0.600093 0.531155 0.429586
0.642534 0.516471 0.453054
0.636734 0.502032 0.447925
0.633230 0.492635 0.444552
0.387532 0.644330 0.492596
0.390870 0.648674 0.491689
0.389508 0.644970 0.483108
0.389043 0.642022 0.473909
0.390049 0.639411 0.464425
0.411980 0.631276 0.446110
0.688848 0.634418 0.494950
0.691901 0.625131 0.495297
0.693628 0.614915 0.494909
0.396667 0.659988 0.507870
0.395365 0.656388 0.499186
0.393906 0.652393 0.489923
0.392874 0.648710 0.480426
0.393499 0.646690 0.471724
0.399122 0.641844 0.461057
0.578236 0.636563 0.452954
0.696874 0.641410 0.500547
0.702876 0.642072 0.504097
0.401213 0.667829 0.515707
0.399863 0.664104 0.506637
0.398310 0.659783 0.496607
0.396885 0.655546 0.486815
0.397044 0.653554 0.478544
0.399498 0.650890 0.469846
0.438555 0.644569 0.447789
0.697155 0.646925 0.501627
0.704615 0.647477 0.505877
0.059404 0.073751 0.106590
0.065268 0.073562 0.107178
0.101526 0.076766 0.100186
0.183099 0.124392 0.137996
0.340193 0.229868 0.239401
0.492509 0.335992 0.345124
0.542391 0.371501 0.380124
0.544641 0.373355 0.382191
0.546992 0.375293 0.384390
0.094450 0.112014 0.179133
0.099520 0.117176 0.187679
0.118273 0.100924 0.167702
0.267540 0.179925 0.198988
0.466764 0.318624 0.329767
0.541874 0.372104 0.381548
0.544123 0.373767 0.383203
0.546264 0.375348 0.384724
0.548437 0.376967 0.386340
0.082339 0.114480 0.155645
0.092478 0.129004 0.173431
0.104459 0.129945 0.182314
0.224246 0.162893 0.184020
0.424941 0.292852 0.304309
0.545922 0.376951 0.385430
0.549158 0.378911 0.387523
0.550204 0.379393 0.388258
0.551343 0.379962 0.388989
0.112009 0.181567 0.204214
0.129750 0.225504 0.229231
0.121394 0.207689 0.215901
0.181103 0.206614 0.208499
0.406375 0.298048 0.301922
0.557201 0.390721 0.394279
0.563873 0.393603 0.397853
0.563111 0.391905 0.396927
0.562535 0.390472 0.396106
0.187412 0.329559 0.305539
0.240517 0.413534 0.354527
0.226602 0.390269 0.337275
0.219979 0.372367 0.310852
0.382241 0.345503 0.291919
0.581235 0.434316 0.413377
0.596798 0.437069 0.420363
0.592916 0.429138 0.416215
0.589282 0.421817 0.412649
0.310202 0.527840 0.442979
0.364774 0.614642 0.501965
0.366004 0.615544 0.498550
0.362622 0.606099 0.479196
0.365305 0.592599 0.448490
0.594650 0.544751 0.437126
0.653595 0.535176 0.466694
0.649361 0.522847 0.462051
0.643643 0.509130 0.456401
0.397847 0.670333 0.555054
0.401440 0.675183 0.554398
0.400515 0.672416 0.546285
0.400131 0.668874 0.531575
0.400293 0.661606 0.508028
0.425248 0.648198 0.475310
0.692813 0.642909 0.501321
0.696614 0.634969 0.502106
0.699077 0.626208 0.502015
0.407287 0.687058 0.574534
0.406680 0.684923 0.567836
0.405050 0.680367 0.555138
0.403703 0.675378 0.538880
0.403194 0.669398 0.517801
0.410976 0.658644 0.490947
0.590456 0.646728 0.465648
0.699392 0.646788 0.504259
0.705513 0.647569 0.507835
0.412405 0.696742 0.588208
0.411615 0.694062 0.579946
0.409543 0.688136 0.563406
0.407398 0.681883 0.545703
0.406588 0.676439 0.526147
0.408734 0.668290 0.502578
0.466022 0.656250 0.463160
0.699474 0.650772 0.504575
0.705978 0.650352 0.507768
0.085631 0.101284 0.163488
0.087598 0.102060 0.164324
0.099722 0.092275 0.156714
0.201335 0.132876 0.167641
0.358656 0.241308 0.262673
0.504202 0.344674 0.360234
0.546262 0.375750 0.389218
0.549130 0.377914 0.392126
0.552193 0.380169 0.395306
0.201170 0.226990 0.364396
0.205717 0.232188 0.371939
0.187444 0.208429 0.335349
0.334278 0.219235 0.312849
0.501078 0.341151 0.378269
0.552099 0.379784 0.404257
0.553841 0.381222 0.404185
0.555891 0.382815 0.405025
0.558167 0.384544 0.406429
0.164373 0.190746 0.301955
0.181930 0.212393 0.331816
0.186613 0.213985 0.337190
0.243863 0.197390 0.323960
0.462151 0.316480 0.359819
0.556199 0.386047 0.410382
0.558954 0.387752 0.410765
0.560417 0.388281 0.411318
0.561902 0.388897 0.411779
0.160081 0.215476 0.295473
0.186052 0.264471 0.338910
0.188804 0.255657 0.344126
0.213037 0.260087 0.359301
0.425535 0.315177 0.364629
0.564360 0.404463 0.428052
0.575433 0.409803 0.431747
0.575023 0.407369 0.430186
0.574812 0.405419 0.428701
0.222994 0.351824 0.401282
0.268269 0.458698 0.465749
0.253868 0.429990 0.444990
0.244345 0.405550 0.422347
0.388658 0.425585 0.432613
0.597207 0.471162 0.475701
0.617532 0.468785 0.474391
0.611357 0.457613 0.466376
0.605644 0.447764 0.458792
0.327460 0.564327 0.547068
0.377811 0.650402 0.597644
0.374686 0.644626 0.591174
0.366904 0.628555 0.574904
0.378698 0.616731 0.543553
0.605568 0.595201 0.498489
0.683035 0.585599 0.517798
0.676472 0.566794 0.507665
0.668332 0.546747 0.498336
0.408609 0.703989 0.652564
0.412282 0.709184 0.652315
0.412349 0.708388 0.647816
0.414574 0.709663 0.641263
0.418369 0.705172 0.614212
0.459214 0.689585 0.556149
0.705101 0.671420 0.529896
0.710894 0.665290 0.531072
0.713469 0.656285 0.527658
0.418262 0.722274 0.680168
0.418011 0.721330 0.675564
0.417411 0.718893 0.666166
0.418167 0.717346 0.653613
0.419839 0.712093 0.625290
0.433559 0.698450 0.574440
0.607568 0.680134 0.510688
0.708782 0.667437 0.522444
0.715282 0.668290 0.525818
0.424402 0.733942 0.702487
0.423485 0.731860 0.693744
0.422542 0.729140 0.683192
0.421666 0.724231 0.662962
0.422343 0.718372 0.633969
0.426677 0.706876 0.589393
0.511861 0.690030 0.522629
0.707826 0.669540 0.520663
0.713008 0.665313 0.519699
0.140682 0.159925 0.261491
0.148969 0.168593 0.275096
0.133362 0.146860 0.240411
0.211692 0.155108 0.255409
0.390724 0.260688 0.316416
0.523400 0.356628 0.395366
0.558738 0.383229 0.417273
0.562249 0.385678 0.421669
0.566419 0.388477 0.427889
0.249407 0.281291 0.445290
0.250158 0.282372 0.446553
0.249642 0.281219 0.444679
0.314017 0.292187 0.488752
0.564553 0.375205 0.514502
0.585897 0.394500 0.502111
0.584358 0.395263 0.490470
0.583845 0.396249 0.482685
0.584454 0.397516 0.478610
0.257017 0.293053 0.458284
0.262610 0.301232 0.467732
0.260921 0.298147 0.464358
0.274689 0.298933 0.467515
0.530315 0.355146 0.513585
0.589404 0.399944 0.505207
0.587987 0.400538 0.493785
0.588072 0.401086 0.488964
0.588851 0.401755 0.486569
0.256766 0.303136 0.458580
0.284189 0.347745 0.506086
0.281630 0.337472 0.500587
0.284561 0.332279 0.497767
0.449397 0.348639 0.537422
0.599061 0.417072 0.524526
0.603553 0.421462 0.514738
0.603129 0.420210 0.510309
0.603258 0.418750 0.508390
0.294967 0.401758 0.526114
0.329193 0.488010 0.583663
0.332319 0.484929 0.588613
0.331969 0.462772 0.584495
0.382680 0.451804 0.595198
0.627129 0.490442 0.591393
0.647615 0.491849 0.575284
0.642524 0.479346 0.565810
0.637224 0.467411 0.556256
0.373504 0.590384 0.659636
0.406882 0.680286 0.710777
0.407592 0.684017 0.710654
0.400248 0.666474 0.697333
0.407195 0.654081 0.683781
0.640252 0.708788 0.731481
0.749276 0.699921 0.721530
0.736971 0.665767 0.697255
0.721295 0.627982 0.669223
0.432380 0.729950 0.752978
0.434248 0.736063 0.754661
0.433901 0.736520 0.753261
0.436013 0.741599 0.754609
0.441164 0.748872 0.753912
0.500861 0.767098 0.743965
0.755903 0.771186 0.692648
0.762774 0.762306 0.682046
0.762595 0.747827 0.663499
0.443272 0.745196 0.773070
0.442692 0.745444 0.771662
0.441876 0.745588 0.769711
0.442842 0.749327 0.769654
0.444757 0.755120 0.767313
0.462283 0.762661 0.747778
0.686655 0.778523 0.696909
0.744271 0.739393 0.623537
0.751633 0.740107 0.625729
0.449878 0.753584 0.785253
0.449282 0.753839 0.783793
0.448654 0.754061 0.782266
0.448006 0.755989 0.779973
0.447941 0.760570 0.775584
0.450863 0.763935 0.754991
0.582176 0.775865 0.708021
0.739978 0.738462 0.615406
0.736699 0.715205 0.579905
0.215852 0.242567 0.389008
0.230037 0.258601 0.412686
0.206923 0.231761 0.371800
0.221604 0.220579 0.372389
0.425877 0.280617 0.417921
0.555638 0.372885 0.472618
0.583262 0.393967 0.488924
0.587672 0.396495 0.496302
0.591942 0.398958 0.503235
0.251975 0.284196 0.449601
0.252815 0.285391 0.451003
0.252715 0.284893 0.449995
0.308872 0.297522 0.495551
0.586159 0.386964 0.573955
0.605027 0.399298 0.575137
0.607924 0.401390 0.575068
0.610247 0.403357 0.573711
0.612015 0.405201 0.570302
0.260218 0.296486 0.463569
0.265052 0.303892 0.471784
0.263320 0.300810 0.468429
0.275144 0.302726 0.472173
0.533695 0.367378 0.569620
0.608410 0.403153 0.580419
0.611325 0.405189 0.580407
0.613356 0.406733 0.578572
0.615169 0.408138 0.576345
0.278158 0.325567 0.494263
0.293133 0.352296 0.520388
0.289324 0.344627 0.513405
0.289316 0.338122 0.507591
0.427782 0.359366 0.568918
0.619370 0.417609 0.599219
0.623651 0.420244 0.598736
0.625380 0.421111 0.596037
0.626595 0.421291 0.593060
0.328177 0.423317 0.582496
0.361427 0.498189 0.638674
0.364337 0.504584 0.643363
0.352285 0.471668 0.620984
0.376743 0.447629 0.611586
0.629918 0.460990 0.645163
0.654157 0.466140 0.642492
0.654621 0.463049 0.637081
0.653489 0.457713 0.630349
0.402095 0.603116 0.708169
0.432308 0.690159 0.760751
0.439269 0.709993 0.771989
0.434372 0.692536 0.763409
0.432808 0.670123 0.751562
0.588563 0.681967 0.789337
0.748439 0.677915 0.790265
0.744839 0.652415 0.771836
0.733370 0.612009 0.745200
0.448979 0.736590 0.787296
0.451309 0.742750 0.790813
0.451546 0.743364 0.791117
0.454140 0.748703 0.794707
0.459503 0.757413 0.799590
0.511739 0.782651 0.816624
0.771172 0.858262 0.893491
0.793288 0.858651 0.896386
0.804366 0.852229 0.893956
0.453524 0.748969 0.794171
0.453853 0.749605 0.794626
0.454177 0.750232 0.795080
0.456386 0.754677 0.798241
0.461058 0.762701 0.803277
0.487466 0.780347 0.813474
0.722946 0.854723 0.884131
0.792525 0.866364 0.884907
0.803312 0.866425 0.882492
0.456064 0.755845 0.797993
0.456393 0.756482 0.798448
0.456728 0.757103 0.798901
0.458294 0.760266 0.801162
0.462104 0.767328 0.805866
0.473694 0.778770 0.811888
0.619977 0.830473 0.855628
0.787585 0.869904 0.885760
0.802776 0.850955 0.839410
0.253219 0.285118 0.451643
0.253971 0.286035 0.452724
0.254167 0.286291 0.452632
0.260416 0.285128 0.451369
0.399581 0.313300 0.516036
0.581784 0.384231 0.553960
0.605525 0.399939 0.568088
0.609262 0.402237 0.572368
0.612503 0.404423 0.574576
0.254491 0.287046 0.453806
0.255395 0.288314 0.455299
0.255693 0.288491 0.455174
0.304976 0.299560 0.495946
0.585613 0.386516 0.579072
0.606248 0.399574 0.580545
0.609171 0.401672 0.580584
0.612027 0.403747 0.580590
0.614686 0.405796 0.580578
0.262185 0.298486 0.466831
0.267255 0.306270 0.475461
0.265587 0.303312 0.472303
0.274564 0.304191 0.474177
0.527859 0.366061 0.572332
0.608700 0.402375 0.584389
0.611588 0.404380 0.584336
0.614348 0.406305 0.584176
0.616749 0.408020 0.583730
0.279270 0.326047 0.496052
0.292565 0.349487 0.519215
0.290340 0.344813 0.515010
0.289849 0.338704 0.509491
0.414594 0.357343 0.568756
0.619418 0.415898 0.601886
0.622579 0.417419 0.601133
0.625525 0.419190 0.601018
0.627601 0.420204 0.599888
0.325513 0.415102 0.577688
0.357986 0.486981 0.633028
0.365675 0.504686 0.645751
0.351233 0.466936 0.619650
0.371743 0.441929 0.608352
0.624404 0.454391 0.644743
0.647978 0.453927 0.638447
0.651588 0.455110 0.638397
0.652666 0.453356 0.635211
0.403785 0.603727 0.711009
0.432522 0.686365 0.761336
0.442303 0.714177 0.777328
0.436001 0.693747 0.766572
0.431942 0.666390 0.751844
0.573949 0.669072 0.783992
0.728439 0.628268 0.765264
0.731714 0.620700 0.759088
0.728299 0.600391 0.745154
0.450532 0.737642 0.790248
0.452635 0.743181 0.793424
0.452946 0.743814 0.793885
0.454974 0.747878 0.796808
0.459784 0.756116 0.802179
0.491429 0.775533 0.815257
0.767108 0.858483 0.901555
0.792511 0.860282 0.905975
0.803665 0.857449 0.905428
0.454815 0.749387 0.796752
0.455139 0.750034 0.797207
0.455456 0.750674 0.797661
0.457326 0.754435 0.800383
0.461781 0.762328 0.805540
0.484824 0.779165 0.815983
0.732220 0.859973 0.895904
0.789009 0.876320 0.913424
0.800791 0.878797 0.916134
0.457355 0.756264 0.800574
0.457679 0.756911 0.801029
0.458007 0.757545 0.801483
0.459513 0.760543 0.803665
0.463445 0.767867 0.808557
0.477632 0.780956 0.816042
0.672416 0.847462 0.878760
0.783966 0.880213 0.914233
0.800038 0.883933 0.917400
0.255951 0.288269 0.456207
0.256751 0.289275 0.457393
0.257106 0.289738 0.457586
0.266029 0.292307 0.461686
0.401295 0.323523 0.534526
0.591057 0.388852 0.583419
0.609386 0.400841 0.584412
0.612231 0.402933 0.584412
0.615082 0.405029 0.584412
0.257113 0.290030 0.458184
0.257916 0.291156 0.459511
0.258615 0.291997 0.460228
0.297981 0.301111 0.492613
0.577203 0.382459 0.582952
0.607401 0.399856 0.585956
0.610406 0.401960 0.586012
0.613261 0.404035 0.586017
0.616112 0.406131 0.586017
0.264156 0.300546 0.470127
0.269345 0.308490 0.478984
0.267800 0.305727 0.476096
0.274269 0.305657 0.476355
0.520183 0.364557 0.574441
0.609195 0.401922 0.588803
0.611928 0.403681 0.588421
0.614826 0.405771 0.588481
0.617586 0.407708 0.588313
0.280371 0.326591 0.497868
0.292337 0.347403 0.518619
0.291267 0.344822 0.516444
0.290627 0.339463 0.511532
0.399865 0.355145 0.567756
0.619108 0.414621 0.605554
0.621766 0.415221 0.603552
0.624668 0.416951 0.603375
0.627446 0.418629 0.603071
0.322376 0.406127 0.571961
0.353905 0.474589 0.626289
0.364763 0.499475 0.644365
0.349453 0.460584 0.617037
0.366288 0.435513 0.604367
0.616296 0.448881 0.645291
0.644378 0.447028 0.637057
0.646634 0.446477 0.635232
0.649794 0.447431 0.634799
0.400772 0.591180 0.705534
0.430204 0.675514 0.757370
0.443874 0.714969 0.780195
0.436641 0.692147 0.767973
0.430371 0.659183 0.750051
0.559096 0.653801 0.776854
0.718489 0.604695 0.754331
0.711477 0.572843 0.732351
0.715800 0.570889 0.730387
0.452013 0.738471 0.793084
0.453965 0.743612 0.796036
0.454276 0.744245 0.796502
0.455870 0.747436 0.798828
0.460364 0.755433 0.804234
0.485254 0.772647 0.815846
0.762821 0.856897 0.904586
0.792759 0.850834 0.905434
0.803589 0.851121 0.906536
0.456145 0.749818 0.799364
0.456469 0.750465 0.799819
0.456786 0.751105 0.800279
0.458113 0.753757 0.802225
0.461995 0.761042 0.807186
0.475829 0.774268 0.815258
0.688678 0.847846 0.886588
0.787629 0.877165 0.918295
0.800356 0.880307 0.921693
0.458649 0.756683 0.803162
0.458972 0.757330 0.803617
0.459295 0.757975 0.804071
0.460481 0.760368 0.805803
0.464226 0.767469 0.810655
0.475604 0.779461 0.817737
0.653937 0.842769 0.877281
0.783270 0.881907 0.919699
0.799200 0.886572 0.924777
