luts/A_v_log/X-9400-VLOG.cube
# Copyright: (C) Copyright 2010-2019 by IWLTBAP SAS
# Cannot be resold, shared or otherwise redistributed
# Website: https://luts.iwltbap.com
TITLE "IWLTBAP 9400 (V-Log L)"
LUT_3D_SIZE 33
0.058800 0.043100 0.098000
0.062578 0.043100 0.098000
0.070106 0.046850 0.101750
0.077669 0.047100 0.102000
0.088725 0.047100 0.098500
0.106738 0.047100 0.098000
0.125725 0.050269 0.098000
0.153931 0.051000 0.101125
0.184350 0.051000 0.104925
0.217572 0.053803 0.105900
0.251700 0.060263 0.108581
0.283306 0.062700 0.112359
0.316163 0.065200 0.118638
0.348044 0.071331 0.123916
0.382850 0.076694 0.127694
0.422897 0.084669 0.133597
0.472550 0.096100 0.137300
0.529563 0.105656 0.137300
0.586525 0.118375 0.135550
0.641903 0.138947 0.131716
0.690663 0.163213 0.129400
0.724372 0.188478 0.129400
0.742175 0.207588 0.128181
0.756219 0.217894 0.125500
0.765675 0.224500 0.125500
0.768600 0.227500 0.125500
0.768600 0.227500 0.125500
0.768600 0.227500 0.125500
0.768600 0.227500 0.125500
0.768600 0.227500 0.125500
0.768600 0.227500 0.125500
0.768600 0.227500 0.125500
0.768600 0.227500 0.125500
0.058800 0.043100 0.098000
0.062578 0.043100 0.098000
0.070106 0.046850 0.101750
0.077669 0.047100 0.102000
0.085419 0.047100 0.098500
0.102959 0.047100 0.098000
0.121947 0.050269 0.098000
0.150153 0.051000 0.101125
0.180499 0.051000 0.104925
0.213697 0.053803 0.105900
0.247892 0.060263 0.111179
0.279528 0.062700 0.113658
0.312384 0.062778 0.116216
0.344266 0.067514 0.120098
0.379072 0.075041 0.123916
0.421126 0.084669 0.129767
0.472550 0.096100 0.135363
0.529563 0.105656 0.137300
0.584872 0.118375 0.135550
0.638125 0.138947 0.131716
0.686884 0.163213 0.129400
0.721892 0.188478 0.129400
0.742175 0.207588 0.128181
0.756219 0.217894 0.125500
0.765675 0.224500 0.125500
0.768600 0.227500 0.125500
0.768600 0.227500 0.125500
0.768600 0.227500 0.125500
0.768600 0.227500 0.125500
0.768600 0.227500 0.125500
0.768600 0.227500 0.125500
0.768600 0.227500 0.125500
0.768600 0.227500 0.125500
0.062456 0.046850 0.101750
0.066325 0.046850 0.101750
0.070341 0.047084 0.101984
0.077669 0.047100 0.102000
0.085313 0.047100 0.098500
0.102838 0.047100 0.098000
0.118854 0.050269 0.098000
0.149231 0.051000 0.101125
0.180375 0.053742 0.104925
0.213572 0.057459 0.108528
0.247769 0.061405 0.114919
0.279406 0.062700 0.117356
0.312263 0.062700 0.117509
0.344144 0.067391 0.119975
0.378950 0.074988 0.123794
0.421069 0.084669 0.129644
0.472550 0.096100 0.135300
0.529563 0.105656 0.137300
0.584819 0.118375 0.135550
0.636518 0.138947 0.133201
0.683106 0.163213 0.131685
0.719413 0.188478 0.129400
0.742175 0.207588 0.128181
0.756219 0.217894 0.125500
0.765675 0.224500 0.125500
0.768600 0.227500 0.125500
0.768600 0.227500 0.125500
0.768600 0.227500 0.125500
0.768600 0.227500 0.125500
0.768600 0.227500 0.125500
0.768600 0.227500 0.125500
0.768600 0.227500 0.125500
0.768600 0.227500 0.125500
0.059166 0.050634 0.102000
0.062953 0.047210 0.102000
0.066816 0.047100 0.102000
0.077337 0.047100 0.098715
0.088405 0.050193 0.098047
0.106372 0.050634 0.098000
0.122191 0.053803 0.098000
0.149951 0.054534 0.101125
0.180375 0.054809 0.102274
0.216177 0.057703 0.105169
0.251331 0.061481 0.111628
0.280621 0.062700 0.116385
0.312263 0.062700 0.117600
0.344144 0.067391 0.119975
0.378950 0.074988 0.123794
0.421069 0.084669 0.129644
0.472550 0.096100 0.135300
0.532876 0.105656 0.137300
0.591888 0.118375 0.135550
0.643488 0.138947 0.131864
0.688606 0.163213 0.129629
0.721573 0.188478 0.129400
0.742175 0.207588 0.128181
0.756219 0.217894 0.125500
0.765675 0.224500 0.125500
0.768600 0.227500 0.125500
0.768600 0.227500 0.125500
0.768600 0.227500 0.125500
0.768600 0.227500 0.125500
0.768600 0.227500 0.125500
0.768600 0.227500 0.125500
0.768600 0.227500 0.125500
0.768600 0.227500 0.125500
0.055388 0.054413 0.105413
0.059166 0.050634 0.105413
0.062955 0.050513 0.105413
0.073882 0.050513 0.098695
0.088298 0.053925 0.098000
0.106738 0.054413 0.100953
0.125329 0.057581 0.101500
0.153444 0.058313 0.101891
0.183853 0.058313 0.102000
0.217431 0.061116 0.104803
0.251700 0.064954 0.111263
0.282986 0.066200 0.116259
0.315675 0.066200 0.117600
0.347556 0.068813 0.119975
0.380443 0.074988 0.123794
0.419256 0.084669 0.129644
0.470844 0.096100 0.135300
0.534818 0.107256 0.137300
0.597563 0.120295 0.135550
0.649709 0.138947 0.131716
0.692613 0.163213 0.129400
0.724052 0.188478 0.129400
0.742175 0.207588 0.128181
0.756219 0.217894 0.125500
0.765675 0.224500 0.125500
0.768600 0.227500 0.125500
0.768600 0.227500 0.125500
0.768600 0.227500 0.125500
0.768600 0.227500 0.125500
0.768600 0.227500 0.125500
0.768600 0.227500 0.125500
0.768600 0.227500 0.125500
0.768600 0.227500 0.125500
0.051609 0.064856 0.105900
0.052200 0.064266 0.105900
0.055875 0.064247 0.105900
0.069795 0.061188 0.101799
0.084947 0.061405 0.101375
0.106223 0.061481 0.104679
0.125725 0.061976 0.102617
0.153931 0.064727 0.102000
0.184350 0.065466 0.102000
0.215146 0.068269 0.104803
0.248383 0.072058 0.111263
0.282175 0.073281 0.116259
0.318219 0.073281 0.117600
0.349381 0.073643 0.119975
0.380656 0.078326 0.123794
0.418997 0.086251 0.129644
0.468913 0.096100 0.135300
0.530169 0.107484 0.137300
0.591651 0.120569 0.135550
0.645199 0.138947 0.131716
0.691043 0.163213 0.129400
0.724372 0.188478 0.129400
0.742175 0.207588 0.128181
0.756219 0.217894 0.125500
0.765675 0.224500 0.125500
0.768600 0.227500 0.125500
0.768600 0.227500 0.125500
0.768600 0.227500 0.125500
0.768600 0.227500 0.125500
0.768600 0.227500 0.125500
0.768600 0.227500 0.125500
0.768600 0.227500 0.125500
0.768600 0.227500 0.125500
0.044581 0.079456 0.109069
0.044581 0.079456 0.109069
0.045267 0.079456 0.109069
0.062412 0.075831 0.108406
0.077919 0.072684 0.108338
0.102452 0.069614 0.108954
0.125131 0.069119 0.105900
0.153931 0.072180 0.105169
0.184350 0.075414 0.105169
0.214697 0.079068 0.107972
0.245590 0.080690 0.114431
0.282956 0.080919 0.117349
0.321820 0.080919 0.117600
0.352830 0.080919 0.119975
0.382043 0.083534 0.123794
0.418997 0.089713 0.129644
0.468600 0.099269 0.135300
0.527780 0.109168 0.137300
0.587256 0.120569 0.135550
0.642337 0.138947 0.131716
0.689474 0.163213 0.129400
0.722292 0.188478 0.129400
0.742175 0.207588 0.128181
0.756219 0.217894 0.125500
0.765675 0.224500 0.125500
0.768600 0.227500 0.125500
0.768600 0.227500 0.125500
0.768600 0.227500 0.125500
0.768600 0.227500 0.125500
0.768600 0.227500 0.125500
0.768600 0.227500 0.125500
0.768600 0.227500 0.125500
0.768600 0.227500 0.125500
0.040053 0.106853 0.112847
0.040053 0.103901 0.112847
0.040053 0.100950 0.112847
0.052293 0.097205 0.112847
0.064563 0.096091 0.112847
0.086767 0.095265 0.112847
0.112157 0.092592 0.109678
0.148868 0.092673 0.108947
0.183588 0.093499 0.108947
0.216943 0.096588 0.111750
0.248159 0.097713 0.118263
0.284232 0.097713 0.120725
0.322563 0.097713 0.122629
0.359042 0.097713 0.124291
0.393295 0.099906 0.126841
0.429644 0.104138 0.132732
0.476295 0.110703 0.138386
0.532145 0.120162 0.140347
0.589572 0.132834 0.138631
0.643712 0.149975 0.134809
0.689200 0.170117 0.131304
0.721813 0.190478 0.129400
0.742175 0.207588 0.128181
0.756219 0.217894 0.125500
0.765675 0.224500 0.125500
0.768600 0.227500 0.125500
0.768600 0.227500 0.125500
0.768600 0.227500 0.125500
0.768600 0.227500 0.125500
0.768600 0.227500 0.125500
0.768600 0.227500 0.125500
0.768600 0.227500 0.125500
0.768600 0.227500 0.125500
0.033350 0.131400 0.119625
0.033350 0.130455 0.116719
0.036092 0.126698 0.116625
0.041599 0.122916 0.116625
0.049894 0.122550 0.119250
0.070849 0.122550 0.119625
0.096788 0.119361 0.116395
0.140245 0.116340 0.113365
0.181894 0.113450 0.112725
0.219674 0.113419 0.115528
0.254006 0.115763 0.122056
0.286562 0.116700 0.126445
0.324391 0.116700 0.129888
0.365237 0.116700 0.131350
0.403852 0.117248 0.133586
0.441400 0.119747 0.137928
0.485763 0.125475 0.142175
0.540719 0.134906 0.144125
0.597995 0.148044 0.142419
0.648925 0.164838 0.137412
0.692125 0.182728 0.131838
0.724738 0.198882 0.129400
0.745123 0.212575 0.128181
0.758375 0.220840 0.125500
0.765675 0.226750 0.125500
0.768600 0.227500 0.125500
0.768600 0.227500 0.125500
0.768600 0.227500 0.125500
0.768600 0.227500 0.125500
0.768600 0.227500 0.125500
0.768600 0.227500 0.125500
0.768600 0.227500 0.125500
0.768600 0.227500 0.125500
0.031400 0.159797 0.124403
0.031400 0.159797 0.120598
0.032428 0.156114 0.120475
0.038572 0.154875 0.123015
0.046113 0.154772 0.124263
0.062137 0.154772 0.124403
0.082688 0.151603 0.121212
0.128821 0.145579 0.119618
0.175039 0.141151 0.121480
0.218778 0.138154 0.122970
0.257596 0.138139 0.126733
0.291930 0.140330 0.130863
0.330633 0.141294 0.132889
0.372440 0.142958 0.135007
0.412028 0.144097 0.138385
0.451492 0.143190 0.140686
0.498083 0.144889 0.143150
0.554422 0.155547 0.145100
0.611803 0.172920 0.143394
0.662917 0.191331 0.137991
0.707214 0.208856 0.131838
0.738884 0.224041 0.129400
0.757368 0.235881 0.128181
0.769538 0.239991 0.125500
0.774156 0.240869 0.125500
0.775839 0.236873 0.125500
0.770878 0.229778 0.125500
0.768600 0.227500 0.125500
0.768600 0.227500 0.125500
0.768600 0.227500 0.125500
0.768600 0.227500 0.125500
0.768600 0.227500 0.125500
0.768600 0.227500 0.125500
0.031400 0.190188 0.128181
0.031400 0.190188 0.127001
0.031400 0.189045 0.126963
0.038469 0.188969 0.130497
0.046113 0.188969 0.130863
0.058000 0.188969 0.128600
0.071612 0.187979 0.127191
0.115083 0.181632 0.126963
0.163767 0.174931 0.129888
0.211968 0.170466 0.130863
0.258496 0.167525 0.131700
0.298206 0.167487 0.132881
0.338243 0.169582 0.133300
0.380040 0.172903 0.135675
0.419613 0.174488 0.139494
0.459696 0.172416 0.142624
0.510063 0.172538 0.144491
0.568342 0.182418 0.145100
0.624263 0.201168 0.143394
0.676939 0.222798 0.137991
0.723505 0.240925 0.132843
0.755708 0.253483 0.132081
0.774412 0.263235 0.130863
0.784419 0.265183 0.128181
0.787598 0.260916 0.128181
0.786784 0.251334 0.128181
0.779379 0.240947 0.127679
0.773602 0.234706 0.125500
0.771281 0.230181 0.125500
0.771030 0.229930 0.125500
0.768600 0.227500 0.125500
0.768600 0.227500 0.125500
0.768600 0.227500 0.125500
0.039078 0.228284 0.137144
0.039078 0.228284 0.137144
0.039078 0.228284 0.137144
0.041508 0.228284 0.138359
0.046432 0.228284 0.138484
0.056972 0.228284 0.137353
0.068388 0.230417 0.135064
0.100395 0.226764 0.132534
0.141154 0.221647 0.132965
0.194134 0.215685 0.133300
0.247460 0.209383 0.133300
0.296683 0.205664 0.133300
0.343899 0.204023 0.133300
0.386090 0.208959 0.135675
0.426086 0.214090 0.139494
0.470019 0.214497 0.143272
0.524020 0.215819 0.145100
0.581766 0.222698 0.145100
0.635663 0.235206 0.143394
0.687807 0.253667 0.137991
0.734544 0.272053 0.133300
0.769636 0.282560 0.133300
0.791259 0.289821 0.132881
0.802188 0.290712 0.131959
0.805063 0.283728 0.131959
0.803894 0.274833 0.131959
0.798259 0.266172 0.131228
0.790907 0.258177 0.128059
0.785100 0.248741 0.128059
0.781958 0.243651 0.128059
0.773620 0.237258 0.127899
0.771079 0.229979 0.125500
0.768600 0.227500 0.125500
0.048038 0.270100 0.151013
0.048038 0.270100 0.151013
0.050323 0.270100 0.151013
0.050475 0.270100 0.148747
0.051788 0.270100 0.148513
0.059790 0.272157 0.148513
0.068845 0.275737 0.145344
0.091274 0.275303 0.141536
0.120978 0.273878 0.138847
0.172264 0.267906 0.138238
0.228632 0.260281 0.134843
0.285818 0.253654 0.133300
0.342833 0.249038 0.133300
0.390907 0.253097 0.135675
0.433102 0.260475 0.139494
0.480344 0.264570 0.143272
0.536744 0.268881 0.145100
0.595019 0.273421 0.145100
0.648465 0.279071 0.144460
0.698668 0.291879 0.140454
0.746013 0.307325 0.135800
0.783944 0.316543 0.135800
0.806845 0.320531 0.135800
0.820109 0.320044 0.135800
0.826488 0.314213 0.135800
0.825626 0.307168 0.135800
0.821076 0.300980 0.135057
0.813850 0.290819 0.131838
0.808216 0.279583 0.131838
0.799125 0.269427 0.131838
0.785910 0.256963 0.131594
0.779753 0.243374 0.127861
0.775975 0.234813 0.125500
0.057947 0.309575 0.168538
0.057947 0.309575 0.168538
0.061659 0.309575 0.170708
0.061906 0.307476 0.165130
0.061906 0.305181 0.164538
0.068488 0.308225 0.164538
0.076125 0.313894 0.161369
0.095966 0.316868 0.157591
0.119950 0.317375 0.152076
0.158465 0.316804 0.148815
0.205094 0.312742 0.142756
0.264808 0.305878 0.140306
0.331554 0.300759 0.138859
0.389819 0.299768 0.140330
0.438649 0.304534 0.141520
0.488697 0.311293 0.143272
0.545811 0.319294 0.145100
0.605858 0.325467 0.145100
0.662712 0.330153 0.145100
0.713775 0.339053 0.142872
0.759416 0.349100 0.139616
0.796029 0.356352 0.140412
0.818121 0.358950 0.141931
0.833825 0.357836 0.141931
0.842306 0.352462 0.141931
0.841440 0.342987 0.141931
0.837745 0.334050 0.141192
0.834528 0.322700 0.137991
0.830059 0.311274 0.137701
0.820562 0.299952 0.135452
0.808123 0.288994 0.133201
0.802822 0.273906 0.131666
0.799044 0.262475 0.130131
0.067144 0.347550 0.191913
0.067144 0.347550 0.191913
0.070841 0.347550 0.193512
0.071088 0.344016 0.188498
0.071088 0.340199 0.186049
0.077716 0.343034 0.185775
0.085317 0.348205 0.182606
0.105147 0.352303 0.178784
0.126267 0.354802 0.172069
0.152235 0.359802 0.164090
0.188436 0.363357 0.154861
0.247550 0.360502 0.151738
0.319752 0.356138 0.147894
0.384754 0.350997 0.146601
0.441946 0.351691 0.145100
0.495144 0.358331 0.144300
0.552319 0.367888 0.145100
0.615233 0.377672 0.145100
0.675482 0.384571 0.145100
0.727698 0.390059 0.144407
0.771816 0.395490 0.143394
0.806879 0.399595 0.144734
0.828463 0.400744 0.147979
0.845240 0.399635 0.149488
0.853681 0.393861 0.149488
0.853298 0.382475 0.149008
0.851931 0.371096 0.146974
0.851665 0.359357 0.145588
0.849250 0.346356 0.144826
0.841524 0.337058 0.139124
0.832575 0.326969 0.135550
0.828797 0.311881 0.135550
0.825019 0.300450 0.135550
0.076869 0.387597 0.220581
0.074810 0.387597 0.220581
0.078450 0.387597 0.220581
0.078697 0.385940 0.217047
0.080510 0.384169 0.215082
0.085641 0.383735 0.214853
0.089514 0.386866 0.213368
0.108559 0.389025 0.209942
0.128400 0.392390 0.203188
0.154730 0.400507 0.186787
0.190066 0.410120 0.171633
0.244568 0.414742 0.164558
0.313110 0.417018 0.156916
0.379415 0.413216 0.151935
0.442219 0.409896 0.148878
0.499895 0.411752 0.147172
0.559070 0.418330 0.146136
0.621695 0.429649 0.145100
0.680625 0.438716 0.145100
0.734518 0.442550 0.145100
0.781903 0.445551 0.145100
0.818263 0.446694 0.146441
0.839841 0.446694 0.150219
0.856621 0.444999 0.152900
0.865069 0.438250 0.152900
0.865069 0.428423 0.152500
0.865069 0.417038 0.151470
0.865069 0.405364 0.153197
0.864087 0.392625 0.152474
0.856480 0.382645 0.147050
0.849125 0.369141 0.143386
0.845347 0.353988 0.141444
0.841569 0.340550 0.141444
0.092200 0.433300 0.251000
0.088325 0.429522 0.249063
0.090075 0.429400 0.249000
0.092013 0.431167 0.247233
0.095613 0.431350 0.247050
0.097745 0.428059 0.247050
0.096466 0.429034 0.248675
0.111373 0.429400 0.247527
0.130388 0.432363 0.242638
0.160636 0.441795 0.222858
0.197534 0.454553 0.202225
0.245828 0.467841 0.185797
0.306388 0.479894 0.169369
0.372131 0.479639 0.158089
0.437491 0.474256 0.152678
0.501022 0.471514 0.150950
0.566650 0.474525 0.149000
0.629536 0.483934 0.146136
0.686525 0.492753 0.145100
0.741903 0.496892 0.145100
0.792163 0.498050 0.145100
0.830348 0.498050 0.147111
0.851956 0.497441 0.152184
0.866055 0.494427 0.154900
0.874500 0.488200 0.155388
0.874500 0.480206 0.156850
0.874500 0.470347 0.157225
0.874500 0.458956 0.159155
0.873519 0.447531 0.160306
0.866102 0.435600 0.156484
0.860553 0.418669 0.152703
0.856789 0.403459 0.149000
0.854900 0.388250 0.149000
0.114844 0.477175 0.275888
0.111014 0.469619 0.273829
0.109177 0.467661 0.273763
0.112645 0.471081 0.273763
0.116428 0.473046 0.273763
0.116916 0.469984 0.273763
0.113747 0.469375 0.276974
0.120918 0.469375 0.282037
0.133758 0.472300 0.284395
0.159972 0.480442 0.271829
0.193317 0.494008 0.251863
0.237875 0.514193 0.221240
0.295751 0.533125 0.188255
0.360802 0.537218 0.166814
0.427258 0.534369 0.156250
0.499603 0.532362 0.152900
0.577019 0.533463 0.150950
0.645479 0.537477 0.147172
0.702641 0.541514 0.145100
0.756248 0.543875 0.145100
0.804033 0.543875 0.145786
0.840575 0.543875 0.148981
0.862244 0.543228 0.154150
0.873146 0.541205 0.157928
0.880732 0.537728 0.161531
0.882103 0.530162 0.164456
0.882103 0.521828 0.164113
0.882103 0.510434 0.162952
0.881122 0.499010 0.164213
0.873891 0.486894 0.160606
0.870109 0.468381 0.158595
0.866403 0.456701 0.156603
0.866403 0.443263 0.156603
0.137975 0.513444 0.298288
0.135850 0.507540 0.298288
0.132125 0.503694 0.298288
0.135416 0.506984 0.298288
0.137701 0.509270 0.298288
0.137975 0.507693 0.298288
0.134806 0.507350 0.301456
0.135789 0.507350 0.312739
0.140881 0.508995 0.322856
0.158433 0.515222 0.320473
0.183911 0.526996 0.307477
0.223873 0.549384 0.271255
0.280790 0.571088 0.226865
0.345741 0.580464 0.194309
0.415163 0.583794 0.173080
0.496392 0.585306 0.162189
0.584350 0.585306 0.156113
0.659397 0.583686 0.150608
0.718397 0.581104 0.148513
0.770963 0.580144 0.148513
0.815935 0.580144 0.149991
0.848708 0.580144 0.154383
0.868124 0.580144 0.159299
0.878428 0.580144 0.164225
0.885081 0.578620 0.170838
0.888006 0.572322 0.173763
0.888006 0.563956 0.173031
0.888006 0.552873 0.169863
0.887238 0.542887 0.169370
0.881491 0.531082 0.165759
0.877819 0.515925 0.164213
0.875708 0.508297 0.164159
0.874013 0.498519 0.162506
0.155378 0.549225 0.329625
0.155378 0.545447 0.329625
0.154693 0.543154 0.329625
0.156745 0.545108 0.329625
0.155576 0.545325 0.328239
0.155378 0.545325 0.328041
0.153497 0.545325 0.329922
0.153063 0.545325 0.342622
0.155988 0.545325 0.353688
0.165969 0.548696 0.359677
0.182354 0.555881 0.357297
0.212364 0.574514 0.335690
0.260223 0.594113 0.299808
0.327050 0.608355 0.257910
0.404227 0.619691 0.217994
0.489112 0.624516 0.188937
0.580348 0.624516 0.169128
0.660914 0.622317 0.158955
0.724462 0.617426 0.157694
0.779823 0.613697 0.157694
0.825732 0.612162 0.159179
0.857006 0.611172 0.164893
0.873043 0.611667 0.172297
0.882235 0.612756 0.177200
0.888859 0.611781 0.183853
0.891784 0.607475 0.186778
0.891784 0.600644 0.186047
0.891784 0.591191 0.182878
0.891495 0.583261 0.182378
0.889103 0.573455 0.178364
0.885569 0.563744 0.173295
0.885445 0.556148 0.171637
0.881609 0.548534 0.166284
0.169125 0.585738 0.367638
0.170542 0.583376 0.367638
0.174244 0.583300 0.367638
0.174488 0.583300 0.367638
0.171075 0.582020 0.364192
0.170588 0.581838 0.363700
0.170588 0.581838 0.363700
0.170588 0.581838 0.373680
0.173513 0.581838 0.382325
0.179088 0.581838 0.392756
0.187952 0.583513 0.400793
0.207265 0.595259 0.399098
0.243247 0.610786 0.381142
0.309257 0.629193 0.335772
0.391656 0.646571 0.278748
0.478885 0.654189 0.230274
0.572288 0.655606 0.193150
0.657645 0.655652 0.174401
0.726115 0.651463 0.170770
0.783971 0.645475 0.169719
0.830400 0.641675 0.172050
0.861638 0.639238 0.178544
0.877426 0.639999 0.187963
0.886056 0.641675 0.193872
0.892638 0.641431 0.200159
0.895563 0.639833 0.201988
0.895563 0.635275 0.201530
0.895563 0.627938 0.199550
0.895563 0.621741 0.198867
0.895334 0.615568 0.193493
0.893034 0.609242 0.187415
0.891541 0.600255 0.182186
0.887763 0.592663 0.175950
0.180522 0.615913 0.402959
0.184333 0.615913 0.402959
0.186856 0.615913 0.402959
0.187016 0.615913 0.402959
0.184776 0.613673 0.400663
0.184456 0.613353 0.400334
0.184456 0.613353 0.400334
0.184456 0.613353 0.405459
0.186376 0.613353 0.410733
0.190782 0.613353 0.420469
0.197664 0.613353 0.430969
0.213007 0.621074 0.437677
0.244256 0.634931 0.431363
0.301506 0.653180 0.391615
0.378389 0.669715 0.334744
0.469761 0.679493 0.281266
0.569270 0.684545 0.233823
0.657707 0.684040 0.201598
0.727955 0.677825 0.186437
0.784316 0.672371 0.182120
0.827697 0.669350 0.186924
0.859878 0.666913 0.195094
0.878188 0.666913 0.204856
0.888494 0.666913 0.211519
0.895075 0.667888 0.217532
0.898000 0.670253 0.218538
0.898000 0.666784 0.218286
0.898000 0.659809 0.216982
0.898000 0.656191 0.215174
0.898000 0.653528 0.210272
0.897840 0.649344 0.206334
0.895361 0.639354 0.200154
0.892881 0.631734 0.196313
0.190669 0.636306 0.429625
0.193333 0.636306 0.429625
0.193419 0.636306 0.429625
0.193419 0.636306 0.429625
0.193419 0.636306 0.429625
0.193419 0.636306 0.429625
0.193419 0.636306 0.429625
0.193419 0.636306 0.431773
0.193419 0.636306 0.432375
0.199025 0.636306 0.440807
0.207441 0.636306 0.450375
0.223176 0.644784 0.458344
0.253676 0.658276 0.456150
0.302108 0.672304 0.424391
0.371108 0.684807 0.377364
0.464265 0.696836 0.326966
0.568722 0.704281 0.274513
0.659649 0.701968 0.228947
0.729964 0.694908 0.199652
0.782933 0.691206 0.192053
0.822538 0.690201 0.200255
0.856100 0.688525 0.211644
0.876969 0.688525 0.220606
0.887275 0.688525 0.225501
0.893856 0.689500 0.232131
0.896781 0.692425 0.235056
0.896781 0.690944 0.234554
0.896972 0.684106 0.231755
0.898000 0.681844 0.228406
0.898000 0.681592 0.228155
0.898000 0.678671 0.225481
0.898000 0.671050 0.221703
0.898000 0.663494 0.217925
0.196100 0.649294 0.445322
0.196100 0.649294 0.445322
0.196100 0.649294 0.445322
0.196100 0.649294 0.445322
0.196100 0.649294 0.445322
0.196100 0.649294 0.445322
0.196100 0.649294 0.445322
0.196100 0.649294 0.445322
0.196100 0.649294 0.446145
0.202495 0.650082 0.454900
0.213863 0.650391 0.466312
0.230756 0.660647 0.475128
0.259556 0.673394 0.472926
0.304739 0.684808 0.445660
0.370080 0.696188 0.404769
0.458994 0.709077 0.356747
0.561944 0.715922 0.301064
0.656462 0.712252 0.246168
0.731138 0.706388 0.207613
0.784525 0.704639 0.199604
0.822538 0.705291 0.211644
0.854801 0.705291 0.223065
0.873182 0.705291 0.232009
0.883477 0.705291 0.236892
0.890078 0.706266 0.243494
0.893003 0.709191 0.246419
0.893209 0.708126 0.246624
0.894709 0.703513 0.247078
0.898000 0.703513 0.244713
0.898000 0.703513 0.244713
0.898000 0.703025 0.244469
0.898000 0.695469 0.240691
0.898000 0.687913 0.236913
0.197075 0.655875 0.451975
0.197075 0.655875 0.451975
0.197075 0.655875 0.451975
0.197075 0.655875 0.451975
0.197075 0.655875 0.451975
0.197075 0.655875 0.451975
0.197075 0.655875 0.451975
0.197075 0.655875 0.451975
0.197075 0.655875 0.454169
0.204784 0.657977 0.463381
0.217923 0.659470 0.474744
0.235388 0.670078 0.484224
0.264188 0.682850 0.482963
0.307706 0.694237 0.459995
0.369234 0.705623 0.422355
0.452559 0.716526 0.374759
0.550488 0.722088 0.317663
0.647513 0.718872 0.258245
0.727650 0.712969 0.215731
0.782788 0.712359 0.207932
0.822163 0.715050 0.221100
0.853181 0.715675 0.232497
0.870356 0.715675 0.241706
0.880622 0.715675 0.247290
0.887275 0.716650 0.253925
0.890200 0.719575 0.256850
0.890931 0.719575 0.257586
0.894709 0.719575 0.260775
0.898000 0.719575 0.260775
0.898000 0.719575 0.260775
0.898000 0.719148 0.260530
0.898000 0.712536 0.256728
0.898000 0.705900 0.252950
0.200000 0.658800 0.454900
0.200000 0.658800 0.454900
0.200000 0.658800 0.454900
0.200000 0.658800 0.454900
0.200000 0.658800 0.454900
0.200000 0.658800 0.454900
0.200000 0.658800 0.454900
0.200000 0.658800 0.454900
0.200000 0.658800 0.454900
0.204380 0.658800 0.461526
0.213605 0.661481 0.471576
0.229896 0.672443 0.484403
0.258689 0.685455 0.487976
0.301693 0.697206 0.469535
0.359584 0.708581 0.435911
0.437385 0.717897 0.390422
0.531245 0.723550 0.333688
0.628580 0.722207 0.272897
0.712781 0.717142 0.227183
0.774846 0.716310 0.214979
0.819971 0.719100 0.224558
0.851213 0.721600 0.235422
0.870356 0.721600 0.245569
0.880622 0.721840 0.253434
0.887275 0.723428 0.260634
0.890200 0.726353 0.263575
0.890931 0.726513 0.264321
0.894709 0.727206 0.267553
0.898000 0.727206 0.267553
0.898000 0.727206 0.267553
0.898000 0.726963 0.267304
0.898000 0.723209 0.263480
0.898000 0.720181 0.260528
0.200000 0.658800 0.454900
0.200000 0.658800 0.454900
0.200000 0.658800 0.454900
0.200000 0.658800 0.454900
0.200000 0.658800 0.454900
0.200000 0.658800 0.454900
0.200000 0.658800 0.454900
0.200000 0.658800 0.454900
0.200000 0.658800 0.454900
0.200000 0.658800 0.454900
0.204860 0.660979 0.459760
0.219505 0.669233 0.476964
0.247573 0.682850 0.488182
0.288027 0.695733 0.477115
0.343542 0.707111 0.448718
0.415807 0.716424 0.406898
0.505394 0.722444 0.351944
0.604159 0.723626 0.290810
0.692957 0.722331 0.243055
0.762007 0.720714 0.224379
0.814231 0.719288 0.226188
0.849744 0.721108 0.234691
0.869338 0.721829 0.245066
