luts/A_v_log/X-9400-VLOG.cube
# Copyright: (C) Copyright 2010-2019 by IWLTBAP SAS
# Cannot be resold, shared or otherwise redistributed
# Website: https://luts.iwltbap.com
TITLE "IWLTBAP 9400 (V-Log L)"
LUT_3D_SIZE 9
0.058800 0.043100 0.098000
0.088725 0.047100 0.098500
0.184350 0.051000 0.104925
0.316163 0.065200 0.118638
0.472550 0.096100 0.137300
0.690663 0.163213 0.129400
0.765675 0.224500 0.125500
0.768600 0.227500 0.125500
0.768600 0.227500 0.125500
0.055388 0.054413 0.105413
0.088298 0.053925 0.098000
0.183853 0.058313 0.102000
0.315675 0.066200 0.117600
0.470844 0.096100 0.135300
0.692613 0.163213 0.129400
0.765675 0.224500 0.125500
0.768600 0.227500 0.125500
0.768600 0.227500 0.125500
0.033350 0.131400 0.119625
0.049894 0.122550 0.119250
0.181894 0.113450 0.112725
0.324391 0.116700 0.129888
0.485763 0.125475 0.142175
0.692125 0.182728 0.131838
0.765675 0.226750 0.125500
0.768600 0.227500 0.125500
0.768600 0.227500 0.125500
0.048038 0.270100 0.151013
0.051788 0.270100 0.148513
0.120978 0.273878 0.138847
0.342833 0.249038 0.133300
0.536744 0.268881 0.145100
0.746013 0.307325 0.135800
0.826488 0.314213 0.135800
0.808216 0.279583 0.131838
0.775975 0.234813 0.125500
0.092200 0.433300 0.251000
0.095613 0.431350 0.247050
0.130388 0.432363 0.242638
0.306388 0.479894 0.169369
0.566650 0.474525 0.149000
0.792163 0.498050 0.145100
0.874500 0.488200 0.155388
0.873519 0.447531 0.160306
0.854900 0.388250 0.149000
0.169125 0.585738 0.367638
0.171075 0.582020 0.364192
0.173513 0.581838 0.382325
0.243247 0.610786 0.381142
0.572288 0.655606 0.193150
0.830400 0.641675 0.172050
0.892638 0.641431 0.200159
0.895563 0.621741 0.198867
0.887763 0.592663 0.175950
0.197075 0.655875 0.451975
0.197075 0.655875 0.451975
0.197075 0.655875 0.454169
0.264188 0.682850 0.482963
0.550488 0.722088 0.317663
0.822163 0.715050 0.221100
0.887275 0.716650 0.253925
0.898000 0.719575 0.260775
0.898000 0.705900 0.252950
0.200000 0.658800 0.454900
0.200000 0.658800 0.454900
0.200000 0.658800 0.454900
0.229595 0.669770 0.481388
0.460788 0.713456 0.377431
0.791320 0.720100 0.223500
0.887763 0.729888 0.264553
0.898000 0.737300 0.274500
0.898000 0.733800 0.271088
0.200000 0.658800 0.454900
0.200000 0.658800 0.454900
0.200000 0.658800 0.454900
0.204875 0.661238 0.459775
0.366700 0.709800 0.429400
0.757338 0.720100 0.225513
0.880375 0.726475 0.252950
0.898000 0.737300 0.274500
0.898000 0.737300 0.274500
0.054900 0.043100 0.109313
0.073952 0.050086 0.113152
0.175963 0.057338 0.115772
0.308850 0.062700 0.117417
0.463238 0.096100 0.135300
0.690663 0.163213 0.129400
0.765675 0.224500 0.125500
0.768600 0.227500 0.125500
0.768600 0.227500 0.125500
0.041052 0.061725 0.108825
0.066147 0.061238 0.112664
0.175109 0.061238 0.109313
0.310983 0.062700 0.117257
0.459094 0.094350 0.135300
0.685970 0.163213 0.129400
0.765309 0.224500 0.125500
0.768600 0.227500 0.125500
0.768600 0.227500 0.125500
0.035422 0.124378 0.124034
0.041050 0.122657 0.120431
0.172063 0.109775 0.114309
0.326664 0.115200 0.128791
0.477939 0.122063 0.140225
0.686153 0.174380 0.131228
0.765675 0.226750 0.125500
0.768600 0.227500 0.125500
0.768600 0.227500 0.125500
0.044625 0.266688 0.148513
0.046468 0.264425 0.148513
0.109559 0.268150 0.138847
0.340375 0.243575 0.133300
0.517942 0.260306 0.145100
0.737625 0.298233 0.136738
0.823206 0.310968 0.135129
0.806083 0.273725 0.131350
0.773538 0.234813 0.125500
0.092200 0.425500 0.247050
0.088481 0.420556 0.243851
0.126023 0.426963 0.238592
0.307606 0.465706 0.165419
0.565191 0.466188 0.151803
0.789861 0.491896 0.141291
0.871088 0.479181 0.158419
0.866406 0.439999 0.154651
0.851444 0.384350 0.147294
0.170892 0.584458 0.367638
0.166992 0.577938 0.359800
0.169613 0.577938 0.373891
0.238616 0.605311 0.382612
0.557513 0.654235 0.195009
0.822538 0.640213 0.169613
0.888738 0.636972 0.196550
0.895563 0.621558 0.193295
0.888250 0.590475 0.180888
0.197075 0.655875 0.451975
0.197075 0.655875 0.451975
0.197075 0.655875 0.451975
0.256570 0.682484 0.485127
0.534703 0.718100 0.326389
0.819225 0.711750 0.216608
0.887275 0.716650 0.253925
0.897513 0.716970 0.257279
0.898000 0.705403 0.252950
0.200000 0.658800 0.454900
0.200000 0.658800 0.454900
0.200000 0.658800 0.454900
0.229408 0.669283 0.480892
0.449677 0.713456 0.377437
0.795795 0.719605 0.223630
0.884777 0.726902 0.261202
0.898000 0.737300 0.274500
0.898000 0.733800 0.271088
0.200000 0.658800 0.454900
0.200000 0.658800 0.454900
0.200000 0.658800 0.454900
0.204875 0.661238 0.459775
0.363200 0.709800 0.423550
0.753925 0.716138 0.225513
0.880375 0.726475 0.256850
0.895014 0.734238 0.271514
0.898000 0.737300 0.274500
0.051975 0.064725 0.189225
0.060650 0.068625 0.201134
0.151981 0.066188 0.179156
0.310313 0.073038 0.164675
0.466650 0.105888 0.168600
0.690663 0.165088 0.136638
0.765675 0.224500 0.125500
0.768600 0.227500 0.125500
0.768600 0.227500 0.125500
0.039688 0.079928 0.175378
0.053148 0.076341 0.182105
0.134484 0.069226 0.176445
0.298878 0.071697 0.155443
0.452325 0.099025 0.161019
0.681125 0.159800 0.135541
0.765675 0.224500 0.125500
0.768600 0.227500 0.125500
0.768600 0.227500 0.125500
0.014481 0.142881 0.191175
0.017381 0.140840 0.188231
0.106383 0.148239 0.201489
0.322197 0.130620 0.168737
0.478556 0.126581 0.170600
0.678443 0.167647 0.135084
0.765675 0.226750 0.125500
0.768600 0.227500 0.125500
0.768600 0.227500 0.125500
0.032225 0.266200 0.230878
0.035483 0.260409 0.216689
0.083350 0.276651 0.210526
0.326430 0.257292 0.168582
0.518442 0.259861 0.172613
0.731936 0.289288 0.141501
0.819625 0.306634 0.138238
0.792336 0.266841 0.127633
0.773538 0.234813 0.125500
0.090200 0.441188 0.290700
0.087956 0.433825 0.280316
0.111653 0.441663 0.302184
0.269295 0.456325 0.212483
0.551713 0.460775 0.155394
0.780698 0.487469 0.142114
0.869588 0.469584 0.151938
0.864213 0.432763 0.152888
0.852413 0.376450 0.148513
0.169125 0.584763 0.370966
0.165188 0.578303 0.365004
0.169125 0.572575 0.369749
0.232948 0.603488 0.384600
0.549763 0.651706 0.191923
0.820329 0.631573 0.167813
0.888738 0.632472 0.196175
0.895197 0.615797 0.187659
0.887763 0.588334 0.175950
0.197075 0.655875 0.451975
0.197075 0.655875 0.451975
0.197075 0.652950 0.451244
0.248251 0.678676 0.483162
0.509791 0.715775 0.336653
0.814730 0.711750 0.213471
0.887275 0.716650 0.253925
0.897513 0.716163 0.256363
0.894100 0.705900 0.250756
0.200000 0.658800 0.454900
0.200000 0.658800 0.454900
0.200000 0.658800 0.454900
0.222880 0.667150 0.477964
0.441427 0.712177 0.390877
0.787908 0.719976 0.223630
0.884350 0.726475 0.260775
0.898000 0.736863 0.274073
0.895441 0.733800 0.271088
0.200000 0.658800 0.454900
0.200000 0.658800 0.454900
0.200000 0.658800 0.454900
0.202438 0.658800 0.457947
0.346088 0.706838 0.441150
0.742528 0.719109 0.227950
0.880375 0.726475 0.252950
0.897147 0.736425 0.273647
0.898000 0.737300 0.274500
0.055875 0.100500 0.331375
0.057338 0.100688 0.332655
0.091784 0.099875 0.370378
0.211702 0.105398 0.330377
0.439706 0.124506 0.232369
0.672502 0.194211 0.226389
0.775600 0.240175 0.192613
0.784970 0.235970 0.151683
0.768600 0.227500 0.130375
0.052463 0.102000 0.326463
0.052463 0.100688 0.326627
0.088241 0.100500 0.367037
0.215797 0.105398 0.312700
0.428690 0.120731 0.230754
0.670402 0.191348 0.218739
0.775600 0.240175 0.192613
0.782491 0.233838 0.148890
0.768600 0.227500 0.130375
0.015822 0.203678 0.299244
0.012869 0.194336 0.292647
0.063947 0.176002 0.338887
0.246523 0.142089 0.319614
0.464281 0.157297 0.247008
0.664438 0.188030 0.221505
0.780187 0.236793 0.178237
0.778521 0.233472 0.144758
0.768600 0.227500 0.128547
0.014238 0.280338 0.332838
0.012904 0.274928 0.326781
0.025971 0.288941 0.342945
0.217745 0.299084 0.350527
0.524506 0.295543 0.313798
0.714291 0.305948 0.297304
0.812021 0.308145 0.228968
0.796070 0.260191 0.146945
0.773538 0.232375 0.127938
0.090200 0.446319 0.385544
0.090352 0.444125 0.375988
0.099748 0.451475 0.381992
0.211959 0.478980 0.408971
0.542647 0.477831 0.307844
0.760104 0.487938 0.310745
0.845105 0.468600 0.265697
0.855400 0.418906 0.175859
0.844613 0.364963 0.151956
0.179402 0.612750 0.439200
0.176872 0.609325 0.436945
0.175463 0.607373 0.431714
0.247282 0.643692 0.508812
0.515048 0.671245 0.376968
0.796821 0.680814 0.272979
0.879906 0.644322 0.252140
0.891609 0.610000 0.202678
0.888677 0.572048 0.173025
0.202803 0.676466 0.500988
0.202438 0.672916 0.497575
0.202438 0.668903 0.495107
0.251845 0.696455 0.537500
0.452695 0.720020 0.473103
0.805627 0.726827 0.260555
0.884838 0.715180 0.266937
0.897162 0.715797 0.260825
0.897025 0.703416 0.243613
0.202438 0.667333 0.482058
0.200000 0.667333 0.479448
0.202209 0.665362 0.472671
0.216820 0.669418 0.492521
0.413221 0.712573 0.428373
0.770166 0.719434 0.238616
0.881679 0.726475 0.261884
0.898000 0.736863 0.274073
0.894588 0.733800 0.271088
0.200000 0.658800 0.459775
0.200000 0.658800 0.457642
0.200000 0.658800 0.457338
0.202438 0.658800 0.458313
0.321325 0.703900 0.460081
0.722478 0.720100 0.233473
0.877450 0.726475 0.250025
0.898000 0.735113 0.272367
0.898000 0.737300 0.274500
0.109800 0.125450 0.525450
0.109306 0.121550 0.528950
0.160275 0.124475 0.530413
0.249775 0.123500 0.516938
0.434300 0.153925 0.419600
0.627463 0.222319 0.373038
0.747550 0.283338 0.388725
0.763238 0.277713 0.335781
0.770600 0.262750 0.276450
0.102438 0.117650 0.518138
0.102224 0.118138 0.514725
0.150792 0.120880 0.529731
0.243277 0.123500 0.511925
0.424769 0.150125 0.427328
0.620419 0.218144 0.360275
0.749500 0.279425 0.381192
0.762811 0.275355 0.333795
0.772306 0.264456 0.274500
0.070088 0.233825 0.478450
0.068625 0.221311 0.477953
0.126706 0.164575 0.510438
0.246870 0.137373 0.529345
0.420106 0.153194 0.423744
0.616973 0.216864 0.358069
0.753197 0.274503 0.368641
0.765736 0.275513 0.322563
0.772063 0.261288 0.263725
0.043881 0.365213 0.480156
0.039738 0.362850 0.474027
0.054231 0.348463 0.482947
0.218748 0.314518 0.535045
0.463472 0.296088 0.513713
0.698713 0.325762 0.450237
0.786019 0.327642 0.415486
0.771830 0.283423 0.320289
0.775719 0.263238 0.248300
0.116675 0.496075 0.512750
0.113847 0.487225 0.506244
0.110288 0.483325 0.503431
0.184422 0.519734 0.548778
0.488250 0.528413 0.553925
0.767163 0.504784 0.525484
0.840931 0.476719 0.501244
0.832713 0.429884 0.436159
0.819600 0.369625 0.332350
0.197306 0.634819 0.570100
0.194609 0.632838 0.567067
0.193022 0.627827 0.560895
0.251656 0.667156 0.601706
0.478913 0.710556 0.626716
0.773812 0.703993 0.537334
0.877334 0.677280 0.520539
0.872563 0.626902 0.457910
0.862738 0.567150 0.372063
0.233350 0.704888 0.601463
0.233350 0.704888 0.597369
0.229900 0.701341 0.588575
0.271470 0.724895 0.622136
0.456388 0.775475 0.669356
0.762092 0.794109 0.539341
0.877447 0.784666 0.488722
0.890383 0.755561 0.436350
0.883863 0.725475 0.369613
0.228913 0.703413 0.575513
0.228913 0.703413 0.567899
0.222514 0.696953 0.562994
0.231314 0.702645 0.569018
0.385553 0.760794 0.638709
0.724220 0.780383 0.494280
0.868125 0.786250 0.423525
0.887793 0.767225 0.386250
0.894344 0.748556 0.308575
0.221600 0.696100 0.550950
0.221600 0.692150 0.543394
0.216188 0.687275 0.538238
0.214950 0.686769 0.530619
0.312775 0.730375 0.594100
0.657863 0.753925 0.450013
0.867638 0.769125 0.351438
0.894100 0.748313 0.310325
0.896050 0.741200 0.292150
0.202475 0.216650 0.707338
0.203442 0.217625 0.705570
0.228200 0.196578 0.700147
0.350852 0.197502 0.700939
0.451719 0.215950 0.673019
0.665675 0.268077 0.611202
0.765225 0.316297 0.629897
0.760250 0.310288 0.582875
0.754888 0.299988 0.551000
0.198513 0.210313 0.699538
0.199548 0.213786 0.702523
0.221319 0.199869 0.698676
0.345725 0.193539 0.695652
0.445819 0.215856 0.677156
0.659492 0.263087 0.607777
0.764850 0.314667 0.619125
0.763750 0.311722 0.595905
0.746080 0.296392 0.532192
0.168384 0.282959 0.668756
0.162994 0.273171 0.661884
0.197566 0.227559 0.684466
0.342152 0.196084 0.698720
0.440425 0.212609 0.671983
0.652536 0.261389 0.606206
0.760671 0.309078 0.609922
0.758300 0.309566 0.578400
0.748916 0.294625 0.535300
0.150013 0.451414 0.674025
0.148733 0.445806 0.672563
0.155263 0.431330 0.667650
0.328013 0.360777 0.733384
0.475665 0.318155 0.761233
0.692866 0.327217 0.656058
0.768304 0.329789 0.619039
0.759972 0.311341 0.571433
0.745588 0.294625 0.517163
0.178438 0.581119 0.680150
0.177798 0.579150 0.678200
0.173970 0.575166 0.678383
0.249695 0.586806 0.709830
0.462378 0.527841 0.811641
0.758306 0.469344 0.775206
0.838800 0.475433 0.700194
0.826621 0.429487 0.637113
0.801219 0.375231 0.555631
0.238223 0.690639 0.738211
0.236738 0.684439 0.733739
0.233813 0.677895 0.722300
0.281237 0.709669 0.746561
0.433033 0.762945 0.813438
0.760118 0.782461 0.826202
0.908707 0.755311 0.789219
0.915372 0.696221 0.738981
0.896636 0.615322 0.659373
0.294991 0.765225 0.770975
0.294625 0.760945 0.771950
0.289684 0.758325 0.765474
0.310943 0.769770 0.768932
0.455642 0.832058 0.836166
0.740674 0.875391 0.850689
0.910784 0.871071 0.793182
0.927634 0.849148 0.751600
0.918125 0.812400 0.675491
0.294625 0.764725 0.753942
0.286796 0.758079 0.742325
0.286834 0.754629 0.739728
0.287640 0.757317 0.733983
0.411775 0.818519 0.796085
0.688605 0.873094 0.840955
0.889958 0.881193 0.737627
0.925021 0.860299 0.703791
0.911788 0.842650 0.624983
0.281850 0.748550 0.718588
0.274233 0.744650 0.710970
0.274050 0.744650 0.702988
0.268564 0.738213 0.693564
0.340438 0.781119 0.728663
0.631791 0.843700 0.791395
0.864075 0.862494 0.673647
0.910475 0.848533 0.631863
0.907850 0.831375 0.571550
0.272550 0.271575 0.778450
0.275475 0.271575 0.778450
0.276938 0.265669 0.775469
0.389322 0.235666 0.775984
0.496050 0.263725 0.814700
0.714078 0.310663 0.771053
0.810769 0.338275 0.767650
0.817528 0.342175 0.762153
0.809775 0.338275 0.748050
0.272550 0.271575 0.778450
0.272550 0.271575 0.778450
0.275018 0.265669 0.775469
0.384439 0.233350 0.772523
0.496544 0.259788 0.817906
0.708274 0.310188 0.771053
0.810769 0.335294 0.767680
0.816416 0.342175 0.761041
0.809775 0.338275 0.740297
0.266644 0.279694 0.775469
0.266644 0.279694 0.775469
0.268880 0.273769 0.772530
0.375497 0.231766 0.771872
0.492150 0.262375 0.814700
0.706128 0.308506 0.779382
0.802931 0.335294 0.758363
0.816309 0.341688 0.759968
0.809775 0.338275 0.745125
0.217050 0.429666 0.784803
0.222731 0.425709 0.785778
0.224528 0.415200 0.783341
0.358241 0.366161 0.808388
0.505192 0.305398 0.854216
0.707050 0.321731 0.791779
0.808195 0.339138 0.766066
0.812775 0.338275 0.751889
0.807947 0.338275 0.732984
0.225988 0.608338 0.777963
0.223550 0.604670 0.777963
0.217163 0.596941 0.772038
0.297550 0.592897 0.799994
0.508313 0.534306 0.899025
0.784013 0.441113 0.894056
0.851938 0.431228 0.856850
0.849488 0.397848 0.819491
0.828425 0.368150 0.765213
0.282825 0.738213 0.816928
0.280388 0.732682 0.815053
0.279656 0.726450 0.811138
0.306564 0.737066 0.822567
0.458964 0.788834 0.880400
0.770136 0.799852 0.924797
0.913130 0.747710 0.914075
0.921812 0.711952 0.902970
0.906350 0.624988 0.873269
0.351950 0.806850 0.857831
0.348031 0.803925 0.853925
0.348031 0.803925 0.853925
0.353422 0.802455 0.852463
0.484300 0.854050 0.899025
0.709082 0.905380 0.949991
0.911531 0.921606 0.948045
0.952049 0.914091 0.936738
0.953650 0.889250 0.918850
0.362263 0.824009 0.860409
0.358353 0.820088 0.857359
0.355745 0.817254 0.854784
0.356912 0.817147 0.855266
0.455059 0.852728 0.887247
0.674659 0.917698 0.948888
0.907866 0.942145 0.950487
0.957509 0.940063 0.926932
0.957875 0.932350 0.913384
0.354875 0.813750 0.852950
0.351950 0.813750 0.847025
0.351950 0.813750 0.847025
0.351950 0.810750 0.843125
0.407375 0.834788 0.858813
0.623672 0.898525 0.927947
0.887225 0.932350 0.936738
0.957388 0.935884 0.916672
0.957875 0.925525 0.893175
0.278400 0.274500 0.784300
0.278400 0.274500 0.784300
0.278400 0.274500 0.781741
0.346758 0.237288 0.774000
0.477425 0.258800 0.817156
0.685270 0.305167 0.794905
0.813375 0.342175 0.793175
0.827500 0.345100 0.800000
0.827500 0.345100 0.800000
0.278400 0.274500 0.784300
0.278400 0.274500 0.784300
0.278400 0.274500 0.781741
0.340388 0.237554 0.776767
0.471575 0.258313 0.809313
0.678773 0.304413 0.805364
0.813253 0.341688 0.792678
0.827500 0.345100 0.800000
0.827500 0.345100 0.797014
0.275841 0.274500 0.781741
0.275841 0.274500 0.781741
0.277760 0.274500 0.783660
0.332307 0.237775 0.775641
0.468641 0.255388 0.809983
0.676639 0.300353 0.803712
0.810263 0.341688 0.792678
0.827500 0.345100 0.800000
0.827500 0.345100 0.799147
0.233350 0.380570 0.782045
0.235338 0.377633 0.782898
0.236587 0.370008 0.778953
0.310248 0.317955 0.782594
0.463015 0.264069 0.814821
0.670163 0.301633 0.808175
0.810263 0.341688 0.790841
0.827500 0.345100 0.797867
0.827500 0.345100 0.796588
0.223300 0.571075 0.784544
0.221063 0.565713 0.782380
0.217650 0.561281 0.780827
0.239891 0.545841 0.790456
0.467788 0.475513 0.875350
0.738743 0.399002 0.887905
0.838266 0.397361 0.854898
0.849975 0.378681 0.832120
0.833106 0.354656 0.809556
0.276297 0.718150 0.814208
0.275017 0.718479 0.814269
0.271063 0.711259 0.808203
0.275731 0.712755 0.810214
0.423873 0.757860 0.869863
0.733574 0.755141 0.926528
0.906755 0.702880 0.923407
0.922474 0.650657 0.917820
0.908545 0.573550 0.909983
0.354875 0.809775 0.864197
0.354509 0.809409 0.863700
0.352590 0.809409 0.861506
0.351463 0.806484 0.863837
0.448456 0.838509 0.894388
0.672703 0.902797 0.950009
0.899321 0.926535 0.963969
0.945588 0.910798 0.961409
0.946441 0.885884 0.958850
0.372500 0.827500 0.878400
0.372500 0.827500 0.878027
0.372500 0.827500 0.877973
0.372500 0.827500 0.876107
0.434800 0.849945 0.896545
0.645092 0.912273 0.951981
0.889842 0.950466 0.964761
0.953345 0.956889 0.972563
0.956889 0.953400 0.969577
0.372500 0.827500 0.874988
0.372500 0.827500 0.874988
0.372500 0.827500 0.874988
0.372500 0.827500 0.874988
0.393369 0.833106 0.878450
0.598000 0.898525 0.939188
0.864822 0.950466 0.968600
0.956889 0.960373 0.973000
0.964213 0.957388 0.969088
0.278400 0.274500 0.784300
0.278400 0.274500 0.784300
0.278400 0.274500 0.784300
0.288213 0.265663 0.777963
0.447100 0.249000 0.798000
0.636775 0.288250 0.816150
0.806850 0.338275 0.789200
0.827500 0.345100 0.800000
0.827500 0.345100 0.800000
0.278400 0.274500 0.784300
0.278400 0.274500 0.784300
0.278400 0.274500 0.784300
0.288213 0.263530 0.777963
0.441150 0.249250 0.796294
0.636775 0.285750 0.816150
0.806850 0.338275 0.785275
0.827500 0.345100 0.797014
0.827500 0.345100 0.800000
0.278400 0.274500 0.784300
0.278400 0.274500 0.784300
0.278400 0.274500 0.784300
0.288213 0.263225 0.777963
0.442138 0.247538 0.794588
0.633803 0.284653 0.816150
0.803925 0.338275 0.788219
0.827500 0.345100 0.796588
0.827500 0.345100 0.800000
0.267125 0.291688 0.780400
0.267125 0.289500 0.780400
0.267125 0.289188 0.780400
0.276938 0.277952 0.779486
0.423013 0.246838 0.789469
0.620114 0.280936 0.824050
0.794713 0.338275 0.785275
0.824000 0.341688 0.796588
0.827500 0.345100 0.800000
0.215700 0.519600 0.784300
0.215700 0.512044 0.786250
0.220575 0.502938 0.791700
0.226975 0.486025 0.793138
0.413725 0.415700 0.841175
0.654656 0.349031 0.875731
0.817138 0.366650 0.824475
0.836519 0.358069 0.806144
0.829450 0.349000 0.803900
0.263713 0.697100 0.803450
0.263713 0.697100 0.803755
0.256888 0.690175 0.801988
0.254450 0.683777 0.796588
0.358313 0.705406 0.830863
0.673086 0.689883 0.920197
0.887116 0.628447 0.918125
0.908545 0.576963 0.913428
0.887250 0.497050 0.901450
0.345125 0.806850 0.864675
0.344125 0.799150 0.859534
0.341200 0.796100 0.856850
0.342672 0.797572 0.860775
0.399513 0.817625 0.875488
0.620822 0.879803 0.943150
0.880644 0.904144 0.954875
0.942663 0.883325 0.958353
0.949000 0.848050 0.951950
0.372500 0.827500 0.878400
0.369514 0.824438 0.875414
0.369088 0.824000 0.874988
0.369088 0.824000 0.874988
0.397069 0.833350 0.882106
0.601988 0.901145 0.939370
0.868622 0.949975 0.964700
0.946075 0.952973 0.972500
0.953400 0.949988 0.973000
0.372500 0.827500 0.878400
0.372500 0.827500 0.878400
0.372500 0.827500 0.878400
0.372500 0.827500 0.878400
0.380350 0.829450 0.878450
0.563738 0.887250 0.931388
0.836250 0.947050 0.968600
0.949488 0.961288 0.976988
0.960800 0.964700 0.980400
