luts/A_v_log/X-9400-VLOG.cube
# Copyright: (C) Copyright 2010-2019 by IWLTBAP SAS
# Cannot be resold, shared or otherwise redistributed
# Website: https://luts.iwltbap.com
TITLE "IWLTBAP 9400 (V-Log L)"
LUT_3D_SIZE 5
0.058800 0.043100 0.098000
0.184350 0.051000 0.104925
0.472550 0.096100 0.137300
0.765675 0.224500 0.125500
0.768600 0.227500 0.125500
0.033350 0.131400 0.119625
0.181894 0.113450 0.112725
0.485763 0.125475 0.142175
0.765675 0.226750 0.125500
0.768600 0.227500 0.125500
0.092200 0.433300 0.251000
0.130388 0.432363 0.242638
0.566650 0.474525 0.149000
0.874500 0.488200 0.155388
0.854900 0.388250 0.149000
0.197075 0.655875 0.451975
0.197075 0.655875 0.454169
0.550488 0.722088 0.317663
0.887275 0.716650 0.253925
0.898000 0.705900 0.252950
0.200000 0.658800 0.454900
0.200000 0.658800 0.454900
0.366700 0.709800 0.429400
0.880375 0.726475 0.252950
0.898000 0.737300 0.274500
0.051975 0.064725 0.189225
0.151981 0.066188 0.179156
0.466650 0.105888 0.168600
0.765675 0.224500 0.125500
0.768600 0.227500 0.125500
0.014481 0.142881 0.191175
0.106383 0.148239 0.201489
0.478556 0.126581 0.170600
0.765675 0.226750 0.125500
0.768600 0.227500 0.125500
0.090200 0.441188 0.290700
0.111653 0.441663 0.302184
0.551713 0.460775 0.155394
0.869588 0.469584 0.151938
0.852413 0.376450 0.148513
0.197075 0.655875 0.451975
0.197075 0.652950 0.451244
0.509791 0.715775 0.336653
0.887275 0.716650 0.253925
0.894100 0.705900 0.250756
0.200000 0.658800 0.454900
0.200000 0.658800 0.454900
0.346088 0.706838 0.441150
0.880375 0.726475 0.252950
0.898000 0.737300 0.274500
0.109800 0.125450 0.525450
0.160275 0.124475 0.530413
0.434300 0.153925 0.419600
0.747550 0.283338 0.388725
0.770600 0.262750 0.276450
0.070088 0.233825 0.478450
0.126706 0.164575 0.510438
0.420106 0.153194 0.423744
0.753197 0.274503 0.368641
0.772063 0.261288 0.263725
0.116675 0.496075 0.512750
0.110288 0.483325 0.503431
0.488250 0.528413 0.553925
0.840931 0.476719 0.501244
0.819600 0.369625 0.332350
0.233350 0.704888 0.601463
0.229900 0.701341 0.588575
0.456388 0.775475 0.669356
0.877447 0.784666 0.488722
0.883863 0.725475 0.369613
0.221600 0.696100 0.550950
0.216188 0.687275 0.538238
0.312775 0.730375 0.594100
0.867638 0.769125 0.351438
0.896050 0.741200 0.292150
0.272550 0.271575 0.778450
0.276938 0.265669 0.775469
0.496050 0.263725 0.814700
0.810769 0.338275 0.767650
0.809775 0.338275 0.748050
0.266644 0.279694 0.775469
0.268880 0.273769 0.772530
0.492150 0.262375 0.814700
0.802931 0.335294 0.758363
0.809775 0.338275 0.745125
0.225988 0.608338 0.777963
0.217163 0.596941 0.772038
0.508313 0.534306 0.899025
0.851938 0.431228 0.856850
0.828425 0.368150 0.765213
0.351950 0.806850 0.857831
0.348031 0.803925 0.853925
0.484300 0.854050 0.899025
0.911531 0.921606 0.948045
0.953650 0.889250 0.918850
0.354875 0.813750 0.852950
0.351950 0.813750 0.847025
0.407375 0.834788 0.858813
0.887225 0.932350 0.936738
0.957875 0.925525 0.893175
0.278400 0.274500 0.784300
0.278400 0.274500 0.784300
0.447100 0.249000 0.798000
0.806850 0.338275 0.789200
0.827500 0.345100 0.800000
0.278400 0.274500 0.784300
0.278400 0.274500 0.784300
0.442138 0.247538 0.794588
0.803925 0.338275 0.788219
0.827500 0.345100 0.800000
0.215700 0.519600 0.784300
0.220575 0.502938 0.791700
0.413725 0.415700 0.841175
0.817138 0.366650 0.824475
0.829450 0.349000 0.803900
0.345125 0.806850 0.864675
0.341200 0.796100 0.856850
0.399513 0.817625 0.875488
0.880644 0.904144 0.954875
0.949000 0.848050 0.951950
0.372500 0.827500 0.878400
0.372500 0.827500 0.878400
0.380350 0.829450 0.878450
0.836250 0.947050 0.968600
0.960800 0.964700 0.980400
