luts/-UTILITY/LOG_to_Rec709/Canon_LOG2_CinGamut_Rec709_WDR.cube
# CinemaGamut/CanonLog2 to Rec.709/WDR, full range in and out CD_v6
# Converted by Nick Shaw of Antler Post
LUT_3D_SIZE 5
0.000000 0.000000 0.000000
0.324240 0.000000 0.000000
0.805061 0.000000 0.064082
1.000000 0.000000 0.131494
1.000000 0.038707 0.212086
0.000000 0.216630 0.000000
0.194270 0.204826 0.000000
0.966775 0.100617 0.034771
1.000000 0.145659 0.279406
1.000000 0.238674 0.376998
0.000000 0.666331 0.006133
0.000000 0.734928 0.000000
0.635972 0.663432 0.000000
1.000000 0.576983 0.498038
1.000000 0.657459 0.718790
0.000000 1.000000 0.051478
0.000000 1.000000 0.072571
0.276247 1.000000 0.311717
0.983841 1.000000 0.000000
1.000000 0.990879 0.973953
0.635454 1.000000 0.685183
0.802068 1.000000 0.833649
1.000000 1.000000 1.000000
1.000000 1.000000 1.000000
1.000000 1.000000 1.000000
0.000000 0.000000 0.313576
0.338133 0.000000 0.311238
0.779742 0.000000 0.356286
1.000000 0.000000 0.231127
1.000000 0.058312 0.234524
0.000000 0.213728 0.202692
0.198233 0.198233 0.198233
0.997802 0.071488 0.438335
1.000000 0.161403 0.340494
1.000000 0.258389 0.398349
0.000000 0.682820 0.060448
0.000000 0.750619 0.029733
0.653046 0.680328 0.000000
1.000000 0.594637 0.539362
1.000000 0.677469 0.738169
0.000000 1.000000 0.066319
0.000000 1.000000 0.110994
0.328333 1.000000 0.368278
0.999979 1.000000 0.000000
1.000000 1.000000 0.997275
0.691871 1.000000 0.735717
0.858651 1.000000 0.884262
1.000000 1.000000 1.000000
1.000000 1.000000 1.000000
1.000000 1.000000 1.000000
0.037284 0.000000 1.000000
0.352140 0.000000 0.731130
0.802040 0.000000 0.745359
1.000000 0.000000 0.547891
1.000000 0.092102 0.352793
0.061578 0.133769 1.000000
0.331712 0.118217 1.000000
1.000000 0.036383 1.000000
1.000000 0.176778 0.641177
1.000000 0.294068 0.497804
0.000000 0.670003 0.642147
0.000000 0.728821 0.700400
0.652965 0.652965 0.652965
1.000000 0.613615 0.803736
1.000000 0.717762 0.793656
0.000000 1.000000 0.159896
0.077175 1.000000 0.260147
0.428248 1.000000 0.513963
1.000000 1.000000 0.000000
1.000000 1.000000 1.000000
0.809641 1.000000 0.842784
0.942200 1.000000 0.959902
1.000000 1.000000 1.000000
1.000000 1.000000 1.000000
1.000000 1.000000 1.000000
0.065507 0.000000 1.000000
0.133912 0.000000 1.000000
0.595946 0.000000 1.000000
1.000000 0.000000 1.000000
1.000000 0.101918 0.614264
0.204534 0.124178 1.000000
0.269297 0.169570 1.000000
0.671741 0.184965 1.000000
1.000000 0.173864 1.000000
1.000000 0.308407 0.714269
0.444166 0.507219 1.000000
0.507638 0.552964 1.000000
0.779178 0.607267 1.000000
1.000000 0.623357 1.000000
1.000000 0.741140 0.921280
0.000000 1.000000 0.986469
0.000000 1.000000 1.000000
0.365152 1.000000 1.000000
1.000000 1.000000 1.000000
1.000000 1.000000 1.000000
0.897140 1.000000 0.935102
0.996666 1.000000 1.000000
1.000000 1.000000 1.000000
1.000000 1.000000 1.000000
1.000000 1.000000 1.000000
0.091245 0.000000 1.000000
0.139676 0.025701 1.000000
0.254761 0.126498 1.000000
0.655101 0.114289 1.000000
1.000000 0.095751 1.000000
0.243495 0.147608 1.000000
0.291575 0.197948 1.000000
0.403224 0.299785 1.000000
0.740378 0.306252 1.000000
1.000000 0.310554 1.000000
0.556356 0.508813 1.000000
0.604337 0.559162 1.000000
0.710113 0.662816 1.000000
0.916709 0.708194 1.000000
1.000000 0.760928 1.000000
0.771445 0.803970 1.000000
0.826099 0.852416 1.000000
0.941404 0.953302 1.000000
1.000000 1.000000 1.000000
1.000000 1.000000 1.000000
0.907631 1.000000 1.000000
1.000000 1.000000 1.000000
1.000000 1.000000 1.000000
1.000000 1.000000 1.000000
1.000000 1.000000 1.000000
