luts/-UTILITY/LOG_to_Rec709/Canon_LOG_CinGamut_Rec709_WDR.cube
# Gamut : Cinema Gamut to BT.709
# Gamma : Canon Log to Wide DR
# Version : 1.0
# Created by Canon Inc. CD_v3
LUT_3D_SIZE 5
0.000000 0.000000 0.000000 
0.308167 0.000559 0.000000 
0.665139 0.000000 0.019096 
0.862020 0.053511 0.104689 
0.953253 0.127870 0.170299 
0.008175 0.310755 0.000000 
0.320655 0.309552 0.000000 
0.684942 0.244852 0.000000 
0.883299 0.049621 0.028325 
0.956021 0.130484 0.169604 
0.011780 0.661632 0.000000 
0.167942 0.666754 0.000000 
0.667744 0.661166 0.000000 
1.000000 0.528650 0.183862 
0.957745 0.222842 0.119153 
0.047260 0.877519 0.043043 
0.057633 0.879171 0.049323 
0.404147 0.895683 0.107573 
0.881867 0.877772 0.000000 
1.000000 0.666428 0.264264 
0.242341 0.968111 0.191393 
0.243253 0.968067 0.192147 
0.245033 0.968966 0.193723 
0.517924 1.000000 0.233423 
0.965121 0.961972 0.000000 
0.074882 0.000000 0.161409 
0.236478 0.001396 0.200919 
0.644095 0.000000 0.318892 
0.879726 0.033024 0.263629 
0.961256 0.119171 0.188155 
0.000000 0.287113 0.269103 
0.291997 0.291997 0.291997 
0.726380 0.082872 0.233656 
0.883435 0.101455 0.223176 
0.958701 0.127145 0.176778 
0.004495 0.657072 0.267051 
0.033132 0.667704 0.200400 
0.645615 0.665419 0.002070 
1.000000 0.508060 0.198121 
0.957518 0.219902 0.116076 
0.046453 0.876565 0.042408 
0.057760 0.878189 0.049263 
0.404103 0.895687 0.107622 
0.881867 0.877772 0.000000 
1.000000 0.666422 0.264278 
0.242340 0.968111 0.191393 
0.243249 0.968067 0.192149 
0.245029 0.968967 0.193725 
0.517922 1.000000 0.233424 
0.965121 0.961972 0.000000 
0.093482 0.000000 0.190556 
0.156852 0.000000 0.221099 
0.601787 0.000000 0.539863 
0.935435 0.000000 0.501322 
1.000000 0.000000 0.339146 
0.000000 0.192484 0.601173 
0.211830 0.099136 0.716299 
0.697320 0.022130 0.639563 
0.960544 0.000000 0.489070 
1.000000 0.000000 0.334991 
0.018721 0.639711 0.607835 
0.021044 0.650485 0.620240 
0.644546 0.644540 0.644541 
0.948978 0.410596 0.476321 
1.000000 0.029915 0.259680 
0.352325 0.862667 0.523782 
0.355895 0.864443 0.525823 
0.439497 0.872382 0.493613 
0.863955 0.881359 0.323983 
1.000000 0.704996 0.486159 
0.242345 0.968111 0.191390 
0.242337 0.968111 0.191395 
0.245035 0.968966 0.193722 
0.517917 1.000000 0.233429 
0.965095 0.961979 0.000000 
0.098233 0.000000 0.197889 
0.132534 0.000000 0.230846 
0.469776 0.000000 0.609024 
0.859734 0.000000 0.775458 
1.000000 0.000000 0.605992 
0.202543 0.000000 0.642388 
0.262649 0.000000 0.600927 
0.466544 0.013654 0.671745 
0.881216 0.000000 0.799042 
1.000000 0.000000 0.605763 
0.373188 0.496832 0.816697 
0.387975 0.489093 0.817858 
0.595847 0.502942 0.907101 
0.925865 0.351628 0.856471 
1.000000 0.000000 0.585193 
0.068971 0.864523 0.823073 
0.067916 0.867437 0.825646 
0.310468 0.872395 0.837693 
0.867206 0.867199 0.867200 
1.000000 0.760389 0.773935 
0.483524 0.962971 0.639905 
0.483659 0.962959 0.639820 
0.484710 0.963874 0.640247 
0.502886 0.968260 0.563060 
0.955203 1.000000 0.211281 
0.101719 0.000000 0.203134 
0.108128 0.000000 0.208898 
0.157973 0.000000 0.259357 
0.641564 0.051455 0.817659 
1.000000 0.000000 0.915321 
0.113558 0.000000 0.252888 
0.134659 0.000000 0.275989 
0.255368 0.000000 0.429288 
0.633776 0.054552 0.823967 
1.000000 0.000000 0.920323 
0.157503 0.000000 0.838859 
0.173809 0.000000 0.837523 
0.341852 0.005233 0.825116 
0.577741 0.063790 0.838612 
1.000000 0.000000 0.932587 
0.525451 0.644166 0.952747 
0.527944 0.646690 0.955634 
0.568845 0.650950 0.970518 
0.803582 0.736680 0.988332 
1.000000 0.701137 0.960017 
0.116849 0.992658 0.945081 
0.117130 0.992658 0.944993 
0.122662 0.992703 0.944841 
0.724026 0.992737 0.968134 
0.992209 0.992201 0.992202 
