luts/-UTILITY/LOG_to_Rec709/Canon_LOG2_CinGamut_Rec709_WDR.cube
# CinemaGamut/CanonLog2 to Rec.709/WDR, full range in and out CD_v6
# Converted by Nick Shaw of Antler Post
LUT_3D_SIZE 9
0.000000 0.000000 0.000000
0.118536 0.000000 0.000000
0.324240 0.000000 0.000000
0.569072 0.000000 0.018543
0.805061 0.000000 0.064082
1.000000 0.000000 0.101469
1.000000 0.000000 0.131494
1.000000 0.000000 0.157216
1.000000 0.038707 0.212086
0.000000 0.080100 0.000000
0.059933 0.065603 0.000000
0.245625 0.057187 0.000000
0.618451 0.000000 0.000000
0.991493 0.000000 0.065304
1.000000 0.000000 0.138750
1.000000 0.017504 0.186594
1.000000 0.046957 0.216173
1.000000 0.111766 0.272471
0.000000 0.216630 0.000000
0.000000 0.236784 0.000000
0.194270 0.204826 0.000000
0.395816 0.205341 0.000000
0.966775 0.100617 0.034771
1.000000 0.109091 0.205969
1.000000 0.145659 0.279406
1.000000 0.174170 0.317670
1.000000 0.238674 0.376998
0.000000 0.417640 0.000000
0.000000 0.443258 0.000000
0.000595 0.465676 0.000000
0.391755 0.409828 0.000000
0.690080 0.395894 0.000000
1.000000 0.312039 0.207168
1.000000 0.335401 0.407187
1.000000 0.361867 0.464374
1.000000 0.425550 0.530086
0.000000 0.666331 0.006133
0.000000 0.690796 0.000000
0.000000 0.734928 0.000000
0.072019 0.756325 0.000000
0.635972 0.663432 0.000000
1.000000 0.610909 0.000000
1.000000 0.576983 0.498038
1.000000 0.594514 0.641455
1.000000 0.657459 0.718790
0.000000 0.873891 0.028862
0.000000 0.897758 0.026636
0.000000 0.939755 0.017283
0.000000 1.000000 0.000000
0.148099 1.000000 0.000000
0.839781 0.875083 0.000000
1.000000 0.805200 0.318495
1.000000 0.793587 0.747325
1.000000 0.851586 0.874068
0.000000 1.000000 0.051478
0.000000 1.000000 0.056309
0.000000 1.000000 0.072571
0.082376 1.000000 0.170641
0.276247 1.000000 0.311717
0.482406 1.000000 0.315299
0.983841 1.000000 0.000000
1.000000 0.947492 0.702690
1.000000 0.990879 0.973953
0.038882 1.000000 0.151627
0.097795 1.000000 0.203673
0.200180 1.000000 0.293818
0.351136 1.000000 0.425663
0.539535 1.000000 0.588010
0.703746 1.000000 0.720617
0.836927 1.000000 0.767824
1.000000 1.000000 0.420696
1.000000 1.000000 1.000000
0.635454 1.000000 0.685183
0.696241 1.000000 0.739358
0.802068 1.000000 0.833649
0.926307 1.000000 0.944014
1.000000 1.000000 1.000000
1.000000 1.000000 1.000000
1.000000 1.000000 1.000000
1.000000 1.000000 1.000000
1.000000 1.000000 1.000000
0.000000 0.000000 0.106781
0.126377 0.000000 0.114685
0.333390 0.000000 0.182497
0.531532 0.000000 0.208617
0.776390 0.000000 0.228037
1.000000 0.000000 0.148372
1.000000 0.000000 0.150905
1.000000 0.000000 0.167927
1.000000 0.045925 0.219747
0.000000 0.075396 0.068961
0.060115 0.060115 0.060115
0.292550 0.028086 0.099659
0.629036 0.000000 0.220986
0.998855 0.000000 0.227909
1.000000 0.000000 0.181480
1.000000 0.023669 0.204740
1.000000 0.053904 0.226540
1.000000 0.118995 0.280026
0.000000 0.217167 0.030503
0.000000 0.244363 0.000000
0.199653 0.209440 0.000000
0.526912 0.185749 0.000000
0.978069 0.097618 0.099486
1.000000 0.113769 0.238963
1.000000 0.152043 0.295464
1.000000 0.181174 0.327467
1.000000 0.245920 0.384378
0.000000 0.422989 0.005321
0.000000 0.448344 0.000000
0.000000 0.482672 0.000000
0.398115 0.415966 0.000000
0.714836 0.396564 0.000000
1.000000 0.317029 0.236630
1.000000 0.342055 0.420518
1.000000 0.368962 0.473341
1.000000 0.432827 0.537219
0.000000 0.672966 0.019944
0.000000 0.697373 0.012363
0.000000 0.741374 0.000000
0.057844 0.768568 0.000000
0.642173 0.669617 0.000000
1.000000 0.614678 0.000000
1.000000 0.583630 0.511237
1.000000 0.601701 0.649695
1.000000 0.664790 0.725685
0.000000 0.881242 0.035575
0.000000 0.905093 0.033506
0.000000 0.946970 0.024625
0.000000 1.000000 0.000000
0.147189 1.000000 0.000000
0.845880 0.881299 0.000000
1.000000 0.811165 0.338056
1.000000 0.800655 0.756810
1.000000 0.858914 0.880993
0.000000 1.000000 0.056076
0.000000 1.000000 0.060941
0.000000 1.000000 0.086788
0.101679 1.000000 0.190478
0.295424 1.000000 0.331940
0.499942 1.000000 0.339737
0.989726 1.000000 0.000000
1.000000 0.953717 0.720521
1.000000 0.998054 0.982386
0.058631 1.000000 0.170097
0.117552 1.000000 0.222116
0.219950 1.000000 0.312226
0.370911 1.000000 0.444053
0.559907 1.000000 0.607048
0.724006 1.000000 0.740337
0.855548 1.000000 0.792352
1.000000 1.000000 0.485092
1.000000 1.000000 1.000000
0.655979 1.000000 0.703555
0.716917 1.000000 0.757851
0.822747 1.000000 0.852137
0.936709 1.000000 0.953344
1.000000 1.000000 1.000000
1.000000 1.000000 1.000000
1.000000 1.000000 1.000000
1.000000 1.000000 1.000000
1.000000 1.000000 1.000000
0.000000 0.000000 0.313576
0.196055 0.000000 0.307782
0.338133 0.000000 0.311238
0.535675 0.000000 0.334536
0.779742 0.000000 0.356286
0.992872 0.000000 0.343972
1.000000 0.000000 0.231127
1.000000 0.000000 0.191387
1.000000 0.058312 0.234524
0.000000 0.069684 0.248246
0.113206 0.035573 0.285006
0.324484 0.011873 0.304349
0.653323 0.000000 0.403387
0.993474 0.000000 0.444051
1.000000 0.000000 0.393585
1.000000 0.030683 0.273019
1.000000 0.065519 0.249002
1.000000 0.131409 0.294521
0.000000 0.213728 0.202692
0.000000 0.235324 0.224997
0.198233 0.198233 0.198233
0.542898 0.154339 0.216716
0.997802 0.071488 0.438335
1.000000 0.107954 0.434429
1.000000 0.161403 0.340494
1.000000 0.192969 0.348139
1.000000 0.258389 0.398349
0.000000 0.420350 0.169577
0.000000 0.444082 0.168680
0.000000 0.493740 0.126280
0.401722 0.422091 0.000000
0.785271 0.378903 0.032602
1.000000 0.322334 0.321867
1.000000 0.352692 0.452792
1.000000 0.381018 0.491521
1.000000 0.445373 0.550486
0.000000 0.682820 0.060448
0.000000 0.707049 0.054632
0.000000 0.750619 0.029733
0.009743 0.796809 0.000000
0.653046 0.680328 0.000000
1.000000 0.618795 0.000000
1.000000 0.594637 0.539362
1.000000 0.614041 0.665382
1.000000 0.677469 0.738169
0.000000 0.893408 0.053182
0.000000 0.917215 0.051546
0.000000 0.958890 0.043776
0.000000 1.000000 0.011020
0.137505 1.000000 0.000000
0.856548 0.892071 0.000000
1.000000 0.821204 0.375063
1.000000 0.812873 0.773856
1.000000 0.871615 0.893260
0.000000 1.000000 0.066319
0.000000 1.000000 0.071277
0.000000 1.000000 0.110994
0.134728 1.000000 0.226389
0.328333 1.000000 0.368278
0.529747 1.000000 0.383868
0.999979 1.000000 0.000000
1.000000 0.964547 0.751289
1.000000 1.000000 0.997275
0.092777 1.000000 0.202634
0.151722 1.000000 0.254580
0.254157 1.000000 0.344573
0.405154 1.000000 0.476292
0.595358 1.000000 0.640427
0.759159 1.000000 0.774682
0.888079 1.000000 0.834376
1.000000 1.000000 0.606132
1.000000 1.000000 1.000000
0.691871 1.000000 0.735717
0.752814 1.000000 0.790000
0.858651 1.000000 0.884262
0.959306 1.000000 0.973620
1.000000 1.000000 1.000000
1.000000 1.000000 1.000000
1.000000 1.000000 1.000000
1.000000 1.000000 1.000000
1.000000 1.000000 1.000000
0.013888 0.000000 0.632452
0.208283 0.000000 0.567882
0.349909 0.000000 0.486246
0.546416 0.000000 0.506185
0.793830 0.000000 0.518081
1.000000 0.000000 0.485687
1.000000 0.000000 0.409630
1.000000 0.003604 0.280923
1.000000 0.075936 0.262323
0.008183 0.027567 0.642644
0.112917 0.020179 0.641626
0.439318 0.000000 0.629233
0.705690 0.000000 0.656997
1.000000 0.000000 0.655708
1.000000 0.000000 0.540922
1.000000 0.033270 0.450493
1.000000 0.077645 0.331520
1.000000 0.149125 0.321406
0.000000 0.215762 0.385821
0.000000 0.240713 0.512709
0.243136 0.170476 0.544243
0.631640 0.110785 0.590116
1.000000 0.052304 0.688440
1.000000 0.113008 0.587082
1.000000 0.163853 0.518768
1.000000 0.206273 0.418935
1.000000 0.276263 0.423642
0.000000 0.417692 0.399178
0.000000 0.439165 0.420672
0.000000 0.476388 0.458642
0.401512 0.401512 0.401512
0.805733 0.353976 0.422554
1.000000 0.312583 0.620294
1.000000 0.357401 0.608921
1.000000 0.397092 0.534892
1.000000 0.463521 0.573401
0.000000 0.675814 0.333122
0.000000 0.698798 0.339644
0.000000 0.739621 0.341959
0.000000 0.808625 0.276604
0.654345 0.682685 0.103049
1.000000 0.616971 0.247152
1.000000 0.607950 0.610607
1.000000 0.631478 0.695665
1.000000 0.695941 0.758423
0.000000 0.908437 0.107586
0.000000 0.932074 0.107499
0.000000 0.973283 0.102930
0.000000 1.000000 0.079792
0.095822 1.000000 0.000000
0.872424 0.907873 0.000000
1.000000 0.834831 0.440511
1.000000 0.830492 0.802539
1.000000 0.890238 0.912004
0.000000 1.000000 0.090558
0.000000 1.000000 0.106483
0.028483 1.000000 0.162502
0.181630 1.000000 0.284594
0.375381 1.000000 0.426042
0.572422 1.000000 0.453695
1.000000 1.000000 0.000000
1.000000 0.980313 0.798289
1.000000 1.000000 1.000000
0.142422 1.000000 0.252395
0.201447 1.000000 0.304098
0.303983 1.000000 0.393786
0.455099 1.000000 0.525144
0.647265 1.000000 0.690333
0.810732 1.000000 0.825709
0.935703 1.000000 0.896979
1.000000 1.000000 0.787325
1.000000 1.000000 1.000000
0.744668 1.000000 0.783134
0.805626 1.000000 0.837374
0.902473 1.000000 0.923534
0.988405 1.000000 0.999754
1.000000 1.000000 1.000000
1.000000 1.000000 1.000000
1.000000 1.000000 1.000000
1.000000 1.000000 1.000000
1.000000 1.000000 1.000000
0.037284 0.000000 1.000000
0.107053 0.000000 1.000000
0.352140 0.000000 0.731130
0.552830 0.000000 0.738754
0.802040 0.000000 0.745359
1.000000 0.000000 0.682767
1.000000 0.000000 0.547891
1.000000 0.012378 0.444974
1.000000 0.092102 0.352793
0.058500 0.000000 1.000000
0.120734 0.001974 1.000000
0.474043 0.000000 1.000000
0.732096 0.000000 0.987672
1.000000 0.000000 0.932163
1.000000 0.000000 0.736885
1.000000 0.045260 0.582534
1.000000 0.087137 0.488431
1.000000 0.165858 0.406236
0.061578 0.133769 1.000000
0.115890 0.141013 1.000000
0.331712 0.118217 1.000000
0.767286 0.049657 1.000000
1.000000 0.036383 1.000000
1.000000 0.119623 0.771870
1.000000 0.176778 0.641177
1.000000 0.217017 0.563391
1.000000 0.294068 0.497804
0.000000 0.415526 0.672094
0.000000 0.434583 0.717515
0.000000 0.465687 0.844598
0.450862 0.368927 0.830433
0.966222 0.282476 0.909700
1.000000 0.318381 0.811794
1.000000 0.371186 0.722921
1.000000 0.408632 0.671389
1.000000 0.482837 0.632854
0.000000 0.670003 0.642147
0.000000 0.691511 0.663283
0.000000 0.728821 0.700400
0.000000 0.783620 0.756147
0.652965 0.652965 0.652965
1.000000 0.609910 0.668634
1.000000 0.613615 0.803736
1.000000 0.646233 0.800900
1.000000 0.717762 0.793656
0.000000 0.894386 0.498229
0.000000 0.916904 0.509362
0.000000 0.956003 0.526451
0.000000 1.000000 0.540006
0.000000 1.000000 0.475707
0.869586 0.900953 0.255292
1.000000 0.841997 0.636451
1.000000 0.850633 0.854395
1.000000 0.912967 0.938245
0.000000 1.000000 0.159896
0.000000 1.000000 0.192370
0.077175 1.000000 0.260147
0.232828 1.000000 0.377598
0.428248 1.000000 0.513963
0.620737 1.000000 0.555532
1.000000 1.000000 0.000000
1.000000 0.999447 0.860061
1.000000 1.000000 1.000000
0.201774 1.000000 0.320296
0.261045 1.000000 0.371243
0.364023 1.000000 0.459578
0.516260 1.000000 0.589474
0.710774 1.000000 0.754298
0.874193 1.000000 0.889817
0.994695 1.000000 0.974177
1.000000 1.000000 1.000000
1.000000 1.000000 1.000000
0.809641 1.000000 0.842784
0.870688 1.000000 0.896758
0.942200 1.000000 0.959902
1.000000 1.000000 1.000000
1.000000 1.000000 1.000000
1.000000 1.000000 1.000000
1.000000 1.000000 1.000000
1.000000 1.000000 1.000000
1.000000 1.000000 1.000000
0.054312 0.000000 1.000000
0.088767 0.000000 1.000000
0.175859 0.000000 1.000000
0.524783 0.000000 1.000000
0.775468 0.000000 1.000000
1.000000 0.000000 0.942280
1.000000 0.000000 0.737508
1.000000 0.020620 0.572725
1.000000 0.098531 0.498599
0.097664 0.002904 1.000000
0.130752 0.016697 1.000000
0.211577 0.033708 1.000000
0.574964 0.000000 1.000000
0.834361 0.000000 1.000000
1.000000 0.000000 1.000000
1.000000 0.048363 0.761447
1.000000 0.096124 0.608774
1.000000 0.173177 0.543189
0.165347 0.120818 1.000000
0.196407 0.135210 1.000000
0.267153 0.155210 1.000000
0.602894 0.115821 1.000000
0.854387 0.115759 1.000000
1.000000 0.115120 1.000000
1.000000 0.181691 0.802088
1.000000 0.227262 0.671213
1.000000 0.302828 0.620425
0.227499 0.305485 1.000000
0.257535 0.320176 1.000000
0.320080 0.342603 1.000000
0.583003 0.324842 1.000000
0.872375 0.313521 1.000000
1.000000 0.316212 1.000000
1.000000 0.378464 0.859578
1.000000 0.420615 0.761769
1.000000 0.493797 0.733316
0.000000 0.651039 1.000000
0.000000 0.669004 1.000000
0.000000 0.696077 1.000000
0.130721 0.710731 1.000000
0.694513 0.623343 1.000000
1.000000 0.567663 1.000000
1.000000 0.622379 0.925126
1.000000 0.660215 0.872190
1.000000 0.731052 0.871828
0.000000 0.880574 0.844903
0.000000 0.902104 0.865823
0.000000 0.939465 0.902333
0.000000 0.993567 0.956104
0.000000 1.000000 1.000000
0.862819 0.862819 0.862819
1.000000 0.840609 0.876163
1.000000 0.861801 0.953577
1.000000 0.929251 0.986740
0.000000 1.000000 0.604072
0.000000 1.000000 0.620540
0.024348 1.000000 0.659304
0.188235 1.000000 0.723791
0.403066 1.000000 0.801022
0.597778 1.000000 0.829505
1.000000 1.000000 0.466578
1.000000 1.000000 0.949328
1.000000 1.000000 1.000000
0.243250 1.000000 0.401775
0.303324 1.000000 0.450272
0.407660 1.000000 0.534459
0.563297 1.000000 0.659231
0.760643 1.000000 0.816927
0.925740 1.000000 0.947495
1.000000 1.000000 1.000000
1.000000 1.000000 1.000000
1.000000 1.000000 1.000000
0.863164 1.000000 0.894629
0.908200 1.000000 0.933604
0.975334 1.000000 0.991557
1.000000 1.000000 1.000000
1.000000 1.000000 1.000000
1.000000 1.000000 1.000000
1.000000 1.000000 1.000000
1.000000 1.000000 1.000000
1.000000 1.000000 1.000000
0.065507 0.000000 1.000000
0.088295 0.000000 1.000000
0.133912 0.000000 1.000000
0.235125 0.022636 1.000000
0.595946 0.000000 1.000000
0.840133 0.000000 1.000000
1.000000 0.000000 1.000000
1.000000 0.017642 0.751748
1.000000 0.101918 0.614264
0.117252 0.012113 1.000000
0.139706 0.029063 1.000000
0.184315 0.056829 1.000000
0.280628 0.088583 1.000000
0.624476 0.061103 1.000000
0.856419 0.054543 1.000000
1.000000 0.037571 1.000000
1.000000 0.094345 0.775869
1.000000 0.177362 0.650911
0.204534 0.124178 1.000000
0.226479 0.141277 1.000000
0.269297 0.169570 1.000000
0.357174 0.203824 1.000000
0.671741 0.184965 1.000000
0.883584 0.184358 1.000000
1.000000 0.173864 1.000000
1.000000 0.227497 0.818253
1.000000 0.308407 0.714269
0.324760 0.291529 1.000000
0.346212 0.308769 1.000000
0.386977 0.337664 1.000000
0.463246 0.375355 1.000000
0.734037 0.369569 1.000000
0.920564 0.376440 1.000000
1.000000 0.374691 1.000000
1.000000 0.423766 0.879287
1.000000 0.501370 0.807437
0.444166 0.507219 1.000000
0.466505 0.524189 1.000000
0.507638 0.552964 1.000000
0.576920 0.592713 1.000000
0.779178 0.607267 1.000000
0.961407 0.615420 1.000000
1.000000 0.623357 1.000000
1.000000 0.667006 0.954298
1.000000 0.741140 0.921280
0.187023 0.793704 1.000000
0.225918 0.805721 1.000000
0.295406 0.826007 1.000000
0.402654 0.854378 1.000000
0.555256 0.883600 1.000000
0.888270 0.847496 1.000000
1.000000 0.833022 1.000000
1.000000 0.870822 1.000000
1.000000 0.941339 1.000000
0.000000 1.000000 0.986469
0.000000 1.000000 1.000000
0.000000 1.000000 1.000000
0.129143 1.000000 1.000000
0.365152 1.000000 1.000000
0.564857 1.000000 1.000000
1.000000 1.000000 1.000000
1.000000 1.000000 1.000000
1.000000 1.000000 1.000000
0.185621 1.000000 0.727865
0.252887 1.000000 0.754412
0.369285 1.000000 0.801785
0.542334 1.000000 0.870516
0.763573 1.000000 0.957612
0.947932 1.000000 1.000000
1.000000 1.000000 1.000000
1.000000 1.000000 1.000000
1.000000 1.000000 1.000000
0.897140 1.000000 0.935102
0.928504 1.000000 0.960405
0.996666 1.000000 1.000000
1.000000 1.000000 1.000000
1.000000 1.000000 1.000000
1.000000 1.000000 1.000000
1.000000 1.000000 1.000000
1.000000 1.000000 1.000000
1.000000 1.000000 1.000000
0.073522 0.000000 1.000000
0.092428 0.000000 1.000000
0.126990 0.005454 1.000000
0.185518 0.048411 1.000000
0.294283 0.090766 1.000000
0.627037 0.054270 1.000000
0.851993 0.031848 1.000000
1.000000 0.001987 1.000000
1.000000 0.096258 0.780233
0.128172 0.019911 1.000000
0.146972 0.037935 1.000000
0.181238 0.068772 1.000000
0.238759 0.112047 1.000000
0.343296 0.155655 1.000000
0.657553 0.124607 1.000000
0.868581 0.106320 1.000000
1.000000 0.080490 1.000000
1.000000 0.172875 0.805201
0.222261 0.129931 1.000000
0.240909 0.148008 1.000000
0.274691 0.178984 1.000000
0.330580 0.222737 1.000000
0.427815 0.268507 1.000000
0.710272 0.246838 1.000000
0.897953 0.235480 1.000000
1.000000 0.216819 1.000000
1.000000 0.306025 0.847607
0.357980 0.292662 1.000000
0.376490 0.310776 1.000000
0.409728 0.341906 1.000000
0.463285 0.386343 1.000000
0.549945 0.435242 1.000000
0.785204 0.427667 1.000000
0.939342 0.426212 1.000000
1.000000 0.417563 1.000000
1.000000 0.502036 0.910462
0.519698 0.495744 1.000000
0.538378 0.513802 1.000000
0.571513 0.544954 1.000000
0.623219 0.589929 1.000000
0.698202 0.642325 1.000000
0.875565 0.651967 1.000000
0.989607 0.662475 1.000000
1.000000 0.666696 1.000000
1.000000 0.745711 0.985609
0.627078 0.673433 1.000000
0.647567 0.690981 1.000000
0.683459 0.721366 1.000000
0.738060 0.765557 1.000000
0.810295 0.818825 1.000000
0.933601 0.844548 1.000000
1.000000 0.860678 1.000000
1.000000 0.875081 1.000000
1.000000 0.949183 1.000000
0.442285 0.877890 1.000000
0.480263 0.890181 1.000000
0.546164 0.911596 1.000000
0.645648 0.942439 1.000000
0.770272 0.980130 1.000000
0.881946 1.000000 1.000000
1.000000 1.000000 1.000000
1.000000 1.000000 1.000000
1.000000 1.000000 1.000000
0.115327 1.000000 1.000000
0.190066 1.000000 1.000000
0.319857 1.000000 1.000000
0.511590 1.000000 1.000000
0.758537 1.000000 1.000000
0.965232 1.000000 1.000000
1.000000 1.000000 1.000000
1.000000 1.000000 1.000000
1.000000 1.000000 1.000000
0.890931 1.000000 1.000000
0.926711 1.000000 1.000000
1.000000 1.000000 1.000000
1.000000 1.000000 1.000000
1.000000 1.000000 1.000000
1.000000 1.000000 1.000000
1.000000 1.000000 1.000000
1.000000 1.000000 1.000000
1.000000 1.000000 1.000000
0.091245 0.000000 1.000000
0.108708 0.000000 1.000000
0.139676 0.025701 1.000000
0.187486 0.071821 1.000000
0.254761 0.126498 1.000000
0.351519 0.160057 1.000000
0.655101 0.114289 1.000000
0.866243 0.084165 1.000000
1.000000 0.095751 1.000000
0.146992 0.038327 1.000000
0.164422 0.056747 1.000000
0.195290 0.088590 1.000000
0.242795 0.134836 1.000000
0.309128 0.189789 1.000000
0.402144 0.224457 1.000000
0.686544 0.184352 1.000000
0.883954 0.158303 1.000000
1.000000 0.174242 1.000000
0.243495 0.147608 1.000000
0.260871 0.166060 1.000000
0.291575 0.197948 1.000000
0.338577 0.244338 1.000000
0.403224 0.299785 1.000000
0.489241 0.336528 1.000000
0.740378 0.306252 1.000000
0.913598 0.287382 1.000000
1.000000 0.310554 1.000000
0.384013 0.308898 1.000000
0.401363 0.327355 1.000000
0.431918 0.359281 1.000000
0.478285 0.405851 1.000000
0.540884 0.461898 1.000000
0.617385 0.501460 1.000000
0.819961 0.485644 1.000000
0.957927 0.477182 1.000000
1.000000 0.511389 1.000000
0.556356 0.508813 1.000000
0.573781 0.527243 1.000000
0.604337 0.559162 1.000000
0.650253 0.605891 1.000000
0.710113 0.662816 1.000000
0.774757 0.705977 1.000000
0.916709 0.708194 1.000000
1.000000 0.713341 1.000000
1.000000 0.760928 1.000000
0.693975 0.677595 1.000000
0.711873 0.695914 1.000000
0.743162 0.727667 1.000000
0.789687 0.774259 1.000000
0.848778 0.831434 1.000000
0.904322 0.877299 1.000000
0.995902 0.894489 1.000000
1.000000 0.910571 1.000000
1.000000 0.969369 1.000000
0.771445 0.803970 1.000000
0.791349 0.821692 1.000000
0.826099 0.852416 1.000000
0.877322 0.897611 1.000000
0.941404 0.953302 1.000000
0.996431 0.999321 1.000000
1.000000 1.000000 1.000000
1.000000 1.000000 1.000000
1.000000 1.000000 1.000000
0.649893 0.949744 1.000000
0.687294 0.962264 1.000000
0.753641 0.983593 1.000000
0.850261 1.000000 1.000000
0.970746 1.000000 1.000000
1.000000 1.000000 1.000000
1.000000 1.000000 1.000000
1.000000 1.000000 1.000000
1.000000 1.000000 1.000000
0.907631 1.000000 1.000000
0.947062 1.000000 1.000000
1.000000 1.000000 1.000000
1.000000 1.000000 1.000000
1.000000 1.000000 1.000000
1.000000 1.000000 1.000000
1.000000 1.000000 1.000000
1.000000 1.000000 1.000000
1.000000 1.000000 1.000000
