luts/-UTILITY/LOG_to_Rec709/Canon_LOG2_Rec709_WDR.cube
# Rec.709/CanonLog2 to Rec.709/WDR, full range in and out CD_v6
# Converted by Nick Shaw of Antler Post
LUT_3D_SIZE 33
0.000000 0.000000 0.000000
0.000000 0.000000 0.000000
0.014952 0.000000 0.000000
0.035400 0.000000 0.000000
0.060115 0.000000 0.000000
0.089263 0.000000 0.000000
0.122390 0.000000 0.000000
0.158245 0.000000 0.000000
0.198233 0.000000 0.000000
0.242240 0.000000 0.000000
0.290620 0.000000 0.000000
0.343646 0.000000 0.000000
0.401512 0.000000 0.000000
0.464125 0.000000 0.000000
0.530697 0.000000 0.000000
0.593382 0.000000 0.000000
0.652965 0.000000 0.000000
0.709822 0.000000 0.000000
0.763938 0.000000 0.000000
0.815059 0.000000 0.000000
0.862819 0.000000 0.000000
0.906750 0.000000 0.000000
0.945880 0.000000 0.000000
0.980924 0.000000 0.000000
1.000000 0.000000 0.000000
1.000000 0.000000 0.000000
1.000000 0.000000 0.000000
1.000000 0.000000 0.000000
1.000000 0.000000 0.000000
1.000000 0.000000 0.000000
1.000000 0.000000 0.000000
1.000000 0.000000 0.000000
1.000000 0.000000 0.000000
0.000000 0.000000 0.000000
0.000000 0.000000 0.000000
0.014952 0.000000 0.000000
0.035400 0.000000 0.000000
0.060115 0.000000 0.000000
0.089263 0.000598 0.000000
0.122390 0.001226 0.000000
0.158245 0.001735 0.000000
0.198233 0.002225 0.000000
0.242240 0.002561 0.000000
0.290620 0.002852 0.000000
0.343646 0.003095 0.000000
0.401512 0.003293 0.000000
0.464125 0.003444 0.000000
0.530697 0.003537 0.000000
0.593382 0.003446 0.000000
0.652965 0.003256 0.000000
0.709822 0.003004 0.000000
0.763938 0.002706 0.000000
0.815059 0.002373 0.000000
0.862819 0.002015 0.000000
0.906750 0.001630 0.000000
0.945880 0.001178 0.000000
0.980924 0.000795 0.000000
1.000000 0.000423 0.000000
1.000000 0.000066 0.000000
1.000000 0.000000 0.000000
1.000000 0.000000 0.000000
1.000000 0.000000 0.000000
1.000000 0.000000 0.000000
1.000000 0.000000 0.000000
1.000000 0.000000 0.000000
1.000000 0.000000 0.000000
0.000000 0.014952 0.000000
0.000000 0.014952 0.000000
0.014952 0.014952 0.000000
0.035400 0.017869 0.000000
0.060115 0.019781 0.000000
0.089263 0.021137 0.000000
0.122390 0.022220 0.000000
0.158245 0.023015 0.000000
0.198233 0.023643 0.000000
0.242240 0.024143 0.000000
0.290620 0.024535 0.000000
0.343646 0.024850 0.000000
0.401512 0.025091 0.000000
0.464125 0.025252 0.000000
0.530697 0.025312 0.000000
0.593382 0.025045 0.000000
0.652965 0.024595 0.000000
0.709822 0.024080 0.000000
0.763938 0.023491 0.000000
0.815059 0.022850 0.000000
0.862819 0.022174 0.000000
0.906750 0.021469 0.000000
0.945880 0.020706 0.000000
0.980924 0.019963 0.000000
1.000000 0.019296 0.000000
1.000000 0.018659 0.000000
1.000000 0.018063 0.000000
1.000000 0.017509 0.000000
1.000000 0.016972 0.000000
1.000000 0.016560 0.000000
1.000000 0.016194 0.000000
1.000000 0.015934 0.000000
1.000000 0.015750 0.000000
0.000000 0.035400 0.000000
0.001109 0.035400 0.000000
0.020435 0.035400 0.000000
0.035400 0.035400 0.000000
0.060115 0.040418 0.000000
0.089263 0.043079 0.000000
0.122390 0.044683 0.000000
0.158245 0.045708 0.000000
0.198233 0.046441 0.000000
0.242240 0.046999 0.000000
0.290620 0.047433 0.000000
0.343646 0.047760 0.000000
0.401512 0.047991 0.000000
0.464125 0.048124 0.000000
0.530697 0.048127 0.000000
0.593382 0.047721 0.000000
0.652965 0.047097 0.000000
0.709822 0.046335 0.000000
0.763938 0.045518 0.000000
0.815059 0.044641 0.000000
0.862819 0.043727 0.000000
0.906750 0.042787 0.000000
0.945880 0.041816 0.000000
0.980924 0.040868 0.000000
1.000000 0.039961 0.000000
1.000000 0.039127 0.000000
1.000000 0.038349 0.000000
1.000000 0.037629 0.000000
1.000000 0.036940 0.000000
1.000000 0.036430 0.000000
1.000000 0.035970 0.000000
1.000000 0.035620 0.000000
1.000000 0.035383 0.000000
0.000000 0.060115 0.000000
0.003146 0.060115 0.000000
0.025008 0.060115 0.000000
0.044274 0.060115 0.000000
0.060115 0.060115 0.000000
0.089263 0.066635 0.000000
0.122390 0.069703 0.000000
0.158245 0.071171 0.000000
0.198233 0.072102 0.000000
0.242240 0.072759 0.000000
0.290620 0.073242 0.000000
0.343646 0.073584 0.000000
0.401512 0.073806 0.000000
0.464125 0.073912 0.000000
0.530697 0.073866 0.000000
0.593382 0.073336 0.000000
0.652965 0.072556 0.000000
0.709822 0.071619 0.000000
0.763938 0.070584 0.000000
0.815059 0.069520 0.000000
0.862819 0.068419 0.000000
0.906750 0.067297 0.000000
0.945880 0.066154 0.000000
0.980924 0.065041 0.000000
1.000000 0.063974 0.000000
1.000000 0.062970 0.000000
1.000000 0.062059 0.000000
1.000000 0.061217 0.000000
1.000000 0.060415 0.000000
1.000000 0.059827 0.000000
1.000000 0.059299 0.000000
1.000000 0.058893 0.000000
1.000000 0.058615 0.000000
0.000000 0.089263 0.000000
0.005049 0.089263 0.000000
0.028786 0.089263 0.000000
0.050628 0.089263 0.000000
0.071185 0.089263 0.000000
0.089263 0.089263 0.000000
0.122390 0.096766 0.000000
0.158245 0.099785 0.000000
0.198233 0.101255 0.000000
0.242240 0.102154 0.000000
0.290620 0.102761 0.000000
0.343646 0.103168 0.000000
0.401512 0.103413 0.000000
0.464125 0.103509 0.000000
0.530697 0.103426 0.000000
0.593382 0.102777 0.000000
0.652965 0.101843 0.000000
0.709822 0.100736 0.000000
0.763938 0.099522 0.000000
0.815059 0.098246 0.000000
0.862819 0.096968 0.000000
0.906750 0.095674 0.000000
0.945880 0.094367 0.000000
0.980924 0.093098 0.000000
1.000000 0.091884 0.000000
1.000000 0.090740 0.000000
1.000000 0.089684 0.000000
1.000000 0.088731 0.000000
1.000000 0.087826 0.000000
1.000000 0.087166 0.001348
1.000000 0.086575 0.007201
1.000000 0.086122 0.011691
1.000000 0.085812 0.014759
0.000000 0.122390 0.000000
0.006757 0.122390 0.000000
0.031943 0.122390 0.000000
0.055389 0.122390 0.000000
0.078559 0.122390 0.000000
0.101689 0.122390 0.000000
0.122390 0.122390 0.000000
0.158245 0.130112 0.000000
0.198233 0.133291 0.000000
0.242240 0.134785 0.000000
0.290620 0.135671 0.000000
0.343646 0.136224 0.000000
0.401512 0.136542 0.000000
0.464125 0.136663 0.000000
0.530697 0.136561 0.000000
0.593382 0.135791 0.000000
0.652965 0.134701 0.000000
0.709822 0.133420 0.000000
0.763938 0.132025 0.000000
0.815059 0.130565 0.000000
0.862819 0.129078 0.000000
0.906750 0.127612 0.000000
0.945880 0.126142 0.000000
0.980924 0.124718 0.000000
1.000000 0.123359 0.000000
1.000000 0.122080 0.000000
1.000000 0.120898 0.000000
1.000000 0.119818 0.006060
1.000000 0.118813 0.016009
1.000000 0.118085 0.023221
1.000000 0.117436 0.029661
1.000000 0.116938 0.034585
1.000000 0.116601 0.037922
0.000000 0.158245 0.000000
0.008175 0.158245 0.000000
0.034387 0.158245 0.000000
0.058806 0.158245 0.000000
0.083386 0.158245 0.000000
0.109159 0.158245 0.000000
0.134964 0.158245 0.000000
0.158245 0.158245 0.000000
0.198233 0.166195 0.000000
0.242240 0.169427 0.000000
0.290620 0.170918 0.000000
0.343646 0.171746 0.000000
0.401512 0.172199 0.000000
0.464125 0.172379 0.000000
0.530697 0.172266 0.000000
0.593382 0.171365 0.000000
0.652965 0.170104 0.000000
0.709822 0.168634 0.000000
0.763938 0.167046 0.000000
0.815059 0.165393 0.000000
0.862819 0.163715 0.000000
0.906750 0.162037 0.000000
0.945880 0.160398 0.000000
0.980924 0.158814 0.000000
1.000000 0.157306 0.000000
1.000000 0.155890 0.003906
1.000000 0.154584 0.016845
1.000000 0.153391 0.028667
1.000000 0.152269 0.039778
1.000000 0.151473 0.047654
1.000000 0.150766 0.054664
1.000000 0.150227 0.060002
1.000000 0.149866 0.063581
0.000000 0.198233 0.000000
0.009562 0.198233 0.000000
0.036428 0.198233 0.000000
0.061448 0.198233 0.000000
0.086897 0.198233 0.000000
0.114182 0.198233 0.000000
0.142750 0.198233 0.000000
0.171049 0.198233 0.000000
0.198233 0.198233 0.000000
0.242240 0.206290 0.000000
0.290620 0.209547 0.000000
0.343646 0.210980 0.000000
0.401512 0.211693 0.000000
0.464125 0.211984 0.000000
0.530697 0.211887 0.000000
0.593382 0.210809 0.000000
0.652965 0.209343 0.000000
0.709822 0.207660 0.000000
0.763938 0.205858 0.000000
0.815059 0.203998 0.000000
0.862819 0.202120 0.000000
0.906750 0.200247 0.000000
0.945880 0.198396 0.000000
0.980924 0.196649 0.000000
1.000000 0.194988 0.012722
1.000000 0.193435 0.028115
1.000000 0.192004 0.042284
1.000000 0.190700 0.055201
1.000000 0.189475 0.067333
1.000000 0.188603 0.075970
1.000000 0.187842 0.083510
1.000000 0.187269 0.089184
1.000000 0.186892 0.092924
0.000000 0.242240 0.000000
0.010536 0.242240 0.000000
0.038086 0.242240 0.000000
0.063538 0.242240 0.000000
0.089553 0.242240 0.000000
0.117764 0.242240 0.000000
0.147911 0.242240 0.000000
0.178976 0.242240 0.000000
0.211149 0.242240 0.000000
0.242240 0.242240 0.000000
0.290620 0.250338 0.000000
0.343646 0.253526 0.000000
0.401512 0.254825 0.000000
0.464125 0.255349 0.000000
0.530697 0.255314 0.000000
0.593382 0.254069 0.000000
0.652965 0.252338 0.000000
0.709822 0.250420 0.000000
0.763938 0.248386 0.000000
0.815059 0.246303 0.000000
0.862819 0.244211 0.000000
0.906750 0.242137 0.000000
0.945880 0.240095 0.001829
0.980924 0.238142 0.021171
1.000000 0.236326 0.039165
1.000000 0.234630 0.055963
1.000000 0.233073 0.071386
1.000000 0.231657 0.085410
1.000000 0.230331 0.098543
1.000000 0.229393 0.107836
1.000000 0.228571 0.115986
1.000000 0.227968 0.121958
1.000000 0.227579 0.125811
0.000000 0.290620 0.000000
0.011382 0.290620 0.000000
0.039386 0.290620 0.000000
0.065213 0.290620 0.000000
0.091614 0.290620 0.000000
0.120428 0.290620 0.000000
0.151549 0.290620 0.000000
0.184191 0.290620 0.000000
0.219123 0.290620 0.000000
0.255180 0.290620 0.000000
0.290620 0.290620 0.000000
0.343646 0.298600 0.000000
0.401512 0.301615 0.000000
0.464125 0.302688 0.000000
0.530697 0.302824 0.000000
0.593382 0.301405 0.000000
0.652965 0.299425 0.000000
0.709822 0.297198 0.000000
0.763938 0.294917 0.000000
0.815059 0.292597 0.000000
0.862819 0.290282 0.000000
0.906750 0.287998 0.006551
0.945880 0.285762 0.028703
0.980924 0.283627 0.049845
1.000000 0.281619 0.069739
1.000000 0.279780 0.087958
1.000000 0.278096 0.104641
1.000000 0.276569 0.119770
1.000000 0.275143 0.133890
1.000000 0.274144 0.143787
1.000000 0.273272 0.152429
1.000000 0.272637 0.158718
1.000000 0.272243 0.162618
0.000000 0.343646 0.000000
0.012101 0.343646 0.000000
0.040458 0.343646 0.000000
0.066501 0.343646 0.000000
0.093189 0.343646 0.000000
0.122406 0.343646 0.000000
0.154156 0.343646 0.000000
0.187757 0.343646 0.000000
0.224245 0.343646 0.000000
0.263024 0.343646 0.000000
0.303352 0.343646 0.000000
0.343646 0.343646 0.000000
0.401512 0.351319 0.000000
0.464125 0.354008 0.000000
0.530697 0.354588 0.000000
0.593382 0.353011 0.000000
0.652965 0.350766 0.000000
0.709822 0.348256 0.000000
0.763938 0.345656 0.000000
0.815059 0.343089 0.000000
0.862819 0.340544 0.011315
0.906750 0.338045 0.036067
0.945880 0.335613 0.060163
0.980924 0.333298 0.083091
1.000000 0.331123 0.104633
1.000000 0.329112 0.124556
1.000000 0.327302 0.142485
1.000000 0.325666 0.158697
1.000000 0.324144 0.173773
1.000000 0.323089 0.184219
1.000000 0.322175 0.193275
1.000000 0.321519 0.199778
1.000000 0.321128 0.203647
0.000000 0.401512 0.000000
0.012697 0.401512 0.000000
0.041312 0.401512 0.000000
0.067493 0.401512 0.000000
0.094319 0.401512 0.000000
0.123821 0.401512 0.000000
0.155981 0.401512 0.000000
0.190183 0.401512 0.000000
0.227590 0.401512 0.000000
0.267879 0.401512 0.000000
0.310854 0.401512 0.000000
0.355884 0.401512 0.000000
0.401512 0.401512 0.000000
0.464125 0.408589 0.000000
0.530697 0.410553 0.000000
0.593382 0.408924 0.000000
0.652965 0.406425 0.000000
0.709822 0.403630 0.000000
0.763938 0.400754 0.000000
0.815059 0.397888 0.016481
0.862819 0.395110 0.044000
0.906750 0.392398 0.070870
0.945880 0.389773 0.096864
0.980924 0.387283 0.121534
1.000000 0.384948 0.144656
1.000000 0.382792 0.166010
1.000000 0.380839 0.185368
1.000000 0.379098 0.202612
1.000000 0.377485 0.218583
1.000000 0.376384 0.229496
1.000000 0.375437 0.238875
1.000000 0.374770 0.245486
1.000000 0.374392 0.249226
0.000000 0.464125 0.000000
0.013161 0.464125 0.000000
0.041936 0.464125 0.000000
0.068182 0.464125 0.000000
0.095078 0.464125 0.000000
0.124703 0.464125 0.000000
0.157135 0.464125 0.000000
0.191712 0.464125 0.000000
0.229661 0.464125 0.000000
0.270806 0.464125 0.000000
0.315203 0.464125 0.000000
0.362726 0.464125 0.000000
0.412802 0.464125 0.000000
0.464125 0.464125 0.000000
0.530697 0.469972 0.000000
0.593382 0.468777 0.000000
0.652965 0.466126 0.000000
0.709822 0.463078 0.000000
0.763938 0.459951 0.021921
0.815059 0.456848 0.052664
0.862819 0.453813 0.082725
0.906750 0.450898 0.111599
0.945880 0.448095 0.139362
0.980924 0.445441 0.165657
1.000000 0.442958 0.190250
1.000000 0.440671 0.212909
1.000000 0.438601 0.233413
1.000000 0.436751 0.251743
1.000000 0.435058 0.268507
1.000000 0.433921 0.279771
1.000000 0.432954 0.289348
1.000000 0.432289 0.295935
1.000000 0.431938 0.299410
0.000000 0.530697 0.000000
0.013466 0.530697 0.000000
0.042273 0.530697 0.000000
0.068491 0.530697 0.000000
0.095379 0.530697 0.000000
0.125037 0.530697 0.000000
0.157558 0.530697 0.000000
0.192318 0.530697 0.000000
0.230537 0.530697 0.000000
0.272116 0.530697 0.000000
0.317231 0.530697 0.000000
0.365976 0.530697 0.000000
0.418222 0.530697 0.000000
0.473461 0.530697 0.000000
0.530697 0.530697 0.000000
0.593382 0.531222 0.000000
0.652965 0.528874 0.000000
0.709822 0.525696 0.030110
0.763938 0.522385 0.062914
0.815059 0.519095 0.095501
0.862819 0.515880 0.127351
0.906750 0.512764 0.158217
0.945880 0.509805 0.187527
0.980924 0.507006 0.215251
1.000000 0.504393 0.241140
1.000000 0.501990 0.264944
1.000000 0.499821 0.286425
1.000000 0.497890 0.305558
1.000000 0.496124 0.323052
1.000000 0.494966 0.334513
1.000000 0.493996 0.344129
1.000000 0.493350 0.350523
1.000000 0.493044 0.353557
0.000000 0.593382 0.000000
0.013281 0.593382 0.000000
0.041737 0.593382 0.000000
0.067695 0.593382 0.000000
0.094365 0.593382 0.000000
0.123829 0.593382 0.000000
0.156173 0.593382 0.000000
0.190756 0.593382 0.000000
0.228776 0.593382 0.000000
0.270221 0.593382 0.000000
0.315272 0.593382 0.000000
0.364081 0.593382 0.000000
0.416651 0.593382 0.000000
0.472701 0.593382 0.000000
0.531535 0.593382 0.000000
0.593382 0.593382 0.000000
0.652965 0.589669 0.017370
0.709822 0.585691 0.056769
0.763938 0.581870 0.094619
0.815059 0.578208 0.130894
0.862819 0.574695 0.165691
0.906750 0.571326 0.199069
0.945880 0.568113 0.230884
0.980924 0.565135 0.260395
1.000000 0.562364 0.287839
1.000000 0.559827 0.312966
1.000000 0.557549 0.335535
1.000000 0.555531 0.355528
1.000000 0.553695 0.373712
1.000000 0.552517 0.385384
1.000000 0.551551 0.394953
1.000000 0.550940 0.401005
1.000000 0.550696 0.403421
0.000000 0.652965 0.000000
0.012806 0.652965 0.000000
0.040682 0.652965 0.000000
0.066270 0.652965 0.000000
0.092619 0.652965 0.000000
0.121780 0.652965 0.000000
0.153827 0.652965 0.000000
0.188099 0.652965 0.000000
0.225749 0.652965 0.000000
0.266763 0.652965 0.000000
0.311453 0.652965 0.000000
0.359924 0.652965 0.000000
0.412225 0.652965 0.000000
0.468155 0.652965 0.000000
0.527138 0.652965 0.000000
0.587431 0.652965 0.000000
0.652965 0.652965 0.000000
0.709822 0.645287 0.056646
0.763938 0.639710 0.111892
0.815059 0.635194 0.156624
0.862819 0.631138 0.196793
0.906750 0.627372 0.234098
0.945880 0.623842 0.269073
0.980924 0.620575 0.301428
1.000000 0.617613 0.330767
1.000000 0.614918 0.357464
1.000000 0.612513 0.381291
1.000000 0.610397 0.402257
1.000000 0.608485 0.421188
1.000000 0.607290 0.433032
1.000000 0.606331 0.442528
1.000000 0.605764 0.448141
1.000000 0.605595 0.449815
0.000000 0.709822 0.000000
0.012160 0.709822 0.000000
0.039402 0.709822 0.000000
0.064430 0.709822 0.000000
0.090389 0.709822 0.000000
0.119182 0.709822 0.000000
0.150860 0.709822 0.000000
0.184743 0.709822 0.000000
0.221956 0.709822 0.000000
0.262497 0.709822 0.000000
0.306600 0.709822 0.000000
0.354554 0.709822 0.000000
0.406342 0.709822 0.000000
0.461782 0.709822 0.000000
0.520311 0.709822 0.011161
0.579061 0.709822 0.022750
0.640644 0.709822 0.016863
0.709822 0.709822 0.000000
0.763938 0.698281 0.094903
0.815059 0.691092 0.166113
0.862819 0.685861 0.217931
0.906750 0.681398 0.262146
0.945880 0.677382 0.301923
0.980924 0.673762 0.337787
1.000000 0.670496 0.370142
1.000000 0.667610 0.398725
1.000000 0.665056 0.424023
1.000000 0.662828 0.446096
1.000000 0.660834 0.465851
1.000000 0.659623 0.477840
1.000000 0.658677 0.487212
1.000000 0.658171 0.492231
1.000000 0.658092 0.493013
0.000000 0.763938 0.000000
0.011380 0.763938 0.000000
0.037906 0.763938 0.000000
0.062387 0.763938 0.000000
0.087838 0.763938 0.000000
0.116218 0.763938 0.000000
0.147487 0.763938 0.000000
0.180939 0.763938 0.000000
0.217678 0.763938 0.000000
0.257710 0.763938 0.000000
0.301267 0.763938 0.000000
0.348529 0.763938 0.000000
0.399705 0.763938 0.000000
0.454524 0.763938 0.008850
0.512406 0.763938 0.034438
0.569749 0.763938 0.050171
0.628393 0.763938 0.052938
0.691277 0.763938 0.035191
0.763938 0.763938 0.000000
0.815059 0.748548 0.133038
0.862819 0.739737 0.220310
0.906750 0.733783 0.279300
0.945880 0.728917 0.327497
0.980924 0.724756 0.368716
1.000000 0.721111 0.404820
1.000000 0.717919 0.436446
1.000000 0.715187 0.463511
1.000000 0.712827 0.486879
1.000000 0.710738 0.507571
1.000000 0.709515 0.519690
1.000000 0.708587 0.528883
1.000000 0.708142 0.533293
1.000000 0.708187 0.532845
0.000000 0.815059 0.000000
0.010500 0.815059 0.000000
0.036251 0.815059 0.000000
0.060151 0.815059 0.000000
0.085148 0.815059 0.000000
0.113020 0.815059 0.000000
0.143852 0.815059 0.000000
0.176852 0.815059 0.000000
0.213100 0.815059 0.000000
0.252606 0.815059 0.000000
0.295603 0.815059 0.000000
0.342270 0.815059 0.000000
0.392692 0.815059 0.006552
0.446847 0.815059 0.031458
0.504030 0.815059 0.059101
0.560132 0.815059 0.078491
0.616552 0.815059 0.087803
0.675136 0.815059 0.082717
0.739171 0.815059 0.053514
0.815059 0.815059 0.000000
0.862819 0.795803 0.171324
0.906750 0.785352 0.274855
0.945880 0.778671 0.341036
0.980924 0.773558 0.391687
1.000000 0.769328 0.433590
1.000000 0.765744 0.469093
1.000000 0.762716 0.499087
1.000000 0.760197 0.524036
1.000000 0.757995 0.545847
1.000000 0.756757 0.558110
1.000000 0.755852 0.567080
1.000000 0.755477 0.570787
1.000000 0.755644 0.569136
0.000000 0.862819 0.000000
0.009546 0.862819 0.000000
0.034483 0.862819 0.000000
0.057783 0.862819 0.000000
0.082319 0.862819 0.000000
0.109753 0.862819 0.000000
0.140066 0.862819 0.000000
0.172599 0.862819 0.000000
0.208353 0.862819 0.000000
0.247333 0.862819 0.000000
0.289770 0.862819 0.000000
0.335845 0.862819 0.003555
0.385643 0.862819 0.027310
0.439017 0.862819 0.054513
0.495500 0.862819 0.084220
0.550504 0.862819 0.106839
0.605169 0.862819 0.121320
0.660740 0.862819 0.125106
0.719120 0.862819 0.112554
0.784028 0.862819 0.071956
0.862819 0.862819 0.000000
0.906750 0.839607 0.210520
0.945880 0.827489 0.330553
0.980924 0.820351 0.401264
1.000000 0.815079 0.453489
1.000000 0.810877 0.495116
1.000000 0.807457 0.528999
1.000000 0.804663 0.556669
1.000000 0.802319 0.579893
1.000000 0.801059 0.592371
1.000000 0.800177 0.601112
1.000000 0.799883 0.604026
1.000000 0.800185 0.601030
0.000000 0.906750 0.000000
0.008514 0.906750 0.000000
0.032620 0.906750 0.000000
0.055322 0.906750 0.000000
0.079395 0.906750 0.000000
0.106393 0.906750 0.000000
0.136272 0.906750 0.000000
0.168264 0.906750 0.000000
0.203524 0.906750 0.000000
0.241983 0.906750 0.000000
0.283871 0.906750 0.000451
0.329367 0.906750 0.022627
0.378558 0.906750 0.048170
0.431305 0.906750 0.077223
0.486995 0.906750 0.109265
0.541014 0.906750 0.134784
0.594235 0.906750 0.153518
0.647552 0.906750 0.163942
0.702123 0.906750 0.162603
0.759988 0.906750 0.142744
0.825361 0.906750 0.090882
0.906750 0.906750 0.000000
0.945880 0.879067 0.254801
0.980924 0.866023 0.384019
1.000000 0.858519 0.458346
1.000000 0.853195 0.511083
1.000000 0.849136 0.551295
1.000000 0.845961 0.582740
1.000000 0.843355 0.608556
1.000000 0.842061 0.621383
1.000000 0.841197 0.629942
1.000000 0.840990 0.631994
1.000000 0.841445 0.627483
0.000000 0.945880 0.000000
0.007293 0.945880 0.000000
0.030588 0.945880 0.000000
0.052757 0.945880 0.000000
0.076385 0.945880 0.000000
0.102957 0.945880 0.000000
0.132409 0.945880 0.000000
0.163960 0.945880 0.000000
0.198663 0.945880 0.000000
0.236612 0.945880 0.000000
0.277970 0.945880 0.017831
0.322909 0.945880 0.041645
0.371522 0.945880 0.068890
0.423671 0.945880 0.099702
0.478742 0.945880 0.133567
0.531748 0.945880 0.162070
0.583721 0.945880 0.184480
0.635240 0.945880 0.200195
0.687027 0.945880 0.207056
0.740216 0.945880 0.200965
0.797004 0.945880 0.174382
0.862005 0.945880 0.112337
0.945880 0.945880 0.000000
0.980924 0.914637 0.290069
1.000000 0.900323 0.431856
1.000000 0.892512 0.509231
1.000000 0.887255 0.561305
1.000000 0.883432 0.599173
1.000000 0.880438 0.628827
1.000000 0.879037 0.642705
1.000000 0.878181 0.651184
1.000000 0.878081 0.652184
1.000000 0.878720 0.645846
0.000000 0.980924 0.000000
0.006257 0.980924 0.000000
0.028599 0.980924 0.000000
0.050229 0.980924 0.000000
0.073428 0.980924 0.000000
0.099589 0.980924 0.000000
0.128631 0.980924 0.000000
0.159759 0.980924 0.000000
0.194019 0.980924 0.000000
0.231408 0.980924 0.012476
0.272257 0.980924 0.034651
0.316673 0.980924 0.060007
0.364743 0.980924 0.088852
0.416333 0.980924 0.121308
0.470828 0.980924 0.156870
0.523096 0.980924 0.187549
0.573892 0.980924 0.213421
0.623983 0.980924 0.233341
0.673718 0.980924 0.246245
0.723737 0.980924 0.249488
0.775240 0.980924 0.238468
0.830630 0.980924 0.204723
0.895316 0.980924 0.129469
0.980924 0.980924 0.000000
1.000000 0.946451 0.322068
1.000000 0.931102 0.474109
1.000000 0.923171 0.552673
1.000000 0.918097 0.602937
1.000000 0.914415 0.639407
1.000000 0.912796 0.655448
1.000000 0.911869 0.664625
1.000000 0.911868 0.664642
1.000000 0.912702 0.656381
0.000000 1.000000 0.000000
0.005245 1.000000 0.000000
0.026800 1.000000 0.000000
0.047795 1.000000 0.000000
0.070571 1.000000 0.000000
0.096342 1.000000 0.000000
0.124995 1.000000 0.000000
0.155721 1.000000 0.000000
0.189565 1.000000 0.006103
0.226520 1.000000 0.026871
0.266822 1.000000 0.050657
0.310743 1.000000 0.077469
0.358310 1.000000 0.107794
0.409385 1.000000 0.141767
0.463352 1.000000 0.178882
0.514965 1.000000 0.211490
0.564947 1.000000 0.239759
0.613735 1.000000 0.263519
0.661886 1.000000 0.281085
0.709623 1.000000 0.291048
0.757600 1.000000 0.290411
0.807105 1.000000 0.273998
0.860740 1.000000 0.231281
0.925069 1.000000 0.145053
1.000000 1.000000 0.000000
1.000000 0.974996 0.349456
1.000000 0.958922 0.508684
1.000000 0.951019 0.586967
1.000000 0.945987 0.636815
1.000000 0.943908 0.657420
1.000000 0.942775 0.668635
1.000000 0.942815 0.668232
1.000000 0.943844 0.658044
0.000000 1.000000 0.000000
0.004273 1.000000 0.000000
0.025079 1.000000 0.000000
0.045549 1.000000 0.000000
0.067869 1.000000 0.000000
0.093264 1.000000 0.000000
0.121552 1.000000 0.000000
0.151904 1.000000 0.000000
0.185364 1.000000 0.018476
0.221916 1.000000 0.040427
0.261802 1.000000 0.065439
0.305204 1.000000 0.093781
0.352305 1.000000 0.125474
0.402914 1.000000 0.160820
0.456407 1.000000 0.199334
0.507446 1.000000 0.233628
0.556731 1.000000 0.263953
0.604657 1.000000 0.290249
0.651411 1.000000 0.311930
0.697437 1.000000 0.326933
0.742931 1.000000 0.333603
0.788577 1.000000 0.328555
0.835611 1.000000 0.305277
0.887797 1.000000 0.254804
0.951836 1.000000 0.158431
1.000000 1.000000 0.000000
1.000000 1.000000 0.370776
1.000000 0.984611 0.534540
1.000000 0.976525 0.614630
1.000000 0.973443 0.645167
1.000000 0.971835 0.661092
1.000000 0.971769 0.661743
1.000000 0.972975 0.649797
0.000000 1.000000 0.000000
0.003355 1.000000 0.000000
0.023461 1.000000 0.000000
0.043445 1.000000 0.000000
0.065406 1.000000 0.000000
0.090407 1.000000 0.000000
0.118350 1.000000 0.000000
0.148359 1.000000 0.009690
0.181469 1.000000 0.029945
0.217658 1.000000 0.052967
0.257168 1.000000 0.079085
0.300183 1.000000 0.108565
0.346811 1.000000 0.141653
0.397000 1.000000 0.178234
0.450076 1.000000 0.217977
0.500624 1.000000 0.253715
0.549322 1.000000 0.285771
0.596534 1.000000 0.314168
0.642405 1.000000 0.338447
0.686977 1.000000 0.357731
0.730663 1.000000 0.369729
0.773657 1.000000 0.372486
0.816488 1.000000 0.361587
0.861556 1.000000 0.332075
0.912537 1.000000 0.274150
0.976582 1.000000 0.168891
