luts/-UTILITY/LOG_to_Rec709/Canon_LOG_Rec709_WDR.cube
# Gamut : BT.709
# Gamma : Canon Log to Wide DR
# Version : 1.0
# Created by Canon Inc. CD_v3
LUT_3D_SIZE 17
0.000000 0.000000 0.000000 
0.000026 0.000000 0.000000 
0.062315 0.000383 0.000000 
0.186750 0.003156 0.000000 
0.283721 0.008588 0.000000 
0.374559 0.016525 0.000000 
0.465086 0.026176 0.000000 
0.549291 0.035379 0.000000 
0.623525 0.042065 0.000000 
0.688573 0.047428 0.000000 
0.748009 0.052057 0.000000 
0.800763 0.055929 0.000000 
0.845783 0.059053 0.000000 
0.884983 0.061639 0.000000 
0.918334 0.063741 0.000000 
0.947781 0.065524 0.000000 
0.971351 0.066902 0.000000 
0.000000 0.000004 0.000000 
0.000009 0.000001 0.000000 
0.042177 0.008336 0.000000 
0.157231 0.017850 0.000000 
0.260947 0.026514 0.000000 
0.355982 0.036200 0.000000 
0.450168 0.046173 0.000000 
0.537872 0.053826 0.000000 
0.614547 0.058829 0.000000 
0.681537 0.062155 0.000000 
0.742541 0.064653 0.000000 
0.796551 0.066427 0.000000 
0.842572 0.067585 0.000000 
0.882551 0.068451 0.000000 
0.916504 0.069093 0.000000 
0.946410 0.069685 0.000000 
0.970330 0.070091 0.000000 
0.007977 0.060672 0.000000 
0.029271 0.055390 0.000000 
0.069551 0.060533 0.000000 
0.147532 0.080527 0.000000 
0.245606 0.096555 0.000000 
0.343049 0.109254 0.000000 
0.440753 0.119307 0.000000 
0.531593 0.125228 0.000000 
0.611013 0.127133 0.000000 
0.680287 0.126745 0.000000 
0.743043 0.125621 0.000000 
0.798406 0.124013 0.000000 
0.845475 0.122122 0.000000 
0.886241 0.120386 0.000000 
0.920783 0.118856 0.000000 
0.951114 0.117693 0.000000 
0.975355 0.116683 0.000000 
0.022403 0.186780 0.000000 
0.057482 0.180557 0.000000 
0.126578 0.178660 0.000000 
0.201777 0.187068 0.000000 
0.270492 0.200269 0.000000 
0.352166 0.212823 0.000000 
0.444369 0.221424 0.000000 
0.535077 0.224641 0.000000 
0.616307 0.223571 0.000000 
0.687594 0.220392 0.000000 
0.751954 0.216738 0.000000 
0.808559 0.212936 0.000000 
0.856594 0.209198 0.000000 
0.898055 0.205897 0.000000 
0.933098 0.203063 0.000000 
0.963757 0.200801 0.000000 
0.988242 0.198916 0.000000 
0.032397 0.288647 0.000000 
0.072669 0.284250 0.000000 
0.151975 0.281889 0.000000 
0.232671 0.283821 0.000000 
0.302258 0.288972 0.000000 
0.374496 0.297322 0.000000 
0.457133 0.305222 0.000000 
0.544465 0.308085 0.000000 
0.626558 0.305799 0.000000 
0.699904 0.300880 0.000000 
0.766068 0.295442 0.000000 
0.824101 0.290006 0.003911 
0.873242 0.284863 0.014179 
0.915470 0.280404 0.023123 
0.951043 0.276636 0.030608 
0.982018 0.273625 0.036459 
1.000000 0.271152 0.041184 
0.040359 0.384635 0.000000 
0.083068 0.381263 0.000000 
0.164416 0.379259 0.000000 
0.247475 0.379582 0.000000 
0.322329 0.381167 0.000000 
0.396953 0.384979 0.000000 
0.476456 0.389977 0.000000 
0.560911 0.391683 0.000000 
0.643823 0.388106 0.000000 
0.719806 0.381289 0.011772 
0.788362 0.373833 0.029086 
0.848224 0.366547 0.048210 
0.898704 0.359834 0.066972 
0.941764 0.354133 0.083449 
0.977848 0.349403 0.097260 
1.000000 0.345669 0.108107 
1.000000 0.342638 0.116803 
0.046455 0.479658 0.000000 
0.089742 0.477004 0.000000 
0.170325 0.475434 0.000000 
0.253443 0.475456 0.000000 
0.330790 0.475975 0.000000 
0.408973 0.477602 0.000000 
0.490684 0.480003 0.000000 
0.576347 0.479873 0.000059 
0.662697 0.474482 0.006588 
0.744141 0.464998 0.025050 
0.817708 0.454457 0.053376 
0.881302 0.444280 0.086585 
0.934309 0.435153 0.120170 
0.978814 0.427621 0.149461 
1.000000 0.421543 0.170452 
1.000000 0.416868 0.185391 
1.000000 0.413146 0.196442 
0.050691 0.566834 0.000000 
0.091964 0.564748 0.000000 
0.169665 0.563639 0.000000 
0.251426 0.563861 0.000000 
0.328486 0.564439 0.000000 
0.407251 0.565771 0.000000 
0.489854 0.567589 0.000000 
0.576753 0.567168 0.000000 
0.667201 0.561334 0.000000 
0.756910 0.549855 0.013999 
0.840294 0.535566 0.046732 
0.912525 0.520932 0.092993 
0.971894 0.507651 0.144596 
1.000000 0.496801 0.184415 
1.000000 0.488261 0.213096 
1.000000 0.481870 0.233900 
1.000000 0.476922 0.249287 
0.053531 0.642239 0.000000 
0.090635 0.640618 0.000000 
0.163848 0.639944 0.000000 
0.243489 0.640527 0.000000 
0.318620 0.641538 0.000000 
0.395582 0.643337 0.000000 
0.476251 0.645759 0.004604 
0.561032 0.646571 0.004933 
0.651291 0.642559 0.000000 
0.746159 0.632012 0.000000 
0.840481 0.616037 0.018169 
0.926183 0.597048 0.063303 
0.997782 0.578178 0.126388 
1.000000 0.562040 0.185035 
1.000000 0.549215 0.226635 
1.000000 0.539671 0.257049 
1.000000 0.532445 0.279535 
0.055515 0.707835 0.000000 
0.087540 0.706586 0.000000 
0.155335 0.706281 0.000000 
0.232669 0.707213 0.000000 
0.305275 0.708680 0.000000 
0.379461 0.711055 0.007058 
0.456782 0.714307 0.022449 
0.537167 0.716678 0.025487 
0.622862 0.715379 0.013474 
0.716209 0.708141 0.000000 
0.815758 0.694170 0.000000 
0.914040 0.673924 0.020674 
1.000000 0.650370 0.076458 
1.000000 0.627872 0.152798 
1.000000 0.608855 0.213465 
1.000000 0.594261 0.257522 
1.000000 0.583210 0.290140 
0.057008 0.767543 0.000000 
0.084007 0.766587 0.000000 
0.146052 0.766568 0.000000 
0.221238 0.767774 0.000000 
0.291328 0.769600 0.000506 
0.362652 0.772436 0.022522 
0.436436 0.776348 0.044470 
0.511923 0.779970 0.054138 
0.591249 0.781053 0.044374 
0.678344 0.777533 0.020585 
0.775359 0.767836 0.000000 
0.878923 0.750381 0.000000 
0.980533 0.725880 0.021967 
1.000000 0.698456 0.087412 
1.000000 0.672458 0.172509 
1.000000 0.650974 0.235814 
1.000000 0.634180 0.282375 
0.058126 0.820390 0.000000 
0.080370 0.819661 0.000000 
0.136426 0.819867 0.000000 
0.209704 0.821289 0.000000 
0.277409 0.823396 0.011051 
0.345973 0.826589 0.038520 
0.416334 0.831007 0.067961 
0.487036 0.835561 0.086605 
0.559696 0.838463 0.084468 
0.638599 0.838084 0.061950 
0.727780 0.832946 0.028239 
0.827755 0.820671 0.000000 
0.934518 0.799719 0.000000 
1.000000 0.771715 0.022185 
1.000000 0.740694 0.096010 
1.000000 0.711813 0.187411 
1.000000 0.687544 0.253277 
0.058953 0.865401 0.000000 
0.076868 0.864850 0.000000 
0.126734 0.865231 0.000000 
0.198503 0.866825 0.000000 
0.264027 0.869154 0.021041 
0.330032 0.872628 0.053880 
0.397215 0.877433 0.090907 
0.463488 0.882676 0.119392 
0.529861 0.886904 0.127889 
0.600416 0.888888 0.113528 
0.679734 0.887534 0.080376 
0.770326 0.880604 0.036170 
0.872411 0.865672 0.000000 
0.982172 0.841930 0.000000 
1.000000 0.810755 0.021693 
1.000000 0.776905 0.102647 
1.000000 0.744968 0.198471 
0.059592 0.904536 0.000000 
0.073791 0.904121 0.000000 
0.118488 0.904635 0.000000 
0.188307 0.906355 0.001105 
0.251956 0.908846 0.029804 
0.315739 0.912521 0.067488 
0.380165 0.917596 0.111505 
0.442599 0.923312 0.148631 
0.503481 0.928453 0.165293 
0.566516 0.932088 0.163225 
0.636198 0.933488 0.142232 
0.715573 0.930856 0.097863 
0.807058 0.921888 0.043005 
0.911259 0.904799 0.000000 
1.000000 0.878448 0.000000 
1.000000 0.844789 0.020885 
1.000000 0.807923 0.107500 
0.060084 0.937797 0.000000 
0.071172 0.937487 0.000000 
0.111556 0.938100 0.000000 
0.179284 0.939914 0.005666 
0.241364 0.942522 0.037239 
0.303263 0.946341 0.079102 
0.365348 0.951604 0.129230 
0.424518 0.957647 0.170173 
0.480721 0.963417 0.192280 
0.537273 0.968190 0.198942 
0.598375 0.971513 0.191288 
0.666914 0.972004 0.165430 
0.745956 0.967797 0.113427 
0.838455 0.957190 0.049529 
0.944290 0.938053 0.000000 
1.000000 0.909725 0.000000 
1.000000 0.873389 0.019496 
0.060482 0.967143 0.000000 
0.069059 0.966911 0.000000 
0.105968 0.967597 0.000000 
0.171646 0.969473 0.009353 
0.232464 0.972159 0.043273 
0.292837 0.976067 0.088579 
0.353024 0.981444 0.143503 
0.409538 0.987691 0.186069 
0.461911 0.993871 0.212266 
0.513110 0.999403 0.225174 
0.567012 1.000000 0.226432 
0.626109 1.000000 0.213710 
0.693372 1.000000 0.183119 
0.772514 1.000000 0.127342 
0.865820 0.988090 0.054913 
0.973444 0.967393 0.000000 
1.000000 0.936775 0.000000 
0.060779 0.990618 0.000000 
0.067327 0.990446 0.000000 
0.101432 0.991186 0.000000 
0.165184 0.993109 0.012346 
0.224986 0.995854 0.048180 
0.284106 0.999830 0.096297 
0.342725 1.000000 0.154002 
0.397038 1.000000 0.198072 
0.446231 1.000000 0.227362 
0.492982 1.000000 0.244895 
0.540867 1.000000 0.252619 
0.591948 1.000000 0.248962 
0.648838 1.000000 0.231556 
0.715244 1.000000 0.197798 
0.794213 1.000000 0.139912 
0.888368 1.000000 0.060683 
0.996771 0.990863 0.000000 
0.000005 0.000000 0.000000 
0.000017 0.000000 0.000000 
0.053154 0.000396 0.023607 
0.185082 0.000000 0.044040 
0.293778 0.000000 0.045801 
0.392795 0.000000 0.039475 
0.488235 0.000000 0.030132 
0.573873 0.000000 0.018910 
0.646450 0.000000 0.006965 
0.708665 0.003043 0.000000 
0.764995 0.011382 0.000000 
0.814700 0.020191 0.000000 
0.856933 0.028820 0.000000 
0.893737 0.036754 0.000000 
0.925101 0.043739 0.000000 
0.952955 0.049705 0.000000 
0.975262 0.054624 0.000000 
0.000000 0.000006 0.000000 
0.000000 0.000000 0.000000 
0.062492 0.000103 0.000000 
0.189959 0.000550 0.000000 
0.290813 0.001454 0.000000 
0.385635 0.002902 0.000000 
0.479362 0.005007 0.000000 
0.564996 0.008126 0.000000 
0.638526 0.012554 0.000000 
0.702035 0.018140 0.000000 
0.759648 0.024470 0.000000 
0.810501 0.031133 0.000000 
0.853700 0.037690 0.000000 
0.891280 0.043800 0.000000 
0.923251 0.049241 0.000000 
0.951570 0.053959 0.000000 
0.974232 0.057868 0.000000 
0.000000 0.066335 0.017338 
0.001509 0.062162 0.000000 
0.064358 0.061987 0.000000 
0.171215 0.071483 0.000000 
0.277025 0.074892 0.000000 
0.375086 0.077186 0.000000 
0.471083 0.079337 0.000000 
0.558972 0.080907 0.000000 
0.634788 0.082271 0.000000 
0.700378 0.084071 0.000000 
0.759714 0.086596 0.000000 
0.811971 0.089637 0.000000 
0.856298 0.092906 0.000000 
0.894741 0.096212 0.000000 
0.927364 0.099328 0.000000 
0.956157 0.102182 0.000000 
0.979174 0.104601 0.000000 
0.000000 0.194820 0.021805 
0.004561 0.189710 0.000000 
0.085457 0.186422 0.000000 
0.193639 0.189514 0.000000 
0.282194 0.195123 0.000000 
0.374265 0.199650 0.000000 
0.470035 0.201637 0.000000 
0.560046 0.200799 0.000000 
0.638541 0.198274 0.000000 
0.706522 0.195535 0.000000 
0.767698 0.193449 0.000000 
0.821395 0.191998 0.000000 
0.866857 0.191081 0.000000 
0.906138 0.190683 0.000000 
0.939375 0.190625 0.000000 
0.968579 0.190830 0.000000 
0.991903 0.191091 0.000000 
0.000000 0.295081 0.019720 
0.007676 0.291219 0.000000 
0.092560 0.288780 0.000000 
0.206014 0.289255 0.000000 
0.295046 0.291117 0.000000 
0.381624 0.294494 0.000000 
0.473533 0.296848 0.000000 
0.564579 0.295249 0.000000 
0.646284 0.290581 0.002600 
0.717356 0.285116 0.013590 
0.780796 0.280272 0.023936 
0.836175 0.276150 0.032719 
0.882923 0.272738 0.039771 
0.923111 0.270128 0.044892 
0.956991 0.268168 0.048503 
0.986599 0.266791 0.050806 
1.000000 0.265759 0.052427 
0.000000 0.389990 0.017048 
0.010547 0.386912 0.000000 
0.097024 0.385028 0.000000 
0.211619 0.385017 0.000000 
0.302930 0.385460 0.000000 
0.390542 0.386877 0.000000 
0.481132 0.388200 0.000000 
0.573318 0.385778 0.001961 
0.659443 0.379030 0.013717 
0.735195 0.370688 0.033400 
0.801940 0.363044 0.054811 
0.859548 0.356428 0.074842 
0.907839 0.350857 0.092136 
0.948992 0.346464 0.105788 
0.983481 0.343048 0.116192 
1.000000 0.340519 0.123622 
1.000000 0.338560 0.129161 
0.000000 0.484127 0.014305 
0.013372 0.481640 0.000000 
0.099615 0.480190 0.000000 
0.213389 0.480182 0.000000 
0.305111 0.480377 0.000000 
0.393793 0.481088 0.000000 
0.485098 0.481652 0.000000 
0.579532 0.478691 0.000178 
0.672191 0.470136 0.011006 
0.756331 0.458283 0.036871 
0.829778 0.446674 0.071872 
0.891875 0.436513 0.108965 
0.943002 0.428058 0.143193 
0.985732 0.421476 0.167630 
1.000000 0.416417 0.184686 
1.000000 0.412698 0.196506 
1.000000 0.409835 0.205013 
0.000000 0.570499 0.010744 
0.017028 0.568508 0.000000 
0.099839 0.567482 0.000000 
0.210583 0.567740 0.000000 
0.300623 0.568256 0.000000 
0.387957 0.569300 0.000000 
0.477904 0.570394 0.002640 
0.572053 0.568555 0.000000 
0.669406 0.560527 0.000000 
0.764194 0.546595 0.017495 
0.849833 0.530468 0.056513 
0.922002 0.515048 0.108659 
0.980139 0.501867 0.161034 
1.000000 0.491609 0.197910 
1.000000 0.483853 0.224104 
1.000000 0.478254 0.242739 
1.000000 0.474038 0.256246 
0.000000 0.645176 0.006401 
0.021810 0.643608 0.000000 
0.098474 0.642986 0.000000 
0.204302 0.643606 0.000000 
0.291214 0.644624 0.000568 
0.375404 0.646352 0.009894 
0.461684 0.648536 0.015898 
0.551713 0.648789 0.010775 
0.647466 0.643687 0.000000 
0.747701 0.631453 0.000000 
0.846050 0.613579 0.020934 
0.933594 0.593158 0.071275 
1.000000 0.573692 0.139366 
1.000000 0.557658 0.195864 
1.000000 0.545326 0.235806 
1.000000 0.536409 0.264634 
1.000000 0.529809 0.285641 
0.000000 0.710148 0.001899 
0.027187 0.708929 0.000000 
0.096620 0.708654 0.000000 
0.196569 0.709611 0.000000 
0.279775 0.711096 0.009059 
0.360189 0.713465 0.023799 
0.441976 0.716651 0.036070 
0.526140 0.718838 0.034992 
0.615654 0.717111 0.018360 
0.713166 0.709038 0.000000 
0.816848 0.693777 0.000000 
0.918277 0.672071 0.022853 
1.000000 0.647409 0.082865 
1.000000 0.624447 0.161579 
1.000000 0.605521 0.221131 
1.000000 0.591319 0.264106 
1.000000 0.580765 0.295602 
0.005664 0.769346 0.000000 
0.032525 0.768405 0.000000 
0.094908 0.768404 0.000000 
0.188851 0.769625 0.000830 
0.268369 0.771465 0.017628 
0.345103 0.774308 0.038398 
0.422574 0.778209 0.058515 
0.500910 0.781781 0.065518 
0.582866 0.782723 0.052244 
0.672793 0.778875 0.024607 
0.772971 0.768540 0.000000 
0.879704 0.750100 0.000000 
0.983750 0.724482 0.023682 
1.000000 0.696203 0.092527 
1.000000 0.669846 0.178777 
1.000000 0.648433 0.241402 
1.000000 0.631948 0.287202 
0.015427 0.821779 0.000000 
0.037588 0.821060 0.000000 
0.093352 0.821274 0.000000 
0.181371 0.822705 0.004667 
0.257311 0.824821 0.025813 
0.330538 0.828021 0.052656 
0.403982 0.832441 0.081120 
0.476918 0.836987 0.098212 
0.551456 0.839851 0.093799 
0.632241 0.839365 0.068355 
0.723534 0.833976 0.031501 
0.825905 0.821216 0.000000 
0.935083 0.799517 0.000000 
1.000000 0.770662 0.023528 
1.000000 0.738986 0.100052 
1.000000 0.709827 0.191994 
1.000000 0.685613 0.257404 
0.024329 0.866460 0.000000 
0.042195 0.865915 0.000000 
0.091959 0.866300 0.000000 
0.174331 0.867898 0.008133 
0.246895 0.870232 0.033309 
0.316853 0.873710 0.065883 
0.386602 0.878519 0.102451 
0.454656 0.883764 0.130116 
0.522421 0.887987 0.137393 
0.594258 0.889944 0.121035 
0.674940 0.888508 0.085506 
0.767106 0.881387 0.038773 
0.870995 0.866089 0.000000 
0.982583 0.841783 0.000000 
1.000000 0.809965 0.022735 
1.000000 0.775617 0.105804 
1.000000 0.743467 0.201855 
0.032012 0.905338 0.000000 
0.046182 0.904926 0.000000 
0.090811 0.905442 0.000000 
0.168110 0.907164 0.011073 
0.237663 0.909657 0.039740 
0.304742 0.913334 0.077350 
0.371282 0.918411 0.121196 
0.435142 0.924131 0.156625 
0.497081 0.929274 0.171931 
0.561022 0.932906 0.169102 
0.631603 0.934286 0.147644 
0.711973 0.931592 0.101919 
0.804629 0.922480 0.045053 
0.910184 0.905115 0.000000 
1.000000 0.878341 0.000000 
1.000000 0.844198 0.021688 
1.000000 0.806956 0.109941 
0.038466 0.938400 0.000000 
0.049538 0.938091 0.000000 
0.089877 0.938706 0.000000 
0.162747 0.940520 0.013512 
0.229682 0.943130 0.045115 
0.294279 0.946948 0.086999 
0.358080 0.952212 0.137215 
0.418384 0.958258 0.175973 
0.475397 0.964030 0.197155 
0.532606 0.968806 0.203270 
0.594320 0.972127 0.195215 
0.663495 0.972603 0.169071 
0.743264 0.968350 0.116591 
0.836633 0.957635 0.051121 
0.943481 0.938291 0.000000 
1.000000 0.909647 0.000000 
1.000000 0.872949 0.020110 
0.043715 0.967594 0.000000 
0.052283 0.967363 0.000000 
0.089162 0.968049 0.000000 
0.158324 0.969925 0.015454 
0.223070 0.972612 0.049428 
0.285617 0.976520 0.094792 
0.347180 0.981897 0.149124 
0.404590 0.988145 0.190338 
0.457583 0.994327 0.215887 
0.509267 0.999862 0.228407 
0.563597 1.000000 0.229381 
0.623112 1.000000 0.216432 
0.690830 1.000000 0.185661 
0.770507 1.000000 0.129788 
0.864458 0.988422 0.056140 
0.972836 0.967571 0.000000 
1.000000 0.936718 0.000000 
0.047954 0.990953 0.000000 
0.054497 0.990782 0.000000 
0.088581 0.991522 0.000000 
0.154653 0.993445 0.017020 
0.217573 0.996190 0.052911 
0.278413 1.000000 0.101098 
0.338115 1.000000 0.158085 
0.393125 1.000000 0.201218 
0.442791 1.000000 0.230047 
0.489898 1.000000 0.247304 
0.538087 1.000000 0.254829 
0.589449 1.000000 0.251016 
0.646629 1.000000 0.233477 
0.713363 1.000000 0.199594 
0.792723 1.000000 0.141661 
0.887357 1.000000 0.061618 
0.996319 0.990996 0.000000 
0.010284 0.000000 0.058135 
0.029298 0.000000 0.046864 
0.066385 0.000000 0.059104 
0.170310 0.004450 0.101040 
0.277653 0.002863 0.132246 
0.382059 0.000000 0.144844 
0.483857 0.000000 0.142383 
0.574419 0.000000 0.126451 
0.649685 0.000000 0.103037 
0.712635 0.000000 0.078623 
0.768387 0.003127 0.056612 
0.816712 0.015695 0.037331 
0.857158 0.029425 0.020780 
0.892087 0.043010 0.007103 
0.921671 0.055653 0.000000 
0.947954 0.066881 0.000000 
0.968923 0.076461 0.000000 
0.000000 0.009766 0.066182 
0.002563 0.000000 0.061529 
0.063595 0.000000 0.061563 
0.181421 0.001866 0.082254 
0.287609 0.000177 0.091280 
0.387032 0.000000 0.092997 
0.484001 0.000000 0.089765 
0.571389 0.000000 0.080621 
0.645223 0.000000 0.066929 
0.707939 0.005146 0.051595 
0.764081 0.014521 0.036799 
0.813060 0.025716 0.022987 
0.854212 0.037794 0.010478 
0.889784 0.049771 0.000000 
0.919908 0.060977 0.000000 
0.946621 0.071011 0.000000 
0.967927 0.079612 0.000000 
0.000269 0.062583 0.060893 
0.000080 0.062529 0.061982 
0.062501 0.062501 0.062501 
0.190433 0.062501 0.062496 
0.291997 0.062500 0.062507 
0.387714 0.062478 0.062607 
0.482401 0.062555 0.062317 
0.568892 0.063447 0.060008 
0.642969 0.066072 0.054766 
0.706585 0.070774 0.047212 
0.763858 0.077334 0.038513 
0.813984 0.085413 0.029312 
0.856184 0.094409 0.020212 
0.892631 0.103613 0.011828 
0.923454 0.112448 0.004426 
0.950696 0.120544 0.000000 
0.972407 0.127587 0.000000 
0.000000 0.194456 0.103087 
0.000000 0.192354 0.078513 
0.062509 0.190431 0.062496 
0.190439 0.190431 0.062499 
0.291799 0.190536 0.062377 
0.387385 0.190680 0.061942 
0.482512 0.190347 0.062721 
0.570232 0.189314 0.065328 
0.645997 0.188323 0.067541 
0.711373 0.188184 0.067530 
0.770229 0.189240 0.064997 
0.821763 0.191384 0.060626 
0.865182 0.194333 0.055192 
0.902607 0.197748 0.049354 
0.934193 0.201265 0.043672 
0.961990 0.204651 0.038464 
0.984122 0.207663 0.033978 
0.000000 0.296421 0.107653 
0.000000 0.293786 0.078443 
0.062492 0.291998 0.062507 
0.190630 0.291965 0.062386 
0.291992 0.291998 0.062502 
0.387066 0.292265 0.062336 
0.483112 0.291605 0.063191 
0.573793 0.288776 0.070090 
0.652831 0.284875 0.081248 
0.720889 0.281327 0.091695 
0.781710 0.278831 0.098628 
0.834811 0.277306 0.102230 
0.879533 0.276624 0.103209 
0.917965 0.276683 0.102119 
0.950324 0.277237 0.099846 
0.978661 0.278114 0.096903 
1.000000 0.279060 0.094014 
0.000000 0.391712 0.105154 
0.000000 0.389236 0.077293 
0.062359 0.387712 0.062582 
0.190863 0.387652 0.062227 
0.292511 0.387601 0.062167 
0.387657 0.387714 0.062517 
0.484480 0.386904 0.062761 
0.579801 0.382513 0.069939 
0.665096 0.375382 0.088915 
0.738019 0.368251 0.113013 
0.801795 0.362577 0.134949 
0.856806 0.358216 0.150816 
0.902902 0.354958 0.161328 
0.942262 0.352762 0.167650 
0.975271 0.351365 0.171159 
1.000000 0.350617 0.172618 
1.000000 0.350213 0.173113 
0.000000 0.485825 0.100354 
0.000000 0.483660 0.075278 
0.062738 0.482416 0.062378 
0.190323 0.482439 0.062570 
0.291348 0.482525 0.063001 
0.385910 0.482812 0.063723 
0.482483 0.482414 0.062480 
0.581587 0.477918 0.062954 
0.676386 0.468086 0.079159 
0.759340 0.456317 0.112965 
0.829914 0.446095 0.152063 
0.888951 0.437981 0.182035 
0.937421 0.431738 0.203667 
0.978047 0.427238 0.218627 
1.000000 0.424041 0.228786 
1.000000 0.421917 0.235344 
1.000000 0.420417 0.239711 
0.000000 0.571920 0.092483 
0.000000 0.570109 0.070953 
0.065617 0.569195 0.061000 
0.188676 0.569472 0.063588 
0.286797 0.569968 0.066746 
0.378624 0.570893 0.070172 
0.472150 0.571684 0.069714 
0.569889 0.569187 0.062277 
0.670551 0.560107 0.061690 
0.766679 0.545390 0.085037 
0.850996 0.529587 0.132241 
0.920308 0.515628 0.180976 
0.975364 0.504495 0.218149 
1.000000 0.496346 0.245358 
1.000000 0.490506 0.264884 
1.000000 0.486532 0.278530 
1.000000 0.483673 0.288164 
0.000000 0.646180 0.082300 
0.000000 0.644715 0.064519 
0.071905 0.644146 0.058220 
0.186971 0.644758 0.064587 
0.280055 0.645755 0.072429 
0.367464 0.647435 0.081362 
0.455951 0.649541 0.086136 
0.547928 0.649639 0.077786 
0.645897 0.644147 0.061917 
0.748203 0.631277 0.059493 
0.847165 0.613023 0.087392 
0.933248 0.593123 0.144710 
1.000000 0.575138 0.200637 
1.000000 0.561065 0.243842 
1.000000 0.550715 0.276140 
1.000000 0.543546 0.299650 
1.000000 0.538413 0.316672 
0.000000 0.710702 0.071633 
0.011447 0.709543 0.057277 
0.080632 0.709286 0.054597 
0.186057 0.710216 0.065081 
0.273023 0.711664 0.078301 
0.355375 0.713985 0.094137 
0.438337 0.717134 0.107156 
0.523275 0.719314 0.104998 
0.613599 0.717559 0.084953 
0.712225 0.709315 0.061491 
0.816920 0.693762 0.057293 
0.918289 0.672019 0.088245 
1.000000 0.648062 0.153227 
1.000000 0.626577 0.214883 
1.000000 0.609511 0.263148 
1.000000 0.597142 0.299631 
1.000000 0.588198 0.326654 
0.001612 0.769488 0.061786 
0.027964 0.768582 0.050299 
0.090327 0.768581 0.050776 
0.186071 0.769765 0.065030 
0.266811 0.771556 0.083365 
0.344203 0.774340 0.106144 
0.422004 0.778193 0.128359 
0.500370 0.781765 0.136373 
0.582220 0.782767 0.121550 
0.672169 0.778984 0.090556 
0.772604 0.768650 0.061074 
0.879504 0.750187 0.054563 
0.982918 0.724810 0.088100 
1.000000 0.697387 0.159773 
1.000000 0.672505 0.226463 
1.000000 0.652848 0.279026 
1.000000 0.638069 0.319113 
0.022527 0.821560 0.052888 
0.044353 0.820861 0.043797 
0.100250 0.821067 0.047009 
0.186685 0.822455 0.064647 
0.261354 0.824516 0.087685 
0.333954 0.827649 0.117044 
0.406942 0.832004 0.147666 
0.479357 0.836525 0.163892 
0.553251 0.839434 0.160730 
0.633361 0.839054 0.136914 
0.724087 0.833801 0.096911 
0.826041 0.821178 0.060682 
0.934709 0.799669 0.051295 
1.000000 0.771278 0.087069 
1.000000 0.740585 0.164458 
1.000000 0.712895 0.235574 
1.000000 0.690353 0.291710 
0.042128 0.865934 0.045036 
0.059771 0.865400 0.037934 
0.109768 0.865772 0.043488 
0.187611 0.867326 0.064103 
0.256605 0.869603 0.091338 
0.324694 0.873009 0.126675 
0.393234 0.877742 0.162976 
0.460303 0.882938 0.185815 
0.527079 0.887169 0.191951 
0.597865 0.889200 0.180838 
0.677472 0.887903 0.151911 
0.768617 0.880977 0.103746 
0.871559 0.865926 0.060328 
0.982092 0.841978 0.048320 
1.000000 0.810801 0.085519 
1.000000 0.777540 0.167790 
1.000000 0.746861 0.242410 
0.059361 0.904563 0.038428 
0.073381 0.904159 0.032929 
0.118306 0.904659 0.040401 
0.188673 0.906339 0.063494 
0.252694 0.908775 0.094265 
0.316781 0.912378 0.134897 
0.381424 0.917373 0.174905 
0.443897 0.923027 0.202905 
0.504609 0.928147 0.216239 
0.567309 0.931811 0.214903 
0.636584 0.933285 0.198948 
0.715597 0.930756 0.164960 
0.806894 0.921884 0.109593 
0.911092 0.904850 0.060025 
1.000000 0.878564 0.045233 
1.000000 0.845199 0.083843 
1.000000 0.809125 0.169968 
0.074032 0.937430 0.032977 
0.085002 0.937126 0.028758 
0.125676 0.937724 0.037782 
0.189717 0.939497 0.062903 
0.249509 0.942051 0.096591 
0.310141 0.945797 0.141188 
0.371433 0.950977 0.184185 
0.430002 0.956947 0.216196 
0.485608 0.962676 0.235090 
0.541483 0.967450 0.241301 
0.601812 0.970818 0.235365 
0.669513 0.971403 0.214647 
0.747725 0.967335 0.175740 
0.839481 0.956894 0.115326 
0.944660 0.937946 0.059774 
1.000000 0.909888 0.042722 
1.000000 0.874072 0.081711 
0.086077 0.966477 0.028619 
0.094575 0.966249 0.025399 
0.132022 0.966918 0.035640 
0.190685 0.968755 0.062359 
0.247020 0.971388 0.098363 
0.304793 0.975226 0.145942 
0.363326 0.980519 0.191254 
0.418708 0.986687 0.226355 
0.470160 0.992812 0.249514 
0.520467 0.998321 0.261507 
0.573416 1.000000 0.263271 
0.631469 1.000000 0.252757 
0.697609 1.000000 0.227380 
0.775590 0.999615 0.184880 
0.867744 0.987573 0.120036 
0.974223 0.967165 0.059572 
1.000000 0.936970 0.039549 
0.095874 0.989722 0.025128 
0.102369 0.989552 0.022693 
0.136945 0.990276 0.033902 
