luts/-UTILITY/LOG_to_Rec709/Canon_LOG_CinGamut_Rec709_WDR.cube
# Gamut : Cinema Gamut to BT.709
# Gamma : Canon Log to Wide DR
# Version : 1.0
# Created by Canon Inc. CD_v3
LUT_3D_SIZE 17
0.000000 0.000000 0.000000 
0.000026 0.000000 0.000000 
0.079094 0.000000 0.001118 
0.205855 0.000250 0.000000 
0.308167 0.000559 0.000000 
0.406168 0.000132 0.000000 
0.503822 0.000000 0.003597 
0.590229 0.000000 0.008980 
0.665139 0.000000 0.019096 
0.729854 0.000000 0.033238 
0.780760 0.006742 0.054952 
0.824517 0.028806 0.079378 
0.862020 0.053511 0.104689 
0.893467 0.081573 0.130107 
0.921932 0.107002 0.152209 
0.937934 0.118880 0.162850 
0.953253 0.127870 0.170299 
0.000000 0.000004 0.000000 
0.000008 0.000001 0.000000 
0.089813 0.012511 0.000000 
0.241817 0.019345 0.000000 
0.367111 0.021417 0.000000 
0.466008 0.019160 0.000000 
0.545055 0.012055 0.000000 
0.616054 0.004311 0.000000 
0.682356 0.000000 0.005973 
0.741875 0.000000 0.026856 
0.787614 0.009481 0.055748 
0.828406 0.032220 0.082557 
0.864213 0.056603 0.107199 
0.895071 0.083799 0.132245 
0.921935 0.107809 0.152627 
0.938021 0.119269 0.163041 
0.953342 0.127972 0.170376 
0.000000 0.079695 0.001970 
0.026333 0.090392 0.000000 
0.088434 0.081216 0.000000 
0.187973 0.092836 0.000000 
0.306895 0.090827 0.000000 
0.424948 0.069604 0.000000 
0.539751 0.054141 0.000000 
0.635592 0.038268 0.000000 
0.697222 0.020051 0.000000 
0.754120 0.004332 0.000000 
0.800318 0.006579 0.024390 
0.836130 0.031773 0.062473 
0.868615 0.057500 0.098451 
0.896592 0.086713 0.134501 
0.922913 0.108950 0.153542 
0.939084 0.120024 0.163625 
0.954431 0.128398 0.170855 
0.000714 0.207909 0.000000 
0.027510 0.219845 0.000000 
0.110197 0.205734 0.000000 
0.217828 0.207004 0.000000 
0.302169 0.213967 0.000000 
0.403900 0.214554 0.000000 
0.513707 0.199402 0.000000 
0.608130 0.150756 0.000000 
0.689209 0.065340 0.000000 
0.761307 0.037231 0.000000 
0.812333 0.013470 0.000000 
0.846648 0.025599 0.024257 
0.874073 0.056463 0.070028 
0.900152 0.086578 0.112154 
0.923659 0.110329 0.146542 
0.939276 0.120784 0.163922 
0.955611 0.128933 0.171370 
0.008175 0.310755 0.000000 
0.013349 0.319087 0.000000 
0.097422 0.312854 0.000000 
0.228124 0.308737 0.000000 
0.320655 0.309552 0.000000 
0.408399 0.312249 0.000000 
0.507583 0.308716 0.000000 
0.603332 0.288604 0.000000 
0.684942 0.244852 0.000000 
0.752285 0.162459 0.000000 
0.813432 0.054381 0.000000 
0.860263 0.022330 0.000000 
0.883299 0.049621 0.028325 
0.904096 0.084758 0.080413 
0.923921 0.112588 0.124361 
0.940190 0.124968 0.152610 
0.956021 0.130484 0.169604 
0.015287 0.407125 0.000000 
0.014634 0.414026 0.000000 
0.077451 0.414462 0.000000 
0.214510 0.409149 0.000000 
0.322060 0.407212 0.000000 
0.417026 0.406602 0.000000 
0.512651 0.405105 0.000000 
0.608813 0.392956 0.000000 
0.695881 0.367481 0.002982 
0.766718 0.324507 0.005321 
0.818426 0.250202 0.000000 
0.851881 0.069660 0.000000 
0.898996 0.030135 0.000000 
0.912465 0.074871 0.034772 
0.925659 0.111538 0.091266 
0.939208 0.129458 0.130141 
0.954949 0.137308 0.157123 
0.019197 0.503811 0.000000 
0.018681 0.508734 0.000000 
0.042313 0.514275 0.000000 
0.173102 0.508130 0.000000 
0.302128 0.506349 0.000000 
0.409036 0.504864 0.000000 
0.512510 0.503635 0.000000 
0.613971 0.494336 0.000967 
0.711545 0.474623 0.015772 
0.793688 0.443623 0.043060 
0.854399 0.399078 0.063535 
0.889577 0.327295 0.043716 
0.899326 0.161151 0.000000 
0.931360 0.036869 0.000000 
0.932764 0.098614 0.041588 
0.940675 0.130647 0.098169 
0.954840 0.144224 0.137884 
0.017057 0.588069 0.000000 
0.016714 0.591020 0.000000 
0.016279 0.594952 0.000000 
0.092000 0.594303 0.000000 
0.254751 0.592739 0.000000 
0.375754 0.592270 0.000000 
0.487165 0.592703 0.000000 
0.595514 0.587909 0.000000 
0.704303 0.573487 0.000865 
0.806595 0.547839 0.029152 
0.891590 0.514344 0.082209 
0.946577 0.469478 0.133044 
0.965788 0.400122 0.126725 
0.949029 0.246234 0.009932 
0.956236 0.042640 0.000000 
0.947539 0.118607 0.047299 
0.955376 0.148429 0.104620 
0.011780 0.661632 0.000000 
0.011546 0.663596 0.000000 
0.011300 0.665561 0.000000 
0.019631 0.669129 0.000000 
0.167942 0.666754 0.000000 
0.321644 0.666762 0.000000 
0.442408 0.669318 0.006346 
0.555683 0.669659 0.010281 
0.667744 0.661166 0.000000 
0.782387 0.641756 0.000000 
0.890124 0.611130 0.038154 
0.977251 0.573353 0.112602 
1.000000 0.528650 0.183862 
1.000000 0.467417 0.204056 
0.997825 0.315964 0.076616 
0.976690 0.046965 0.000000 
0.957745 0.222842 0.119153 
0.005101 0.726384 0.000000 
0.004958 0.727366 0.000000 
0.004693 0.729329 0.000000 
0.004433 0.731293 0.000000 
0.049796 0.733523 0.000000 
0.237613 0.732181 0.000000 
0.382928 0.735541 0.014591 
0.502531 0.738984 0.035608 
0.614823 0.736826 0.021179 
0.731807 0.726018 0.000000 
0.851570 0.702039 0.000000 
0.965152 0.667315 0.045004 
1.000000 0.625919 0.138830 
1.000000 0.579173 0.218410 
1.000000 0.514042 0.245565 
1.000000 0.374164 0.152136 
1.000000 0.425055 0.293881 
0.000000 0.784293 0.001192 
0.000000 0.785275 0.001254 
0.000000 0.786257 0.001314 
0.000000 0.787238 0.001375 
0.000000 0.789201 0.001490 
0.078618 0.789330 0.000000 
0.297209 0.791926 0.008192 
0.439555 0.798318 0.056438 
0.554789 0.802047 0.061858 
0.668109 0.797760 0.031543 
0.788882 0.783796 0.000000 
0.913996 0.756184 0.000000 
1.000000 0.716851 0.049927 
1.000000 0.671288 0.157997 
1.000000 0.614437 0.238136 
1.000000 0.549444 0.273241 
1.000000 0.534633 0.356997 
0.003845 0.834852 0.011162 
0.004843 0.834820 0.011738 
0.006708 0.835738 0.012943 
0.009565 0.836625 0.014721 
0.013417 0.837481 0.017065 
0.019138 0.839256 0.020585 
0.128303 0.839533 0.000000 
0.352387 0.846354 0.050522 
0.488709 0.854750 0.101066 
0.600087 0.857236 0.087999 
0.714583 0.850953 0.042362 
0.838282 0.833720 0.000000 
0.968452 0.803253 0.000000 
1.000000 0.760142 0.053244 
1.000000 0.700854 0.168562 
1.000000 0.642637 0.252576 
1.000000 0.594603 0.320124 
0.047260 0.877519 0.043043 
0.049202 0.877462 0.044164 
0.051136 0.877405 0.045287 
0.053904 0.878302 0.047027 
0.057633 0.879171 0.049323 
0.064256 0.879956 0.053275 
0.071588 0.880721 0.057853 
0.194773 0.883651 0.000000 
0.404147 0.895683 0.107573 
0.530079 0.904075 0.143142 
0.639276 0.905434 0.113410 
0.755306 0.897800 0.052116 
0.881867 0.877772 0.000000 
1.000000 0.843751 0.000000 
1.000000 0.785993 0.054894 
1.000000 0.725263 0.176795 
1.000000 0.666428 0.264264 
0.109583 0.912956 0.084890 
0.110310 0.912936 0.085319 
0.112182 0.912884 0.086429 
0.114939 0.913788 0.088184 
0.117884 0.913706 0.089903 
0.122761 0.914553 0.092935 
0.129740 0.915341 0.097393 
0.091353 0.917375 0.061623 
0.250600 0.923861 0.034774 
0.448137 0.938754 0.163772 
0.565836 0.947524 0.176894 
0.673274 0.947557 0.137731 
0.790161 0.937859 0.061949 
0.914825 0.911047 0.000000 
1.000000 0.865067 0.000000 
1.000000 0.806534 0.056223 
1.000000 0.747151 0.181018 
0.181413 0.942169 0.139168 
0.181334 0.943155 0.139248 
0.183323 0.943082 0.140857 
0.184319 0.943044 0.141658 
0.187291 0.942932 0.144058 
0.190135 0.943807 0.146549 
0.193937 0.943659 0.149789 
0.198673 0.943470 0.153806 
0.127749 0.946765 0.075465 
0.300269 0.956313 0.082916 
0.481291 0.972241 0.199980 
0.591298 0.977978 0.198639 
0.693658 0.973421 0.152588 
0.806975 0.959122 0.068223 
0.933355 0.929895 0.000000 
1.000000 0.883499 0.000000 
1.000000 0.826726 0.054500 
0.213871 0.956607 0.166934 
0.213862 0.956608 0.166939 
0.214802 0.956567 0.167718 
0.215732 0.956527 0.168501 
0.217603 0.956446 0.170057 
0.219473 0.956364 0.171608 
0.222277 0.956240 0.173923 
0.225979 0.957058 0.177053 
0.230671 0.956844 0.180845 
0.137475 0.961217 0.073788 
0.331555 0.975242 0.120196 
0.499689 0.991478 0.217775 
0.606141 0.995987 0.211375 
0.709785 0.991242 0.160623 
0.823017 0.975745 0.071396 
0.950677 0.947263 0.000000 
1.000000 0.901282 0.000000 
0.242341 0.968111 0.191393 
0.242338 0.968111 0.191394 
0.242338 0.968111 0.191394 
0.242335 0.968111 0.191396 
0.243253 0.968067 0.192147 
0.243247 0.968068 0.192151 
0.243242 0.968068 0.192153 
0.244127 0.969010 0.192967 
0.245033 0.968966 0.193723 
0.245934 0.968923 0.194480 
0.144165 0.974759 0.071257 
0.363897 0.992939 0.160531 
0.517924 1.000000 0.233423 
0.622031 1.000000 0.221031 
0.723297 1.000000 0.168394 
0.837175 0.991343 0.074723 
0.965121 0.961972 0.000000 
0.001840 0.000000 0.014012 
0.000018 0.000000 0.000000 
0.043096 0.000345 0.019221 
0.179550 0.000000 0.050437 
0.295653 0.000000 0.068412 
0.402488 0.000000 0.078126 
0.504632 0.000000 0.084626 
0.592237 0.000000 0.085286 
0.663872 0.000000 0.081716 
0.725347 0.000000 0.077599 
0.778574 0.010392 0.075655 
0.824621 0.028474 0.079199 
0.862017 0.053520 0.104673 
0.893528 0.081210 0.129896 
0.921933 0.107002 0.152210 
0.937935 0.118876 0.162857 
0.953255 0.127865 0.170306 
0.000000 0.000006 0.000000 
0.000000 0.000000 0.000000 
0.159393 0.000000 0.008139 
0.290243 0.000000 0.023226 
0.371144 0.000000 0.029066 
0.456425 0.000000 0.037230 
0.541791 0.000000 0.044673 
0.615165 0.000000 0.050805 
0.678365 0.000000 0.055448 
0.735930 0.000000 0.059628 
0.785420 0.013071 0.065756 
0.827399 0.032284 0.082315 
0.864214 0.056599 0.107207 
0.895130 0.083436 0.132050 
0.921936 0.107808 0.152629 
0.938022 0.119263 0.163049 
0.953342 0.127973 0.170374 
0.000000 0.075505 0.018632 
0.000000 0.094515 0.005991 
0.074683 0.079606 0.000000 
0.224441 0.072310 0.000000 
0.368560 0.033139 0.000000 
0.497007 0.025310 0.000000 
0.572022 0.015096 0.000000 
0.636603 0.008421 0.000000 
0.697179 0.002461 0.000000 
0.754382 0.000000 0.004941 
0.800314 0.006589 0.024375 
0.836128 0.031782 0.062460 
0.868612 0.057509 0.098436 
0.896594 0.086709 0.134508 
0.922912 0.108951 0.153540 
0.939084 0.120026 0.163621 
0.954429 0.128407 0.170842 
0.000000 0.207927 0.019527 
0.000000 0.218280 0.007142 
0.063674 0.213459 0.000000 
0.208033 0.207992 0.000000 
0.308731 0.208547 0.000000 
0.421616 0.201446 0.000000 
0.531423 0.174621 0.000000 
0.618316 0.118452 0.000000 
0.693518 0.060574 0.000000 
0.761293 0.037266 0.000000 
0.812328 0.013484 0.000000 
0.846646 0.025605 0.024250 
0.874184 0.056072 0.069811 
0.900151 0.086582 0.112148 
0.923658 0.110333 0.146537 
0.939276 0.120784 0.163921 
0.955613 0.128928 0.171377 
0.000000 0.309987 0.002469 
0.001805 0.318198 0.000000 
0.085194 0.314096 0.000000 
0.222565 0.308986 0.000000 
0.319502 0.309337 0.000000 
0.407656 0.311604 0.000000 
0.506414 0.307872 0.000000 
0.602903 0.288023 0.000000 
0.684950 0.244843 0.000000 
0.751362 0.162295 0.000000 
0.813423 0.054404 0.000000 
0.860256 0.022352 0.000000 
0.883423 0.049223 0.028125 
0.904097 0.084756 0.080416 
0.923920 0.112592 0.124355 
0.940188 0.124977 0.152597 
0.956020 0.130485 0.169603 
0.015309 0.407123 0.000000 
0.014697 0.413043 0.000000 
0.077362 0.414469 0.000000 
0.214462 0.409155 0.000000 
0.321446 0.406346 0.000000 
0.416799 0.406386 0.000000 
0.512639 0.405109 0.000000 
0.608822 0.392952 0.000000 
0.695890 0.367475 0.002992 
0.766729 0.324497 0.005342 
0.818438 0.250187 0.000000 
0.851890 0.069635 0.000000 
0.898991 0.030150 0.000000 
0.912464 0.074876 0.034767 
0.925656 0.111546 0.091254 
0.939207 0.129459 0.130138 
0.954949 0.137309 0.157121 
0.019205 0.503811 0.000000 
0.018772 0.507751 0.000000 
0.042330 0.513293 0.000000 
0.173044 0.508135 0.000000 
0.301842 0.506273 0.000000 
0.409008 0.504870 0.000000 
0.512281 0.503419 0.000000 
0.613980 0.494332 0.000968 
0.710740 0.474008 0.015395 
0.793698 0.443616 0.043074 
0.853822 0.398470 0.062623 
0.889583 0.327289 0.043732 
0.899332 0.161137 0.000000 
0.931356 0.036880 0.000000 
0.932763 0.098618 0.041582 
0.940674 0.130651 0.098164 
0.954839 0.144229 0.137876 
0.017062 0.588069 0.000000 
0.016730 0.591019 0.000000 
0.016285 0.594952 0.000000 
0.091947 0.594305 0.000000 
0.254727 0.592741 0.000000 
0.375737 0.592273 0.000000 
0.486561 0.591860 0.000000 
0.595496 0.587914 0.000000 
0.703481 0.572799 0.000904 
0.806586 0.547843 0.029146 
0.891606 0.514334 0.082233 
0.946581 0.469475 0.133052 
0.965793 0.400117 0.126741 
0.949033 0.246227 0.009944 
0.956234 0.042647 0.000000 
0.947538 0.118609 0.047296 
0.955375 0.148433 0.104614 
0.011793 0.661631 0.000000 
0.011655 0.662614 0.000000 
0.011295 0.665561 0.000000 
0.019636 0.669129 0.000000 
0.167905 0.666756 0.000000 
0.321616 0.666765 0.000000 
0.442398 0.669320 0.006354 
0.554832 0.668652 0.010188 
0.667744 0.661166 0.000000 
0.782390 0.641755 0.000000 
0.890128 0.611128 0.038157 
0.977266 0.573345 0.112625 
1.000000 0.528644 0.183877 
1.000000 0.467413 0.204066 
0.997828 0.315961 0.076625 
0.975699 0.046960 0.000000 
0.957689 0.222404 0.118687 
0.005107 0.726384 0.000000 
0.004966 0.727366 0.000000 
0.004694 0.729329 0.000000 
0.004422 0.731293 0.000000 
0.049811 0.732543 0.000000 
0.237588 0.732183 0.000000 
0.382919 0.735542 0.014600 
0.502526 0.738985 0.035613 
0.614821 0.736826 0.021181 
0.731786 0.726024 0.000000 
0.851571 0.702038 0.000000 
0.965154 0.667314 0.045006 
1.000000 0.625918 0.138833 
1.000000 0.579172 0.218412 
1.000000 0.514039 0.245572 
1.000000 0.374163 0.152141 
1.000000 0.424376 0.293143 
0.000000 0.784294 0.001194 
0.000000 0.785275 0.001256 
0.000000 0.786257 0.001316 
0.000000 0.787239 0.001378 
0.000000 0.789200 0.001483 
0.078577 0.789332 0.000000 
0.297192 0.791928 0.008205 
0.439550 0.798319 0.056443 
0.554786 0.802047 0.061861 
0.668108 0.797760 0.031544 
0.788882 0.783796 0.000000 
0.913997 0.756184 0.000000 
1.000000 0.716850 0.049928 
1.000000 0.671295 0.157979 
1.000000 0.614437 0.238137 
1.000000 0.549441 0.273248 
1.000000 0.534635 0.356994 
0.002847 0.834884 0.010584 
0.004844 0.834820 0.011738 
0.006696 0.835739 0.012948 
0.009552 0.836626 0.014726 
0.013426 0.837481 0.017061 
0.018159 0.839287 0.020011 
0.128266 0.839534 0.000000 
0.352383 0.846354 0.050525 
0.488707 0.854750 0.101069 
0.600071 0.857238 0.088017 
0.714601 0.850949 0.042346 
0.838260 0.833727 0.000000 
0.968453 0.803253 0.000000 
1.000000 0.760142 0.053244 
1.000000 0.700854 0.168562 
1.000000 0.642625 0.252600 
1.000000 0.594445 0.319759 
0.047262 0.877519 0.043042 
0.049198 0.877462 0.044166 
0.051132 0.877405 0.045288 
0.053888 0.878303 0.047034 
0.057637 0.879171 0.049321 
0.063303 0.879984 0.052716 
0.071591 0.880721 0.057852 
0.194757 0.883651 0.000000 
0.404145 0.895683 0.107575 
0.530078 0.904075 0.143143 
0.639275 0.905434 0.113411 
0.755306 0.897800 0.052117 
0.881867 0.877772 0.000000 
1.000000 0.843751 0.000000 
1.000000 0.785993 0.054894 
1.000000 0.725254 0.176815 
1.000000 0.666428 0.264264 
0.109583 0.912956 0.084890 
0.110304 0.912936 0.085322 
0.112192 0.912883 0.086425 
0.114932 0.913788 0.088187 
0.117877 0.913707 0.089906 
0.122770 0.914552 0.092932 
0.129734 0.915341 0.097395 
0.090406 0.917401 0.061067 
0.250589 0.923861 0.034782 
0.448136 0.938754 0.163774 
0.565824 0.947525 0.176906 
0.673274 0.947557 0.137731 
0.790161 0.937859 0.061949 
0.914850 0.911040 0.000000 
1.000000 0.865067 0.000000 
1.000000 0.806534 0.056223 
1.000000 0.747160 0.180998 
0.180413 0.942206 0.138363 
0.181331 0.943155 0.139249 
0.183320 0.943082 0.140858 
0.184311 0.943045 0.141663 
0.187285 0.942933 0.144061 
0.190132 0.943807 0.146550 
0.193934 0.943659 0.149790 
0.198676 0.943470 0.153805 
0.127745 0.946766 0.075467 
0.300268 0.956313 0.082917 
0.481290 0.972241 0.199980 
0.591286 0.977980 0.198650 
0.693674 0.973418 0.152570 
0.806954 0.959127 0.068243 
0.933381 0.929887 0.000000 
1.000000 0.883508 0.000000 
1.000000 0.826726 0.054500 
0.213874 0.956607 0.166932 
0.213866 0.956608 0.166937 
0.214802 0.956567 0.167718 
0.215729 0.956528 0.168503 
0.217607 0.956446 0.170055 
0.219471 0.956364 0.171608 
0.222276 0.956240 0.173923 
0.225978 0.957058 0.177053 
0.230674 0.956843 0.180843 
0.137474 0.961217 0.073789 
0.331554 0.975242 0.120197 
0.499689 0.991478 0.217776 
0.606152 0.995985 0.211365 
0.709769 0.991245 0.160641 
0.823017 0.975745 0.071397 
0.950677 0.947263 0.000000 
1.000000 0.901272 0.000000 
0.242341 0.968111 0.191393 
0.242343 0.968111 0.191391 
0.242343 0.968111 0.191392 
0.242340 0.968111 0.191393 
0.243253 0.968067 0.192147 
0.243252 0.968067 0.192148 
0.243247 0.968068 0.192151 
0.244123 0.969010 0.192969 
0.245030 0.968967 0.193725 
0.245935 0.968923 0.194479 
0.144168 0.974759 0.071255 
0.363896 0.992939 0.160532 
0.517918 1.000000 0.233428 
0.622020 1.000000 0.221041 
0.723298 1.000000 0.168393 
0.837198 0.991338 0.074701 
0.965121 0.961972 0.000000 
0.041192 0.000000 0.121183 
0.000015 0.000000 0.000000 
0.022801 0.001304 0.017828 
0.143622 0.003822 0.078960 
0.266165 0.003128 0.128012 
0.376401 0.000181 0.163065 
0.484288 0.000000 0.183645 
0.578496 0.000000 0.190133 
0.655323 0.000000 0.186560 
0.720952 0.002847 0.179096 
0.775892 0.016223 0.169862 
0.822682 0.034679 0.159918 
0.862000 0.056715 0.150720 
0.894276 0.081763 0.143446 
0.921932 0.107003 0.152207 
0.937935 0.118877 0.162856 
0.953254 0.127868 0.170302 
0.000000 0.004783 0.029464 
0.011828 0.000000 0.123373 
0.150450 0.000438 0.125156 
0.252517 0.003791 0.134826 
0.344413 0.001075 0.147381 
0.435086 0.000000 0.159477 
0.525197 0.000000 0.169963 
0.603705 0.000000 0.173414 
0.670495 0.000000 0.171846 
0.730725 0.006224 0.169125 
0.782718 0.019731 0.165900 
0.826746 0.037681 0.157274 
0.864172 0.059369 0.147384 
0.895576 0.083777 0.139833 
0.921937 0.107805 0.152634 
0.938022 0.119263 0.163049 
0.953343 0.127969 0.170379 
0.000000 0.058750 0.052101 
0.000000 0.077210 0.069217 
0.062501 0.062501 0.062501 
0.263692 0.029327 0.055271 
0.404963 0.000000 0.064262 
0.500637 0.000000 0.087450 
0.568709 0.000000 0.100215 
0.629813 0.000000 0.110083 
0.687444 0.003065 0.118389 
0.740268 0.012006 0.123789 
0.788179 0.025184 0.126883 
0.830491 0.042353 0.129865 
0.866522 0.062901 0.131721 
0.896646 0.086355 0.134324 
0.922913 0.108949 0.153543 
0.939084 0.120026 0.163621 
0.954428 0.128409 0.170838 
0.000000 0.199559 0.099633 
0.000000 0.212080 0.094179 
0.000000 0.228596 0.022043 
0.187311 0.206597 0.000000 
0.352124 0.178571 0.000000 
0.492764 0.123274 0.000000 
0.598266 0.028606 0.000000 
0.659135 0.004406 0.001500 
0.708040 0.009538 0.029100 
0.753631 0.019252 0.050924 
0.797121 0.030790 0.067506 
0.836160 0.045323 0.080118 
0.870913 0.062529 0.089877 
0.900149 0.086588 0.112138 
0.923657 0.110336 0.146531 
0.939274 0.120791 0.163911 
0.955612 0.128930 0.171373 
0.000000 0.307029 0.109947 
0.000000 0.315537 0.111466 
0.000000 0.325611 0.036403 
0.096365 0.325190 0.000000 
0.296515 0.312002 0.000000 
0.428370 0.299206 0.000000 
0.551295 0.270505 0.000000 
0.645638 0.222595 0.000000 
0.717005 0.136680 0.000000 
0.770553 0.038996 0.000000 
0.819814 0.019708 0.000000 
0.854804 0.030096 0.004766 
0.883421 0.049229 0.028118 
0.904094 0.084763 0.080405 
0.923917 0.112603 0.124337 
0.940187 0.124980 0.152592 
0.956018 0.130493 0.169592 
0.000000 0.407350 0.089663 
0.000000 0.413079 0.092913 
0.000000 0.420041 0.037427 
0.058936 0.422710 0.000000 
0.267300 0.415376 0.000000 
0.400815 0.409131 0.000000 
0.519221 0.400181 0.000000 
0.624989 0.378813 0.001526 
0.709706 0.344815 0.009165 
0.774861 0.300455 0.006505 
0.820015 0.227045 0.000000 
0.851902 0.069604 0.000000 
0.898984 0.030168 0.000000 
0.912459 0.074890 0.034750 
0.925654 0.111552 0.091245 
0.939206 0.129462 0.130133 
0.954949 0.137310 0.157119 
0.000000 0.505848 0.026171 
0.000000 0.509715 0.025923 
0.000000 0.514275 0.013744 
0.082665 0.513972 0.000000 
0.268152 0.509538 0.000000 
0.393328 0.506686 0.000000 
0.507474 0.503708 0.000000 
0.613665 0.493098 0.001052 
0.711050 0.473855 0.015602 
0.793721 0.443602 0.043105 
0.853836 0.398459 0.062651 
0.888742 0.327173 0.044009 
0.899228 0.160589 0.000000 
0.931352 0.036892 0.000000 
0.932759 0.098629 0.041570 
0.940672 0.130659 0.098152 
0.953910 0.144035 0.137566 
0.017076 0.588068 0.000000 
0.016743 0.591018 0.000000 
0.016374 0.593970 0.000000 
0.091869 0.594309 0.000000 
0.254106 0.591744 0.000000 
0.375437 0.592176 0.000000 
0.486535 0.591866 0.000000 
0.595283 0.587693 0.000000 
0.703183 0.572561 0.000864 
0.806611 0.547831 0.029163 
0.890275 0.513530 0.081850 
0.945880 0.468867 0.132114 
0.965801 0.400109 0.126767 
0.949040 0.246217 0.009963 
0.956231 0.042656 0.000000 
0.947537 0.118613 0.047292 
0.955375 0.148431 0.104616 
0.011892 0.660650 0.000000 
0.011658 0.662614 0.000000 
0.011308 0.665561 0.000000 
0.019736 0.668147 0.000000 
0.167329 0.665762 0.000000 
0.321592 0.666768 0.000000 
0.441653 0.668303 0.006158 
0.554826 0.668654 0.010192 
0.667009 0.660402 0.000000 
0.781538 0.641068 0.000000 
0.889757 0.610900 0.038217 
0.977270 0.573342 0.112632 
1.000000 0.528470 0.184046 
1.000000 0.467409 0.204076 
0.997832 0.315956 0.076638 
0.975697 0.046965 0.000000 
0.957633 0.221965 0.118219 
0.005112 0.726383 0.000000 
0.004965 0.727366 0.000000 
0.004698 0.729329 0.000000 
0.004426 0.731293 0.000000 
0.049883 0.732541 0.000000 
0.237553 0.732185 0.000000 
0.382907 0.735543 0.014610 
0.502493 0.738991 0.035644 
0.614817 0.736827 0.021183 
0.731554 0.725808 0.000000 
0.851303 0.701805 0.000000 
0.965157 0.667312 0.045008 
1.000000 0.625909 0.138857 
1.000000 0.579171 0.218415 
1.000000 0.513437 0.244930 
1.000000 0.374158 0.152154 
1.000000 0.424377 0.293142 
0.000000 0.784293 0.001189 
0.000000 0.785275 0.001249 
0.000000 0.786257 0.001315 
0.000000 0.787238 0.001374 
0.000000 0.789201 0.001487 
0.078526 0.789334 0.000000 
0.297171 0.791929 0.008221 
0.439533 0.798321 0.056460 
0.554768 0.802050 0.061880 
0.668088 0.797764 0.031560 
0.788672 0.783573 0.000000 
0.913998 0.756183 0.000000 
1.000000 0.716849 0.049930 
1.000000 0.671286 0.158000 
1.000000 0.614431 0.238150 
1.000000 0.549440 0.273249 
1.000000 0.534636 0.356991 
0.002843 0.834884 0.010586 
0.004845 0.834820 0.011738 
0.006710 0.835738 0.012942 
0.009560 0.836625 0.014723 
0.013416 0.837481 0.017065 
0.018147 0.839287 0.020016 
0.127705 0.838541 0.000000 
0.352363 0.846356 0.050544 
0.488703 0.854750 0.101073 
0.600069 0.857239 0.088019 
0.714581 0.850953 0.042364 
0.838260 0.833727 0.000000 
0.968454 0.803253 0.000000 
1.000000 0.760141 0.053245 
1.000000 0.700846 0.168583 
1.000000 0.642631 0.252589 
1.000000 0.594449 0.319750 
0.047254 0.877519 0.043045 
0.048230 0.877491 0.043604 
0.051129 0.877405 0.045289 
0.053897 0.878302 0.047030 
0.057624 0.879172 0.049327 
0.063305 0.879984 0.052715 
0.071587 0.880721 0.057853 
0.194738 0.883652 0.000000 
0.404134 0.895684 0.107587 
0.530076 0.904075 0.143145 
0.639259 0.905437 0.113431 
0.755325 0.897796 0.052099 
0.881867 0.877772 0.000000 
1.000000 0.843750 0.000000 
1.000000 0.785992 0.054894 
1.000000 0.725254 0.176815 
1.000000 0.666424 0.264273 
0.109585 0.912956 0.084889 
0.110311 0.912936 0.085319 
0.112182 0.912884 0.086429 
0.114933 0.913788 0.088187 
0.117883 0.913706 0.089903 
0.122764 0.914552 0.092934 
0.128687 0.915370 0.096762 
0.090404 0.917401 0.061068 
0.250577 0.923862 0.034791 
0.448127 0.938755 0.163782 
0.565823 0.947526 0.176907 
0.673258 0.947560 0.137751 
0.790161 0.937859 0.061950 
0.914850 0.911040 0.000000 
1.000000 0.865067 0.000000 
1.000000 0.806534 0.056223 
1.000000 0.747160 0.180998 
0.180414 0.942206 0.138363 
0.181335 0.943155 0.139247 
0.182334 0.943118 0.140050 
0.184314 0.943045 0.141661 
0.187285 0.942933 0.144061 
0.190132 0.943807 0.146550 
0.193937 0.943659 0.149788 
0.198682 0.943470 0.153802 
0.127748 0.946765 0.075466 
0.300259 0.956314 0.082925 
0.481283 0.972241 0.199987 
0.591286 0.977980 0.198650 
0.693658 0.973421 0.152588 
0.806954 0.959127 0.068243 
0.933355 0.929895 0.000000 
1.000000 0.883499 0.000000 
1.000000 0.826727 0.054498 
0.213877 0.956607 0.166931 
0.213862 0.956608 0.166939 
0.214798 0.956568 0.167721 
0.215732 0.956527 0.168501 
0.217604 0.956446 0.170057 
0.219471 0.956364 0.171608 
0.222276 0.956240 0.173923 
0.225978 0.957058 0.177053 
0.230675 0.956843 0.180843 
0.137477 0.961217 0.073787 
0.331546 0.975243 0.120205 
0.499681 0.991479 0.217782 
0.606141 0.995987 0.211375 
0.709753 0.991248 0.160658 
0.823017 0.975745 0.071397 
0.950677 0.947263 0.000000 
1.000000 0.901272 0.000000 
0.242342 0.968111 0.191392 
0.242341 0.968111 0.191393 
