luts/-UTILITY/LOG_to_Rec709/Canon_LOG2_Rec709_WDR.cube
# Rec.709/CanonLog2 to Rec.709/WDR, full range in and out CD_v6
# Converted by Nick Shaw of Antler Post
LUT_3D_SIZE 9
0.000000 0.000000 0.000000
0.060115 0.000000 0.000000
0.198233 0.000000 0.000000
0.401512 0.000000 0.000000
0.652965 0.000000 0.000000
0.862819 0.000000 0.000000
1.000000 0.000000 0.000000
1.000000 0.000000 0.000000
1.000000 0.000000 0.000000
0.000000 0.060115 0.000000
0.060115 0.060115 0.000000
0.198233 0.072102 0.000000
0.401512 0.073806 0.000000
0.652965 0.072556 0.000000
0.862819 0.068419 0.000000
1.000000 0.063974 0.000000
1.000000 0.060415 0.000000
1.000000 0.058615 0.000000
0.000000 0.198233 0.000000
0.086897 0.198233 0.000000
0.198233 0.198233 0.000000
0.401512 0.211693 0.000000
0.652965 0.209343 0.000000
0.862819 0.202120 0.000000
1.000000 0.194988 0.012722
1.000000 0.189475 0.067333
1.000000 0.186892 0.092924
0.000000 0.401512 0.000000
0.094319 0.401512 0.000000
0.227590 0.401512 0.000000
0.401512 0.401512 0.000000
0.652965 0.406425 0.000000
0.862819 0.395110 0.044000
1.000000 0.384948 0.144656
1.000000 0.377485 0.218583
1.000000 0.374392 0.249226
0.000000 0.652965 0.000000
0.092619 0.652965 0.000000
0.225749 0.652965 0.000000
0.412225 0.652965 0.000000
0.652965 0.652965 0.000000
0.862819 0.631138 0.196793
1.000000 0.617613 0.330767
1.000000 0.608485 0.421188
1.000000 0.605595 0.449815
0.000000 0.862819 0.000000
0.082319 0.862819 0.000000
0.208353 0.862819 0.000000
0.385643 0.862819 0.027310
0.605169 0.862819 0.121320
0.862819 0.862819 0.000000
1.000000 0.815079 0.453489
1.000000 0.802319 0.579893
1.000000 0.800185 0.601030
0.000000 1.000000 0.000000
0.070571 1.000000 0.000000
0.189565 1.000000 0.006103
0.358310 1.000000 0.107794
0.564947 1.000000 0.239759
0.757600 1.000000 0.290411
1.000000 1.000000 0.000000
1.000000 0.945987 0.636815
1.000000 0.943844 0.658044
0.000000 1.000000 0.000000
0.060938 1.000000 0.000000
0.174520 1.000000 0.050407
0.337281 1.000000 0.169716
0.536680 1.000000 0.322996
0.711626 1.000000 0.425787
0.865281 1.000000 0.413301
1.000000 1.000000 0.000000
1.000000 1.000000 0.771705
0.000000 1.000000 0.000000
0.056000 1.000000 0.000000
0.167278 1.000000 0.071732
0.628393 1.000000 0.551170
0.749228 1.000000 0.647787
1.000000 1.000000 1.000000
1.000000 1.000000 1.000000
1.000000 1.000000 1.000000
1.000000 1.000000 1.000000
0.000000 0.000000 0.060115
0.060115 0.000000 0.060115
0.198233 0.000000 0.114445
0.401512 0.000000 0.148356
0.652965 0.000000 0.155395
0.862819 0.000000 0.130337
1.000000 0.000000 0.094774
1.000000 0.000000 0.062957
1.000000 0.000000 0.045828
0.000000 0.060115 0.060115
0.060115 0.060115 0.060115
0.198233 0.060115 0.060115
0.401512 0.060115 0.060115
0.652965 0.060115 0.060115
0.862819 0.060115 0.060115
1.000000 0.060115 0.060115
1.000000 0.060115 0.060115
1.000000 0.060115 0.060115
0.000000 0.198233 0.110103
0.060115 0.198233 0.060115
0.198233 0.198233 0.060115
0.401512 0.198963 0.052880
0.652965 0.197542 0.066953
0.862819 0.194625 0.095847
1.000000 0.191885 0.122990
1.000000 0.189766 0.143983
1.000000 0.188800 0.153554
0.000000 0.401512 0.138019
0.060115 0.401512 0.060115
0.200033 0.401512 0.054814
0.401512 0.401512 0.060115
0.652965 0.396865 0.106144
0.862819 0.389400 0.180091
1.000000 0.383238 0.241135
1.000000 0.378774 0.285349
1.000000 0.376951 0.303404
0.000000 0.652965 0.142103
0.060115 0.652965 0.060115
0.196402 0.652965 0.065506
0.390512 0.652965 0.092505
0.652965 0.652965 0.060115
0.862819 0.628060 0.306815
1.000000 0.617795 0.408500
1.000000 0.611068 0.475138
1.000000 0.608978 0.495846
0.000000 0.862819 0.119548
0.060115 0.862819 0.060115
0.188493 0.862819 0.088795
0.370198 0.862819 0.152322
0.595577 0.862819 0.229102
0.862819 0.862819 0.060115
1.000000 0.816383 0.520107
1.000000 0.805829 0.624660
1.000000 0.804148 0.641301
0.000000 1.000000 0.089137
0.060115 1.000000 0.060115
0.180921 1.000000 0.111091
0.352741 1.000000 0.203724
0.563112 1.000000 0.324696
0.757228 1.000000 0.371039
1.000000 1.000000 0.060115
1.000000 0.949527 0.681282
1.000000 0.947927 0.697135
0.000000 1.000000 0.062473
0.060115 1.000000 0.060115
0.175012 1.000000 0.128491
0.339898 1.000000 0.241544
0.541835 1.000000 0.387347
0.718066 1.000000 0.486356
0.870321 1.000000 0.477993
1.000000 1.000000 0.060115
1.000000 1.000000 0.796830
0.000000 1.000000 0.048283
0.060115 1.000000 0.060115
0.172284 1.000000 0.136525
0.630683 1.000000 0.584464
0.752553 1.000000 0.678032
1.000000 1.000000 1.000000
1.000000 1.000000 1.000000
1.000000 1.000000 1.000000
1.000000 1.000000 1.000000
0.000000 0.000000 0.198233
0.110821 0.000000 0.198233
0.198233 0.000000 0.198233
0.401512 0.000000 0.255219
0.652965 0.000000 0.267626
0.862819 0.000000 0.227599
1.000000 0.000000 0.170915
1.000000 0.000000 0.119816
1.000000 0.000000 0.092770
0.000000 0.085041 0.198233
0.060115 0.060115 0.198233
0.198233 0.060115 0.198233
0.401512 0.059659 0.202742
0.652965 0.060684 0.192598
0.862819 0.063334 0.166344
1.000000 0.066053 0.139414
1.000000 0.068250 0.117641
1.000000 0.069315 0.107094
0.000000 0.198233 0.198233
0.060115 0.198233 0.198233
0.198233 0.198233 0.198233
0.401512 0.198233 0.198233
0.652965 0.198233 0.198233
0.862819 0.198233 0.198233
1.000000 0.198233 0.198233
1.000000 0.198233 0.198233
1.000000 0.198233 0.198233
0.000000 0.401512 0.251027
0.058756 0.401512 0.202234
0.198233 0.401512 0.198233
0.401512 0.401512 0.198233
0.652965 0.398250 0.230539
0.862819 0.393875 0.273885
1.000000 0.390321 0.309086
1.000000 0.387779 0.334269
1.000000 0.386741 0.344549
0.000000 0.652965 0.259763
0.061744 0.652965 0.193435
0.198233 0.652965 0.198233
0.393358 0.652965 0.222240
0.652965 0.652965 0.198233
0.862819 0.633595 0.390110
1.000000 0.625852 0.466810
1.000000 0.620769 0.517160
1.000000 0.619220 0.532503
0.000000 0.862819 0.223556
0.069208 0.862819 0.171456
0.198233 0.862819 0.198233
0.381247 0.862819 0.257904
0.606784 0.862819 0.334216
0.862819 0.862819 0.198233
1.000000 0.824541 0.577415
1.000000 0.815894 0.663072
1.000000 0.814648 0.675412
0.000000 1.000000 0.175094
0.076743 1.000000 0.149268
0.198233 1.000000 0.198233
0.371223 1.000000 0.287420
0.582547 1.000000 0.405586
0.773990 1.000000 0.459800
1.000000 1.000000 0.198233
1.000000 0.959037 0.725196
1.000000 0.958291 0.732588
0.002892 1.000000 0.132536
0.082784 1.000000 0.131482
0.198233 1.000000 0.198233
0.363998 1.000000 0.308694
0.566808 1.000000 0.451931
0.742443 1.000000 0.552693
0.890375 1.000000 0.557060
1.000000 1.000000 0.198233
1.000000 1.000000 1.000000
0.010379 1.000000 0.110494
0.085676 1.000000 0.122964
0.198233 1.000000 0.198233
0.647214 1.000000 0.622772
0.769528 1.000000 0.715033
1.000000 1.000000 1.000000
1.000000 1.000000 1.000000
1.000000 1.000000 1.000000
1.000000 1.000000 1.000000
0.000000 0.000000 0.401512
0.139672 0.000000 0.401512
0.251725 0.000000 0.401512
0.401512 0.000000 0.401512
0.652965 0.000000 0.422296
0.862819 0.000000 0.361402
1.000000 0.000000 0.275540
1.000000 0.001075 0.198515
1.000000 0.005176 0.157885
0.000000 0.091487 0.401512
0.060115 0.060115 0.401512
0.202315 0.058901 0.401512
0.401512 0.060115 0.401512
0.652965 0.062640 0.376492
0.862819 0.069090 0.312604
1.000000 0.075585 0.248260
1.000000 0.080742 0.197180
1.000000 0.083263 0.172205
0.000000 0.225637 0.401512
0.054551 0.199887 0.401512
0.198233 0.198233 0.401512
0.401512 0.198233 0.401512
0.652965 0.200370 0.380345
0.862819 0.204540 0.339036
1.000000 0.208330 0.301488
1.000000 0.211175 0.273310
1.000000 0.212491 0.260276
0.000000 0.401512 0.401512
0.060115 0.401512 0.401512
0.198233 0.401512 0.401512
0.401512 0.401512 0.401512
0.652965 0.401512 0.401512
0.862819 0.401512 0.401512
1.000000 0.401512 0.401512
1.000000 0.401512 0.401512
1.000000 0.401512 0.401512
0.000000 0.652965 0.420769
0.067787 0.652965 0.378919
0.204568 0.652965 0.382857
0.401512 0.652965 0.401512
0.652965 0.652965 0.401512
0.862819 0.642834 0.501865
1.000000 0.638407 0.545723
1.000000 0.635461 0.574911
1.000000 0.634599 0.583445
0.000000 0.862819 0.365962
0.086270 0.862819 0.324497
0.216291 0.862819 0.348337
0.401512 0.862819 0.401512
0.627568 0.862819 0.476297
0.862819 0.862819 0.401512
1.000000 0.837319 0.654113
1.000000 0.831109 0.715631
1.000000 0.830380 0.722857
0.017436 1.000000 0.292992
0.104228 1.000000 0.271618
0.226700 1.000000 0.317688
0.401512 1.000000 0.401512
0.614273 1.000000 0.515444
0.801844 1.000000 0.581060
1.000000 1.000000 0.401512
1.000000 0.973473 0.785478
1.000000 0.973825 0.781993
0.038939 1.000000 0.229674
0.118212 1.000000 0.230438
0.234427 1.000000 0.294935
0.401512 1.000000 0.401512
0.605540 1.000000 0.541161
0.780292 1.000000 0.644522
0.921815 1.000000 0.667762
1.000000 1.000000 0.401512
1.000000 1.000000 1.000000
0.049857 1.000000 0.197524
0.124852 1.000000 0.210886
0.579136 1.000000 0.605373
0.669419 1.000000 0.669419
0.935721 1.000000 0.922165
1.000000 1.000000 1.000000
1.000000 1.000000 1.000000
1.000000 1.000000 1.000000
1.000000 1.000000 1.000000
0.000000 0.000000 0.652965
0.144183 0.000000 0.652965
0.261025 0.000000 0.652965
0.421023 0.000000 0.652965
0.652965 0.000000 0.652965
0.862819 0.000000 0.559552
1.000000 0.003296 0.427968
1.000000 0.015060 0.311425
1.000000 0.021196 0.250641
0.000000 0.089740 0.652965
0.060115 0.060115 0.652965
0.193305 0.061579 0.652965
0.378523 0.066948 0.652965
0.652965 0.060115 0.652965
0.862819 0.072571 0.529576
1.000000 0.084992 0.406535
1.000000 0.094641 0.310951
1.000000 0.099309 0.264713
0.000000 0.223500 0.652965
0.065716 0.196568 0.652965
0.198233 0.198233 0.652965
0.382456 0.203897 0.652965
0.652965 0.198233 0.652965
0.862819 0.209003 0.546270
1.000000 0.218695 0.450273
1.000000 0.225818 0.379714
1.000000 0.229044 0.347754
0.000000 0.411512 0.652965
0.094300 0.391350 0.652965
0.223385 0.394035 0.652965
0.401512 0.401512 0.652965
0.652965 0.401512 0.652965
0.862819 0.408216 0.586551
1.000000 0.413619 0.533033
1.000000 0.417380 0.495774
1.000000 0.418855 0.481168
0.000000 0.652965 0.652965
0.060115 0.652965 0.652965
0.198233 0.652965 0.652965
0.401512 0.652965 0.652965
0.652965 0.652965 0.652965
0.862819 0.652965 0.652965
1.000000 0.652965 0.652965
1.000000 0.652965 0.652965
1.000000 0.652965 0.652965
0.009942 0.862819 0.566512
0.098314 0.862819 0.540484
0.230863 0.862819 0.556882
0.421362 0.862819 0.594514
0.652965 0.862819 0.652965
0.862819 0.862819 0.652965
1.000000 0.852911 0.751121
1.000000 0.849613 0.783785
1.000000 0.849365 0.786250
0.048161 1.000000 0.453972
0.133121 1.000000 0.437992
0.257691 1.000000 0.477884
0.436137 1.000000 0.551010
0.652965 1.000000 0.652965
0.837965 1.000000 0.726152
1.000000 1.000000 0.652965
1.000000 0.991398 0.859369
1.000000 0.992695 0.846525
0.080348 1.000000 0.359192
0.159017 1.000000 0.361737
0.276724 1.000000 0.421841
0.446211 1.000000 0.521344
0.652965 1.000000 0.652965
0.827690 1.000000 0.756408
0.962200 1.000000 0.800298
1.000000 1.000000 0.652965
1.000000 1.000000 1.000000
0.096135 1.000000 0.312707
0.170867 1.000000 0.326845
0.607988 1.000000 0.674061
0.699132 1.000000 0.735575
1.000000 1.000000 1.000000
1.000000 1.000000 1.000000
1.000000 1.000000 1.000000
1.000000 1.000000 1.000000
1.000000 1.000000 1.000000
0.000000 0.000000 0.862819
0.121214 0.000000 0.862819
0.224190 0.000000 0.862819
0.365231 0.000000 0.862819
0.565355 0.006625 0.862819
0.862819 0.000000 0.862819
1.000000 0.001582 0.654801
1.000000 0.019977 0.472577
1.000000 0.029405 0.379188
0.000000 0.080284 0.862819
0.060115 0.060115 0.862819
0.170672 0.068308 0.862819
0.322625 0.083564 0.862819
0.538693 0.094083 0.862819
0.862819 0.060115 0.862819
1.000000 0.082448 0.641587
1.000000 0.099528 0.472398
1.000000 0.107629 0.392156
0.000000 0.207461 0.862819
0.089836 0.189398 0.862819
0.198233 0.198233 0.862819
0.346895 0.214468 0.862819
0.555157 0.227307 0.862819
0.862819 0.198233 0.862819
1.000000 0.217794 0.669051
1.000000 0.231952 0.528804
1.000000 0.238204 0.466873
0.029598 0.386941 0.862819
0.156270 0.372929 0.862819
0.260227 0.383083 0.862819
0.401512 0.401512 0.862819
0.593244 0.419265 0.862819
0.862819 0.401512 0.862819
1.000000 0.415830 0.720991
1.000000 0.425643 0.623781
1.000000 0.429364 0.586918
0.130598 0.608371 0.862819
0.239092 0.599762 0.862819
0.341619 0.610342 0.862819
0.479833 0.629683 0.862819
0.652965 0.652965 0.862819
0.862819 0.652965 0.862819
1.000000 0.659536 0.797734
1.000000 0.663990 0.753609
1.000000 0.665163 0.741985
0.000000 0.862819 0.862819
0.060115 0.862819 0.862819
0.198233 0.862819 0.862819
0.401512 0.862819 0.862819
0.652965 0.862819 0.862819
0.862819 0.862819 0.862819
1.000000 0.862819 0.862819
1.000000 0.862819 0.862819
1.000000 0.862819 0.862819
0.045847 1.000000 0.670640
0.128892 1.000000 0.660299
0.258076 1.000000 0.686606
0.444836 1.000000 0.735247
0.672413 1.000000 0.805552
0.862819 1.000000 0.862819
1.000000 1.000000 0.862819
1.000000 1.000000 0.932995
1.000000 1.000000 0.990444
0.097578 1.000000 0.518313
0.176167 1.000000 0.521093
0.296954 1.000000 0.572124
0.471541 1.000000 0.656612
0.684474 1.000000 0.770038
0.862819 1.000000 0.862819
0.994410 1.000000 0.915308
1.000000 1.000000 1.000000
1.000000 1.000000 1.000000
0.121727 1.000000 0.447202
0.552184 1.000000 0.711716
0.625473 1.000000 0.752044
0.718380 1.000000 0.808368
1.000000 1.000000 1.000000
1.000000 1.000000 1.000000
1.000000 1.000000 1.000000
1.000000 1.000000 1.000000
1.000000 1.000000 1.000000
0.000000 0.000000 1.000000
0.089999 0.000000 1.000000
0.174449 0.000000 1.000000
0.290257 0.013653 1.000000
0.449807 0.040972 1.000000
0.668010 0.038491 1.000000
1.000000 0.000000 1.000000
1.000000 0.010243 0.718418
1.000000 0.025304 0.569226
0.000000 0.069595 1.000000
0.060115 0.060115 1.000000
0.147768 0.075116 1.000000
0.268007 0.099800 1.000000
0.433010 0.125498 1.000000
0.657216 0.121232 1.000000
1.000000 0.060115 1.000000
1.000000 0.089837 0.717806
1.000000 0.103784 0.579650
0.007071 0.190359 1.000000
0.112862 0.182553 1.000000
0.198233 0.198233 1.000000
0.315208 0.223888 1.000000
0.473548 0.251566 1.000000
0.683729 0.251469 1.000000
1.000000 0.198233 1.000000
1.000000 0.224372 0.753302
1.000000 0.235759 0.640500
0.113076 0.362127 1.000000
0.209190 0.357198 1.000000
0.290624 0.374048 1.000000
0.401512 0.401512 1.000000
0.548224 0.432647 1.000000
0.732932 0.440122 1.000000
1.000000 0.401512 1.000000
1.000000 0.421635 0.812896
1.000000 0.429142 0.738529
0.252286 0.572199 1.000000
0.336491 0.570810 1.000000
0.414325 0.588730 1.000000
0.519852 0.617787 1.000000
0.652965 0.652965 1.000000
0.804306 0.670359 1.000000
1.000000 0.652965 1.000000
1.000000 0.664825 0.894748
1.000000 0.667832 0.864959
0.310571 0.764727 1.000000
0.389978 0.764765 1.000000
0.475012 0.780544 1.000000
0.590760 0.806564 1.000000
0.729607 0.840038 1.000000
0.862819 0.862819 1.000000
1.000000 0.862819 1.000000
1.000000 0.867571 0.965167
1.000000 0.867648 0.964407
0.000000 1.000000 1.000000
0.060115 1.000000 1.000000
0.198233 1.000000 1.000000
0.401512 1.000000 1.000000
0.652965 1.000000 1.000000
0.862819 1.000000 1.000000
1.000000 1.000000 1.000000
1.000000 1.000000 1.000000
1.000000 1.000000 1.000000
0.072608 1.000000 0.741256
0.151797 1.000000 0.742266
0.278549 1.000000 0.775736
0.462967 1.000000 0.831274
0.688794 1.000000 0.906733
0.876862 1.000000 0.970887
1.000000 1.000000 1.000000
1.000000 1.000000 1.000000
1.000000 1.000000 1.000000
0.509923 1.000000 0.805009
0.548701 1.000000 0.808714
0.624211 1.000000 0.842504
0.720139 1.000000 0.889930
1.000000 1.000000 1.000000
1.000000 1.000000 1.000000
1.000000 1.000000 1.000000
1.000000 1.000000 1.000000
1.000000 1.000000 1.000000
0.000000 0.000000 1.000000
0.062546 0.000000 1.000000
0.130589 0.000689 1.000000
0.224863 0.033093 1.000000
0.351717 0.070130 1.000000
0.510997 0.085164 1.000000
0.737469 0.062259 1.000000
1.000000 0.000000 1.000000
1.000000 0.005695 0.873101
0.000000 0.060860 1.000000
0.060115 0.060115 1.000000
0.129384 0.080581 1.000000
0.225351 0.112481 1.000000
0.353856 0.149028 1.000000
0.513360 0.163995 1.000000
0.738230 0.141565 1.000000
1.000000 0.060115 1.000000
1.000000 0.084569 0.879630
0.052912 0.176732 1.000000
0.130807 0.177219 1.000000
0.198233 0.198233 1.000000
0.291647 0.230891 1.000000
0.415340 0.268869 1.000000
0.565278 0.286680 1.000000
0.772046 0.269631 1.000000
1.000000 0.198233 1.000000
1.000000 0.218928 0.916865
0.176867 0.343164 1.000000
0.248028 0.345653 1.000000
0.312507 0.367543 1.000000
0.401512 0.401512 1.000000
0.517433 0.441800 1.000000
0.651462 0.464340 1.000000
0.828267 0.456198 1.000000
1.000000 0.401512 1.000000
1.000000 0.416049 0.977873
0.337093 0.546989 1.000000
0.400108 0.551899 1.000000
0.461484 0.574711 1.000000
0.546155 0.609968 1.000000
0.652965 0.652965 1.000000
0.767494 0.681302 1.000000
0.904790 0.684904 1.000000
1.000000 0.652965 1.000000
1.000000 0.659639 1.000000
0.447067 0.724153 1.000000
0.505723 0.730359 1.000000
0.568282 0.752819 1.000000
0.654690 0.787560 1.000000
0.760397 0.830885 1.000000
0.862819 0.862819 1.000000
0.969976 0.875381 1.000000
1.000000 0.862819 1.000000
1.000000 0.863341 1.000000
0.441092 0.875344 1.000000
0.503718 0.880369 1.000000
0.578561 0.899178 1.000000
0.683058 0.928542 1.000000
0.808171 0.966099 1.000000
0.917762 0.995903 1.000000
1.000000 1.000000 1.000000
1.000000 1.000000 1.000000
1.000000 1.000000 1.000000
0.000000 1.000000 1.000000
0.060115 1.000000 1.000000
0.198233 1.000000 1.000000
0.401512 1.000000 1.000000
0.652965 1.000000 1.000000
0.862819 1.000000 1.000000
1.000000 1.000000 1.000000
1.000000 1.000000 1.000000
1.000000 1.000000 1.000000
0.474889 1.000000 0.979524
0.514333 1.000000 0.981270
0.594529 1.000000 1.000000
1.000000 1.000000 1.000000
1.000000 1.000000 1.000000
1.000000 1.000000 1.000000
1.000000 1.000000 1.000000
1.000000 1.000000 1.000000
1.000000 1.000000 1.000000
0.000000 0.000000 1.000000
0.047911 0.000000 1.000000
0.107797 0.007465 1.000000
0.191461 0.043022 1.000000
0.303132 0.084573 1.000000
0.436566 0.107290 1.000000
0.613039 0.099246 1.000000
0.888995 0.049807 1.000000
1.000000 0.000000 1.000000
0.000000 0.056392 1.000000
0.060115 0.060115 1.000000
0.120564 0.083202 1.000000
0.205005 0.118528 1.000000
0.317314 0.159890 1.000000
0.450184 0.182774 1.000000
0.624178 0.175468 1.000000
0.895752 0.127331 1.000000
1.000000 0.060115 1.000000
0.074888 0.170199 1.000000
0.139078 0.174760 1.000000
0.198233 0.198233 1.000000
0.280945 0.234073 1.000000
0.390095 0.276373 1.000000
0.516886 0.301065 1.000000
0.679743 0.297069 1.000000
0.930872 0.255010 1.000000
1.000000 0.198233 1.000000
0.204699 0.334891 1.000000
0.264490 0.340759 1.000000
0.321659 0.364822 1.000000
0.401512 0.401512 1.000000
0.505787 0.445262 1.000000
0.622965 0.472811 1.000000
0.768451 0.473979 1.000000
0.988026 0.441299 1.000000
1.000000 0.401512 1.000000
0.367957 0.537814 1.000000
0.422445 0.545259 1.000000
0.477443 0.569967 1.000000
0.554393 0.607519 1.000000
0.652965 0.652965 1.000000
0.758636 0.683935 1.000000
0.882012 0.691675 1.000000
1.000000 0.671160 1.000000
1.000000 0.652965 1.000000
0.483185 0.713416 1.000000
0.534578 0.721781 1.000000
0.589673 0.746460 1.000000
0.666866 0.783941 1.000000
0.764149 0.829770 1.000000
0.862819 0.862819 1.000000
0.970492 0.875228 1.000000
1.000000 0.864247 1.000000
1.000000 0.862819 1.000000
0.508428 0.855327 1.000000
0.560834 0.863391 1.000000
0.620575 0.886689 1.000000
0.704481 0.922175 1.000000
0.808969 0.965862 1.000000
0.909842 0.998257 1.000000
1.000000 1.000000 1.000000
1.000000 1.000000 1.000000
1.000000 1.000000 1.000000
0.373863 1.000000 1.000000
0.434242 1.000000 1.000000
0.509960 1.000000 1.000000
0.616450 1.000000 1.000000
0.748601 1.000000 1.000000
0.897246 1.000000 1.000000
1.000000 1.000000 1.000000
1.000000 1.000000 1.000000
1.000000 1.000000 1.000000
0.430364 1.000000 1.000000
0.470400 1.000000 1.000000
0.557385 1.000000 1.000000
1.000000 1.000000 1.000000
1.000000 1.000000 1.000000
1.000000 1.000000 1.000000
1.000000 1.000000 1.000000
1.000000 1.000000 1.000000
1.000000 1.000000 1.000000
