luts/-UTILITY/LOG_to_Rec709/Canon_LOG_Rec709_WDR.cube
# Gamut : BT.709
# Gamma : Canon Log to Wide DR
# Version : 1.0
# Created by Canon Inc. CD_v3
LUT_3D_SIZE 5
0.000000 0.000000 0.000000 
0.283721 0.008588 0.000000 
0.623525 0.042065 0.000000 
0.845783 0.059053 0.000000 
0.971351 0.066902 0.000000 
0.032397 0.288647 0.000000 
0.302258 0.288972 0.000000 
0.626558 0.305799 0.000000 
0.873242 0.284863 0.014179 
1.000000 0.271152 0.041184 
0.053531 0.642239 0.000000 
0.318620 0.641538 0.000000 
0.651291 0.642559 0.000000 
0.997782 0.578178 0.126388 
1.000000 0.532445 0.279535 
0.058953 0.865401 0.000000 
0.264027 0.869154 0.021041 
0.529861 0.886904 0.127889 
0.872411 0.865672 0.000000 
1.000000 0.744968 0.198471 
0.060779 0.990618 0.000000 
0.224986 0.995854 0.048180 
0.446231 1.000000 0.227362 
0.648838 1.000000 0.231556 
0.996771 0.990863 0.000000 
0.068768 0.000000 0.272108 
0.296968 0.000000 0.287216 
0.644257 0.000072 0.293794 
0.855218 0.051459 0.178757 
0.953533 0.144576 0.074118 
0.000955 0.292059 0.290189 
0.291997 0.291997 0.291997 
0.644010 0.292786 0.288053 
0.858884 0.303859 0.256173 
0.970750 0.323179 0.213869 
0.002950 0.644434 0.291020 
0.297164 0.644046 0.288914 
0.646676 0.643931 0.291355 
0.966239 0.594077 0.365583 
1.000000 0.579204 0.423189 
0.188040 0.861478 0.240588 
0.327324 0.864572 0.272754 
0.564286 0.880986 0.344515 
0.876106 0.864608 0.289284 
1.000000 0.766701 0.382821 
0.269619 0.983477 0.208235 
0.352918 0.988093 0.259047 
0.526549 1.000000 0.372596 
0.700748 1.000000 0.391642 
1.000000 0.988476 0.288015 
0.136309 0.000000 0.624566 
0.328727 0.000000 0.630586 
0.647453 0.000000 0.641669 
0.936254 0.000000 0.477302 
1.000000 0.017936 0.268566 
0.010869 0.290812 0.643855 
0.301797 0.289598 0.642238 
0.645700 0.291404 0.643463 
0.920146 0.263414 0.503332 
1.000000 0.309872 0.358559 
0.001392 0.644568 0.643588 
0.292241 0.644559 0.644080 
0.644541 0.644541 0.644541 
0.866793 0.645504 0.636646 
0.986992 0.650418 0.610505 
0.344036 0.855526 0.532064 
0.443313 0.856432 0.556376 
0.655313 0.865456 0.636997 
0.875480 0.864872 0.642409 
1.000000 0.828406 0.690163 
0.479460 0.970159 0.479524 
0.535591 0.972974 0.515553 
0.680093 0.987030 0.621224 
0.813203 1.000000 0.673439 
1.000000 0.986736 0.639904 
0.156338 0.000000 0.849988 
0.297013 0.000000 0.865917 
0.553924 0.102273 0.918471 
0.869381 0.000000 0.865041 
1.000000 0.000000 0.583011 
0.277126 0.254334 0.837111 
0.364018 0.272804 0.850390 
0.574535 0.325222 0.903761 
0.871507 0.288888 0.863047 
1.000000 0.165083 0.619453 
0.448324 0.594527 0.891256 
0.518721 0.603207 0.870577 
0.663181 0.639698 0.861499 
0.871945 0.643126 0.863015 
1.000000 0.628913 0.745529 
0.001474 0.867220 0.866502 
0.293255 0.867250 0.865673 
0.645057 0.867306 0.865088 
0.867201 0.867201 0.867201 
0.992194 0.867758 0.861687 
0.494867 0.974950 0.662790 
0.559341 0.975999 0.691042 
0.733484 0.981560 0.786393 
0.874967 0.990715 0.861468 
0.999557 0.990164 0.865332 
0.163004 0.000000 0.976535 
0.272403 0.009201 0.996318 
0.478864 0.168960 1.000000 
0.697804 0.225420 1.000000 
0.994095 0.000000 0.990326 
0.372733 0.226289 0.942900 
0.418596 0.254584 0.962213 
0.551200 0.334572 1.000000 
0.732556 0.371121 1.000000 
0.998031 0.287059 0.986520 
0.612637 0.562517 0.948396 
0.636181 0.578206 0.945526 
0.709235 0.627473 0.970676 
0.822138 0.658421 1.000000 
1.000000 0.641015 0.982895 
0.620780 0.786577 1.000000 
0.669882 0.795245 1.000000 
0.788032 0.830349 1.000000 
0.880263 0.863764 0.988060 
0.996477 0.866134 0.988561 
0.001499 0.992219 0.991600 
0.293965 0.992263 0.990214 
0.645869 0.992378 0.988109 
0.867542 0.992318 0.990198 
0.992203 0.992203 0.992203 
