luts/-UTILITY/LOG_to_Rec709/Canon_LOG2_CinGamut_Rec709_WDR.cube
# CinemaGamut/CanonLog2 to Rec.709/WDR, full range in and out CD_v6
# Converted by Nick Shaw of Antler Post
LUT_3D_SIZE 33
0.000000 0.000000 0.000000
0.012522 0.000000 0.000000
0.043384 0.000000 0.000000
0.078639 0.000000 0.000000
0.118536 0.000000 0.000000
0.162462 0.000000 0.000000
0.210746 0.000000 0.000000
0.263949 0.000000 0.000000
0.324240 0.000000 0.000000
0.391262 0.000000 0.000000
0.456654 0.000000 0.000000
0.514873 0.000000 0.007678
0.569072 0.000000 0.018543
0.627803 0.000000 0.029974
0.690296 0.000000 0.041985
0.749138 0.000000 0.053303
0.805061 0.000000 0.064082
0.858439 0.000000 0.074323
0.909270 0.000000 0.083984
0.957036 0.000000 0.093028
1.000000 0.000000 0.101469
1.000000 0.000000 0.109410
1.000000 0.000000 0.116387
1.000000 0.000000 0.124080
1.000000 0.000000 0.131494
1.000000 0.000000 0.138014
1.000000 0.000000 0.144007
1.000000 0.000000 0.150448
1.000000 0.000000 0.157216
1.000000 0.000000 0.165541
1.000000 0.000000 0.176576
1.000000 0.014336 0.191563
1.000000 0.038707 0.212086
0.000000 0.003357 0.000000
0.000000 0.000000 0.000000
0.028143 0.000000 0.000000
0.064534 0.000000 0.000000
0.106008 0.000000 0.000000
0.151610 0.000000 0.000000
0.201325 0.000000 0.000000
0.255846 0.000000 0.000000
0.317590 0.000000 0.000000
0.385869 0.000000 0.000000
0.461475 0.000000 0.000000
0.541248 0.000000 0.001229
0.617725 0.000000 0.011424
0.687307 0.000000 0.023851
0.749010 0.000000 0.038189
0.807021 0.000000 0.051955
0.862390 0.000000 0.064363
0.915271 0.000000 0.076069
0.964741 0.000000 0.087087
1.000000 0.000000 0.097397
1.000000 0.000000 0.107092
1.000000 0.000000 0.116591
1.000000 0.000000 0.126896
1.000000 0.000000 0.135450
1.000000 0.000000 0.143307
1.000000 0.000000 0.150118
1.000000 0.000000 0.156343
1.000000 0.000000 0.162965
1.000000 0.000000 0.169867
1.000000 0.000000 0.178318
1.000000 0.012270 0.189424
1.000000 0.030022 0.204471
1.000000 0.054389 0.225042
0.000000 0.026100 0.000000
0.000000 0.022181 0.000000
0.014417 0.017879 0.000000
0.049961 0.017598 0.000000
0.092424 0.013488 0.000000
0.139550 0.008569 0.000000
0.190551 0.001872 0.000000
0.246348 0.000000 0.000000
0.309524 0.000000 0.000000
0.379451 0.000000 0.000000
0.456511 0.000000 0.000000
0.540632 0.000000 0.000000
0.628345 0.000000 0.007828
0.712194 0.000000 0.020487
0.792412 0.000000 0.034604
0.866307 0.000000 0.048757
0.920824 0.000000 0.063674
0.971299 0.000000 0.077250
1.000000 0.000000 0.089903
1.000000 0.000000 0.102289
1.000000 0.000000 0.114563
1.000000 0.000000 0.126517
1.000000 0.000000 0.137478
1.000000 0.000000 0.147036
1.000000 0.000000 0.155323
1.000000 0.000000 0.162421
1.000000 0.000000 0.168870
1.000000 0.000000 0.175665
1.000000 0.005390 0.182699
1.000000 0.015183 0.191254
1.000000 0.028173 0.202455
1.000000 0.045919 0.217560
1.000000 0.070280 0.238178
0.000000 0.052447 0.000000
0.000000 0.049211 0.000000
0.000000 0.045083 0.000000
0.035420 0.039934 0.000000
0.076518 0.041386 0.000000
0.124563 0.038537 0.000000
0.176736 0.033383 0.000000
0.233433 0.023966 0.000000
0.297432 0.015324 0.000000
0.368975 0.000119 0.000000
0.448392 0.000000 0.000000
0.534821 0.000000 0.000000
0.625648 0.000000 0.003831
0.716337 0.000000 0.018209
0.807095 0.000000 0.033455
0.893876 0.000000 0.048316
0.974635 0.000000 0.062564
1.000000 0.000000 0.078266
1.000000 0.000000 0.095077
1.000000 0.000000 0.110376
1.000000 0.000000 0.125166
1.000000 0.000000 0.138797
1.000000 0.000000 0.150565
1.000000 0.000000 0.160728
1.000000 0.000000 0.169547
1.000000 0.002253 0.176973
1.000000 0.009402 0.183677
1.000000 0.016475 0.190668
1.000000 0.024209 0.197860
1.000000 0.033991 0.206541
1.000000 0.046970 0.217842
1.000000 0.064707 0.233035
1.000000 0.089064 0.253706
0.000000 0.080100 0.000000
0.000000 0.081491 0.000000
0.000000 0.077872 0.000000
0.025127 0.069008 0.000000
0.059933 0.065603 0.000000
0.099718 0.067374 0.000000
0.145009 0.065084 0.000000
0.193900 0.061362 0.000000
0.245625 0.057187 0.000000
0.353521 0.040714 0.000000
0.433954 0.025702 0.000000
0.523895 0.007107 0.000000
0.618451 0.000000 0.000000
0.713476 0.000000 0.013928
0.807992 0.000000 0.032397
0.901597 0.000000 0.049440
0.991493 0.000000 0.065304
1.000000 0.000000 0.082810
1.000000 0.000000 0.102112
1.000000 0.000000 0.121677
1.000000 0.000000 0.138750
1.000000 0.000000 0.153588
1.000000 0.000000 0.166294
1.000000 0.009188 0.177207
1.000000 0.017504 0.186594
1.000000 0.025076 0.194533
1.000000 0.032194 0.201552
1.000000 0.039243 0.208782
1.000000 0.046957 0.216173
1.000000 0.056723 0.225005
1.000000 0.069691 0.236428
1.000000 0.087418 0.251716
1.000000 0.111766 0.272471
0.000000 0.108910 0.000000
0.000000 0.114783 0.000000
0.000000 0.115082 0.000000
0.000000 0.108215 0.000000
0.056057 0.095896 0.000000
0.088300 0.094967 0.000000
0.118590 0.095807 0.000000
0.151342 0.096729 0.000000
0.189782 0.097218 0.000000
0.283498 0.088440 0.000000
0.379087 0.077395 0.000000
0.504222 0.056217 0.000000
0.603323 0.030239 0.000000
0.704070 0.015787 0.001874
0.804494 0.003091 0.027952
0.903135 0.000000 0.049332
0.996311 0.000000 0.068516
1.000000 0.000000 0.089768
1.000000 0.000000 0.112846
1.000000 0.000000 0.135467
1.000000 0.005552 0.154497
1.000000 0.016893 0.170818
1.000000 0.027072 0.184680
1.000000 0.036249 0.196493
1.000000 0.044494 0.206593
1.000000 0.052010 0.215079
1.000000 0.059080 0.222579
1.000000 0.066099 0.230105
1.000000 0.073789 0.237737
1.000000 0.083536 0.246757
1.000000 0.096489 0.258326
1.000000 0.114205 0.273731
1.000000 0.138543 0.294578
0.000000 0.141660 0.000000
0.000000 0.147726 0.000000
0.000000 0.151994 0.000000
0.000000 0.151314 0.000000
0.015753 0.140992 0.000000
0.086390 0.128659 0.000000
0.120549 0.128352 0.000000
0.153764 0.129137 0.000000
0.190828 0.130007 0.000000
0.233108 0.130520 0.000000
0.283436 0.129940 0.000000
0.388114 0.118625 0.000000
0.555814 0.091761 0.000000
0.681472 0.060120 0.000000
0.791269 0.042752 0.007070
0.898524 0.025213 0.044677
0.997749 0.010952 0.069216
1.000000 0.006384 0.095403
1.000000 0.012621 0.123294
1.000000 0.025003 0.149736
1.000000 0.036847 0.171758
1.000000 0.047947 0.189939
1.000000 0.057974 0.205224
1.000000 0.067033 0.218128
1.000000 0.075192 0.229083
1.000000 0.082640 0.238247
1.000000 0.089656 0.246283
1.000000 0.096630 0.254260
1.000000 0.104292 0.262172
1.000000 0.114015 0.271423
1.000000 0.126951 0.283170
1.000000 0.144652 0.298716
1.000000 0.168979 0.319675
0.000000 0.177091 0.000000
0.000000 0.182996 0.000000
0.000000 0.189222 0.000000
0.000000 0.191924 0.000000
0.000000 0.183906 0.000000
0.066680 0.170373 0.000000
0.118544 0.164803 0.000000
0.155417 0.164500 0.000000
0.192987 0.165219 0.000000
0.234203 0.166048 0.000000
0.281183 0.166465 0.000000
0.336682 0.165730 0.000000
0.406411 0.162286 0.000000
0.514999 0.148986 0.000000
0.758359 0.099508 0.000000
0.880684 0.069338 0.020599
0.990923 0.049409 0.063533
1.000000 0.042451 0.097143
1.000000 0.047626 0.131360
1.000000 0.059469 0.162956
1.000000 0.070932 0.188625
1.000000 0.081735 0.209723
1.000000 0.091546 0.226748
1.000000 0.100425 0.240998
1.000000 0.108459 0.253011
1.000000 0.115823 0.263006
1.000000 0.122775 0.271682
1.000000 0.129701 0.280145
1.000000 0.137319 0.288485
1.000000 0.147015 0.298010
1.000000 0.159929 0.309976
1.000000 0.177612 0.325695
1.000000 0.201926 0.346790
0.000000 0.216630 0.000000
0.000000 0.222376 0.000000
0.000000 0.228366 0.000000
0.000000 0.234641 0.000000
0.000000 0.236784 0.000000
0.013627 0.226131 0.000000
0.104563 0.208947 0.000000
0.153110 0.205174 0.000000
0.194270 0.204826 0.000000
0.236116 0.205469 0.000000
0.282110 0.206178 0.000000
0.334418 0.206391 0.000000
0.395816 0.205341 0.000000
0.471036 0.201593 0.000000
0.586944 0.187423 0.000000
0.831455 0.139845 0.000000
0.966775 0.100617 0.034771
1.000000 0.084928 0.091589
1.000000 0.087103 0.136079
1.000000 0.098144 0.175362
1.000000 0.109091 0.205969
1.000000 0.119533 0.230509
1.000000 0.129059 0.250239
1.000000 0.137777 0.266142
1.000000 0.145659 0.279406
1.000000 0.152886 0.290370
1.000000 0.159733 0.299806
1.000000 0.166598 0.308861
1.000000 0.174170 0.317670
1.000000 0.183826 0.327599
1.000000 0.196714 0.339819
1.000000 0.214377 0.355742
1.000000 0.238674 0.376998
0.000000 0.260140 0.000000
0.000000 0.265787 0.000000
0.000000 0.271589 0.000000
0.000000 0.278680 0.000000
0.000000 0.284869 0.000000
0.000000 0.286270 0.000000
0.036204 0.273275 0.000000
0.139979 0.253085 0.000000
0.191473 0.249664 0.000000
0.237033 0.249203 0.000000
0.283692 0.249715 0.000000
0.335017 0.250220 0.000000
0.393202 0.250125 0.000000
0.461006 0.248582 0.000000
0.543035 0.243987 0.000000
0.664043 0.227699 0.000000
0.901765 0.181161 0.000000
1.000000 0.138126 0.056291
1.000000 0.131572 0.131372
1.000000 0.141163 0.184578
1.000000 0.151330 0.222642
1.000000 0.161284 0.251845
1.000000 0.170472 0.274792
1.000000 0.178922 0.293249
1.000000 0.186647 0.308040
1.000000 0.193754 0.320187
1.000000 0.200493 0.330531
1.000000 0.207265 0.340275
1.000000 0.214756 0.349627
1.000000 0.224353 0.359989
1.000000 0.237203 0.372588
1.000000 0.254842 0.388752
1.000000 0.279120 0.410200
0.000000 0.307978 0.000000
0.000000 0.313540 0.000000
0.000000 0.319231 0.000000
0.000000 0.326075 0.000000
0.000000 0.334651 0.000000
0.000000 0.340554 0.000000
0.000000 0.340972 0.000000
0.059924 0.325262 0.000000
0.177804 0.302108 0.000000
0.233466 0.298643 0.000000
0.284024 0.297996 0.000000
0.336052 0.298292 0.000000
0.393241 0.298493 0.000000
0.457773 0.297923 0.000000
0.532413 0.295524 0.000000
0.620482 0.287979 0.000000
0.744951 0.269721 0.000000
0.932586 0.233074 0.000000
1.000000 0.190301 0.093303
1.000000 0.189456 0.185080
1.000000 0.198184 0.236924
1.000000 0.207398 0.273196
1.000000 0.216131 0.300466
1.000000 0.224269 0.321896
1.000000 0.231748 0.339048
1.000000 0.238706 0.352615
1.000000 0.245338 0.364051
1.000000 0.252012 0.374617
1.000000 0.259424 0.384619
1.000000 0.268952 0.395481
1.000000 0.281732 0.408473
1.000000 0.299334 0.424987
1.000000 0.323588 0.446661
0.000000 0.360416 0.000000
0.000000 0.365903 0.000000
0.000000 0.371502 0.000000
0.000000 0.378205 0.000000
0.000000 0.386464 0.000000
0.000000 0.396600 0.000000
0.000000 0.401970 0.000000
0.000000 0.400775 0.000000
0.088769 0.381601 0.000000
0.218638 0.356078 0.000000
0.279392 0.352399 0.000000
0.335536 0.351472 0.000000
0.393462 0.351455 0.000000
0.456957 0.351192 0.000000
0.528225 0.349796 0.000000
0.608976 0.344426 0.000000
0.702907 0.334216 0.000000
0.820795 0.316074 0.000000
0.984221 0.283350 0.000000
1.000000 0.248362 0.142694
1.000000 0.250494 0.243407
1.000000 0.258315 0.292979
1.000000 0.266361 0.326764
1.000000 0.274078 0.352186
1.000000 0.281273 0.372062
1.000000 0.288006 0.387789
1.000000 0.294504 0.400518
1.000000 0.301075 0.412060
1.000000 0.308408 0.422824
1.000000 0.317869 0.434271
1.000000 0.330589 0.447721
1.000000 0.348119 0.464596
1.000000 0.372333 0.486588
0.000000 0.417640 0.000000
0.000000 0.423062 0.000000
0.000000 0.428586 0.000000
0.000000 0.435179 0.000000
0.000000 0.443258 0.000000
0.000000 0.452994 0.000000
0.000000 0.464491 0.000000
0.000000 0.468736 0.000000
0.000595 0.465676 0.000000
0.120054 0.443248 0.000000
0.262824 0.415190 0.000000
0.329474 0.411140 0.000000
0.391755 0.409828 0.000000
0.456022 0.409336 0.000000
0.526195 0.408265 0.000000
0.603593 0.403892 0.000000
0.690080 0.395894 0.000000
0.790591 0.382917 0.000000
0.915013 0.361942 0.000000
1.000000 0.331717 0.000000
1.000000 0.312039 0.207168
1.000000 0.314765 0.306070
1.000000 0.321505 0.352258
1.000000 0.328589 0.383675
1.000000 0.335401 0.407187
1.000000 0.341877 0.425384
1.000000 0.348173 0.440046
1.000000 0.354626 0.452732
1.000000 0.361867 0.464374
1.000000 0.371258 0.476496
1.000000 0.383923 0.490475
1.000000 0.401402 0.507767
1.000000 0.425550 0.530086
0.000000 0.479562 0.000000
0.000000 0.484929 0.000000
0.000000 0.490389 0.000000
0.000000 0.496890 0.000000
0.000000 0.504832 0.000000
0.000000 0.514348 0.000000
0.000000 0.525436 0.000000
0.000000 0.537561 0.000000
0.000000 0.540874 0.000000
0.018722 0.535982 0.000000
0.153987 0.510155 0.000000
0.310455 0.479406 0.000000
0.383688 0.474838 0.000000
0.452558 0.472978 0.000000
0.523565 0.471659 0.000000
0.599965 0.467583 0.000000
0.682985 0.460616 0.000000
0.775770 0.449936 0.000000
0.883376 0.434036 0.000000
1.000000 0.412645 0.000000
1.000000 0.393241 0.025273
1.000000 0.379899 0.280835
1.000000 0.382001 0.371955
1.000000 0.387862 0.414923
1.000000 0.394098 0.443874
1.000000 0.400227 0.465393
1.000000 0.406300 0.482197
1.000000 0.412579 0.496551
1.000000 0.419715 0.509210
1.000000 0.429022 0.522129
1.000000 0.441626 0.536698
1.000000 0.459056 0.554455
1.000000 0.483187 0.577138
0.000000 0.545405 0.000000
0.000000 0.550722 0.000000
0.000000 0.556125 0.000000
0.000000 0.562549 0.000000
0.000000 0.570378 0.000000
0.000000 0.579724 0.000000
0.000000 0.590549 0.000000
0.000000 0.602633 0.000000
0.000000 0.615018 0.000000
0.000000 0.618040 0.000000
0.038123 0.611168 0.000000
0.189969 0.581793 0.000000
0.361027 0.548145 0.000000
0.441389 0.542870 0.000000
0.517209 0.540121 0.000000
0.594570 0.535758 0.000000
0.676517 0.529110 0.000000
0.765586 0.519535 0.000000
0.864977 0.506077 0.000000
0.977362 0.487550 0.000000
1.000000 0.466955 0.000000
1.000000 0.462327 0.124813
1.000000 0.450262 0.354637
1.000000 0.451660 0.440778
1.000000 0.456766 0.480362
1.000000 0.462368 0.506850
1.000000 0.468122 0.526713
1.000000 0.474237 0.542643
1.000000 0.481223 0.556745
1.000000 0.490426 0.570680
1.000000 0.502959 0.585925
1.000000 0.520338 0.604173
1.000000 0.544481 0.627232
0.000000 0.607402 0.000000
0.000000 0.612666 0.000000
0.000000 0.618020 0.000000
0.000000 0.624373 0.000000
0.000000 0.632101 0.000000
0.000000 0.641301 0.000000
0.000000 0.651909 0.000000
0.000000 0.663658 0.000000
0.000000 0.677171 0.000000
0.000000 0.689961 0.000000
0.000000 0.692957 0.000000
0.055197 0.684541 0.000000
0.222102 0.652128 0.000000
0.408863 0.615224 0.000000
0.496193 0.609053 0.000000
0.578102 0.603339 0.000000
0.660474 0.596565 0.000000
0.747702 0.587537 0.000000
0.842335 0.575493 0.000000
0.946390 0.559547 0.000000
1.000000 0.540818 0.000000
1.000000 0.530303 0.074483
1.000000 0.526601 0.219583
1.000000 0.515537 0.428192
1.000000 0.516668 0.506200
1.000000 0.521251 0.542245
1.000000 0.526547 0.566457
1.000000 0.532385 0.585057
1.000000 0.539205 0.600772
1.000000 0.548298 0.615765
1.000000 0.560815 0.631799
1.000000 0.578236 0.650685
1.000000 0.602391 0.674242
0.000000 0.666331 0.006133
0.000000 0.671556 0.004633
0.000000 0.676859 0.003047
0.000000 0.683152 0.000924
0.000000 0.690796 0.000000
0.000000 0.699877 0.000000
0.000000 0.710312 0.000000
0.000000 0.721809 0.000000
0.000000 0.734928 0.000000
0.000000 0.749800 0.000000
0.000000 0.763142 0.000000
0.000000 0.766219 0.000000
0.072019 0.756325 0.000000
0.253779 0.720908 0.000000
0.455551 0.680718 0.000000
0.549233 0.671504 0.000000
0.635972 0.663432 0.000000
0.723201 0.654403 0.000000
0.815424 0.643076 0.000000
0.915052 0.628610 0.000000
1.000000 0.610909 0.000000
1.000000 0.595464 0.023285
1.000000 0.590375 0.179674
1.000000 0.587040 0.309852
1.000000 0.576983 0.498038
1.000000 0.578027 0.568256
1.000000 0.582404 0.601079
1.000000 0.587859 0.623510
1.000000 0.594514 0.641455
1.000000 0.603537 0.657925
1.000000 0.615970 0.675073
1.000000 0.633336 0.694654
1.000000 0.657459 0.718790
0.000000 0.722565 0.012300
0.000000 0.727756 0.011141
0.000000 0.733022 0.009922
0.000000 0.739260 0.008342
0.000000 0.746833 0.006105
0.000000 0.755817 0.002939
0.000000 0.766115 0.000000
0.000000 0.777415 0.000000
0.000000 0.790234 0.000000
0.000000 0.804665 0.000000
0.000000 0.820994 0.000000
0.000000 0.835011 0.000000
0.000000 0.838263 0.000000
0.088544 0.826882 0.000000
0.285172 0.788222 0.000000
0.500986 0.742702 0.000000
0.599777 0.731048 0.000000
0.691190 0.720775 0.000000
0.783048 0.709556 0.000000
0.879955 0.695946 0.000000
0.983325 0.679123 0.000000
1.000000 0.660722 0.000000
1.000000 0.651495 0.138934
1.000000 0.647053 0.279800
1.000000 0.644090 0.395894
1.000000 0.635137 0.564693
1.000000 0.636457 0.627657
1.000000 0.641172 0.657729
1.000000 0.647520 0.678993
1.000000 0.656368 0.697359
1.000000 0.668691 0.715781
1.000000 0.685966 0.736380
1.000000 0.710028 0.761134
0.000000 0.776090 0.018163
0.000000 0.781252 0.017296
0.000000 0.786486 0.016383
0.000000 0.792684 0.015204
0.000000 0.800194 0.013582
0.000000 0.809097 0.011229
0.000000 0.819285 0.007846
0.000000 0.830430 0.003022
0.000000 0.843021 0.000000
0.000000 0.857113 0.000000
0.000000 0.872956 0.000000
0.000000 0.890820 0.000000
0.000000 0.905616 0.000000
0.000000 0.909053 0.000000
0.104945 0.895912 0.000000
0.317877 0.851250 0.000000
0.544149 0.801700 0.000000
0.647882 0.787766 0.000000
0.743748 0.775355 0.000000
0.839942 0.761957 0.000000
0.940873 0.746045 0.000000
1.000000 0.726927 0.000000
1.000000 0.712008 0.085079
1.000000 0.704330 0.249605
1.000000 0.700434 0.374702
1.000000 0.697966 0.477990
1.000000 0.690425 0.628484
1.000000 0.692544 0.684805
1.000000 0.698220 0.712704
1.000000 0.706782 0.733906
1.000000 0.718938 0.753984
1.000000 0.736101 0.775693
1.000000 0.760073 0.801320
0.000000 0.826652 0.023697
0.000000 0.831788 0.023079
0.000000 0.836997 0.022427
0.000000 0.843161 0.021575
0.000000 0.850627 0.020396
0.000000 0.859458 0.018748
0.000000 0.869556 0.016261
0.000000 0.880578 0.012652
0.000000 0.892994 0.007421
0.000000 0.906831 0.000000
0.000000 0.922296 0.000000
0.000000 0.939492 0.000000
0.000000 0.958412 0.000000
0.000000 0.973805 0.000000
0.003193 0.977000 0.000000
0.125232 0.959350 0.000000
0.349246 0.910676 0.000000
0.584954 0.857592 0.000000
0.693377 0.841449 0.000000
0.793399 0.826913 0.000000
0.893583 0.811329 0.000000
0.997102 0.793025 0.000000
1.000000 0.773484 0.018511
1.000000 0.760297 0.203259
1.000000 0.753760 0.353657
1.000000 0.750449 0.464956
1.000000 0.748819 0.556374
1.000000 0.743176 0.689564
1.000000 0.746591 0.739830
1.000000 0.754577 0.766727
1.000000 0.766482 0.789286
1.000000 0.783499 0.812445
1.000000 0.807372 0.839060
0.000000 0.873891 0.028862
0.000000 0.879006 0.028457
0.000000 0.884192 0.028031
0.000000 0.890329 0.027456
0.000000 0.897758 0.026636
0.000000 0.906540 0.025463
0.000000 0.916558 0.023781
0.000000 0.927482 0.021144
0.000000 0.939755 0.017283
0.000000 0.953231 0.012114
0.000000 0.968227 0.004597
0.000000 0.984785 0.000000
0.000000 1.000000 0.000000
0.000000 1.000000 0.000000
0.000000 1.000000 0.000000
0.021746 1.000000 0.000000
0.148099 1.000000 0.000000
0.380030 0.965884 0.000000
0.623190 0.910073 0.000000
0.735967 0.891745 0.000000
0.839781 0.875083 0.000000
0.943653 0.857265 0.000000
1.000000 0.836120 0.000000
1.000000 0.817011 0.126731
1.000000 0.805200 0.318495
1.000000 0.799581 0.451769
1.000000 0.797163 0.550573
1.000000 0.796845 0.630972
1.000000 0.793587 0.747325
1.000000 0.799649 0.793260
1.000000 0.811043 0.820857
1.000000 0.827842 0.846178
1.000000 0.851586 0.874068
0.000000 0.917342 0.033609
0.000000 0.922439 0.033387
0.000000 0.927606 0.033143
0.000000 0.933719 0.032802
0.000000 0.941117 0.032290
0.000000 0.949860 0.031516
0.000000 0.959825 0.030348
0.000000 0.970661 0.028587
0.000000 0.982796 0.025890
0.000000 0.995367 0.023932
0.000000 1.000000 0.020822
0.000000 1.000000 0.015529
0.000000 1.000000 0.007004
0.000000 1.000000 0.000000
0.000000 1.000000 0.000000
0.000000 1.000000 0.000000
0.054431 1.000000 0.000000
0.177675 1.000000 0.000000
0.411048 1.000000 0.000000
0.658426 0.958726 0.000000
0.775178 0.938217 0.000000
0.882444 0.919390 0.000000
0.988716 0.898676 0.000000
1.000000 0.874564 0.051914
1.000000 0.856483 0.248161
1.000000 0.846208 0.425937
1.000000 0.841837 0.543182
1.000000 0.840972 0.629001
1.000000 0.842206 0.700816
1.000000 0.842748 0.801404
1.000000 0.852375 0.846499
1.000000 0.868727 0.876231
1.000000 0.892282 0.905990
0.000000 0.956045 0.037831
0.000000 0.961125 0.037777
0.000000 0.966277 0.037688
0.000000 0.972370 0.037542
0.000000 0.979497 0.037833
0.000000 0.987710 0.038503
0.000000 0.996980 0.039233
0.000000 1.000000 0.039639
0.000000 1.000000 0.040000
0.000000 1.000000 0.039239
0.000000 1.000000 0.037804
0.000000 1.000000 0.034844
0.000000 1.000000 0.036800
0.000000 1.000000 0.049872
0.027143 1.000000 0.073772
0.077819 1.000000 0.099185
0.128717 1.000000 0.113293
0.185453 1.000000 0.112679
0.274648 1.000000 0.064065
0.464883 1.000000 0.000000
0.691454 1.000000 0.000000
0.809961 0.979840 0.000000
0.920445 0.958855 0.000000
1.000000 0.935496 0.000000
1.000000 0.908822 0.149980
1.000000 0.891099 0.370889
1.000000 0.882894 0.524735
1.000000 0.880231 0.627682
1.000000 0.881036 0.703749
1.000000 0.885262 0.767821
1.000000 0.890437 0.856975
1.000000 0.905369 0.900775
1.000000 0.928564 0.934099
0.000000 0.989735 0.043772
0.000000 0.994473 0.044568
0.000000 0.999273 0.045376
0.000000 1.000000 0.046173
0.000000 1.000000 0.047031
0.000000 1.000000 0.048298
0.000000 1.000000 0.049713
0.000000 1.000000 0.050938
0.000000 1.000000 0.051949
0.000000 1.000000 0.052577
0.000000 1.000000 0.061875
0.000000 1.000000 0.079818
0.013728 1.000000 0.100863
0.054950 1.000000 0.129723
0.106701 1.000000 0.165775
0.156289 1.000000 0.197074
0.204652 1.000000 0.223046
0.254025 1.000000 0.240082
0.306826 1.000000 0.242746
0.378788 1.000000 0.187797
0.546552 1.000000 0.091435
0.722294 1.000000 0.000000
0.842657 1.000000 0.000000
0.954099 0.993492 0.000000
1.000000 0.967712 0.000000
1.000000 0.939224 0.245553
1.000000 0.922301 0.483008
1.000000 0.916216 0.618356
1.000000 0.915774 0.706757
1.000000 0.919647 0.774321
1.000000 0.927785 0.834123
1.000000 0.939105 0.913660
1.000000 0.961190 0.957968
0.000000 1.000000 0.051478
0.000000 1.000000 0.052539
0.000000 1.000000 0.053613
0.000000 1.000000 0.054864
0.000000 1.000000 0.056309
0.000000 1.000000 0.057928
0.000000 1.000000 0.059631
0.000000 1.000000 0.061231
0.000000 1.000000 0.072571
0.000000 1.000000 0.091046
0.007828 1.000000 0.111637
0.038521 1.000000 0.135829
0.082376 1.000000 0.170641
0.130013 1.000000 0.207739
0.180924 1.000000 0.246374
0.229403 1.000000 0.281083
0.276247 1.000000 0.311717
0.321987 1.000000 0.337746
0.368316 1.000000 0.355880
0.417158 1.000000 0.361214
0.482406 1.000000 0.315299
0.618007 1.000000 0.180065
0.756671 1.000000 0.000000
0.871808 1.000000 0.000000
0.983841 1.000000 0.000000
1.000000 0.992828 0.068060
1.000000 0.964060 0.382489
1.000000 0.950570 0.588212
1.000000 0.947492 0.702690
1.000000 0.950286 0.780937
1.000000 0.958067 0.844266
1.000000 0.971552 0.902358
1.000000 0.990879 0.973953
0.000000 1.000000 0.059517
0.000000 1.000000 0.060655
0.000000 1.000000 0.061808
0.000000 1.000000 0.063154
0.000000 1.000000 0.066429
0.000000 1.000000 0.074510
0.000000 1.000000 0.082656
0.000000 1.000000 0.091157
0.000481 1.000000 0.112164
0.031712 1.000000 0.138565
0.067941 1.000000 0.169016
0.107707 1.000000 0.202214
0.151225 1.000000 0.238062
0.198434 1.000000 0.276476
0.248791 1.000000 0.316817
0.296552 1.000000 0.353737
0.342425 1.000000 0.387357
0.386834 1.000000 0.417476
0.429988 1.000000 0.443411
0.473389 1.000000 0.462449
0.518293 1.000000 0.469966
0.576732 1.000000 0.432380
0.678010 1.000000 0.266592
0.800651 1.000000 0.089511
0.900250 1.000000 0.000000
1.000000 1.000000 0.000000
1.000000 1.000000 0.209322
1.000000 0.986840 0.510662
1.000000 0.977754 0.683236
1.000000 0.978354 0.783187
1.000000 0.985194 0.855831
1.000000 0.998315 0.917520
1.000000 1.000000 0.976281
0.000000 1.000000 0.068590
0.000000 1.000000 0.072835
0.000000 1.000000 0.077170
0.000000 1.000000 0.082552
0.000000 1.000000 0.089851
0.000000 1.000000 0.100423
0.007729 1.000000 0.121831
0.034410 1.000000 0.144917
0.064186 1.000000 0.170605
0.096986 1.000000 0.198782
0.133079 1.000000 0.229651
0.172678 1.000000 0.263360
0.215938 1.000000 0.300002
0.262850 1.000000 0.339329
0.312834 1.000000 0.380818
0.360119 1.000000 0.419205
0.405363 1.000000 0.454765
0.449036 1.000000 0.487605
0.491474 1.000000 0.517553
0.532306 1.000000 0.543562
0.572858 1.000000 0.563388
0.613602 1.000000 0.572647
0.663277 1.000000 0.543496
0.748416 1.000000 0.409936
0.848263 1.000000 0.225125
0.930930 1.000000 0.104448
