luts/-UTILITY/LOG_to_Rec709/Canon_LOG_CinGamut_Rec709_WDR.cube
# Gamut : Cinema Gamut to BT.709
# Gamma : Canon Log to Wide DR
# Version : 1.0
# Created by Canon Inc. CD_v3
LUT_3D_SIZE 9
0.000000 0.000000 0.000000 
0.079094 0.000000 0.001118 
0.308167 0.000559 0.000000 
0.503822 0.000000 0.003597 
0.665139 0.000000 0.019096 
0.780760 0.006742 0.054952 
0.862020 0.053511 0.104689 
0.921932 0.107002 0.152209 
0.953253 0.127870 0.170299 
0.000000 0.079695 0.001970 
0.088434 0.081216 0.000000 
0.306895 0.090827 0.000000 
0.539751 0.054141 0.000000 
0.697222 0.020051 0.000000 
0.800318 0.006579 0.024390 
0.868615 0.057500 0.098451 
0.922913 0.108950 0.153542 
0.954431 0.128398 0.170855 
0.008175 0.310755 0.000000 
0.097422 0.312854 0.000000 
0.320655 0.309552 0.000000 
0.507583 0.308716 0.000000 
0.684942 0.244852 0.000000 
0.813432 0.054381 0.000000 
0.883299 0.049621 0.028325 
0.923921 0.112588 0.124361 
0.956021 0.130484 0.169604 
0.019197 0.503811 0.000000 
0.042313 0.514275 0.000000 
0.302128 0.506349 0.000000 
0.512510 0.503635 0.000000 
0.711545 0.474623 0.015772 
0.854399 0.399078 0.063535 
0.899326 0.161151 0.000000 
0.932764 0.098614 0.041588 
0.954840 0.144224 0.137884 
0.011780 0.661632 0.000000 
0.011300 0.665561 0.000000 
0.167942 0.666754 0.000000 
0.442408 0.669318 0.006346 
0.667744 0.661166 0.000000 
0.890124 0.611130 0.038154 
1.000000 0.528650 0.183862 
0.997825 0.315964 0.076616 
0.957745 0.222842 0.119153 
0.000000 0.784293 0.001192 
0.000000 0.786257 0.001314 
0.000000 0.789201 0.001490 
0.297209 0.791926 0.008192 
0.554789 0.802047 0.061858 
0.788882 0.783796 0.000000 
1.000000 0.716851 0.049927 
1.000000 0.614437 0.238136 
1.000000 0.534633 0.356997 
0.047260 0.877519 0.043043 
0.051136 0.877405 0.045287 
0.057633 0.879171 0.049323 
0.071588 0.880721 0.057853 
0.404147 0.895683 0.107573 
0.639276 0.905434 0.113410 
0.881867 0.877772 0.000000 
1.000000 0.785993 0.054894 
1.000000 0.666428 0.264264 
0.181413 0.942169 0.139168 
0.183323 0.943082 0.140857 
0.187291 0.942932 0.144058 
0.193937 0.943659 0.149789 
0.127749 0.946765 0.075465 
0.481291 0.972241 0.199980 
0.693658 0.973421 0.152588 
0.933355 0.929895 0.000000 
1.000000 0.826726 0.054500 
0.242341 0.968111 0.191393 
0.242338 0.968111 0.191394 
0.243253 0.968067 0.192147 
0.243242 0.968068 0.192153 
0.245033 0.968966 0.193723 
0.144165 0.974759 0.071257 
0.517924 1.000000 0.233423 
0.723297 1.000000 0.168394 
0.965121 0.961972 0.000000 
0.041192 0.000000 0.121183 
0.022801 0.001304 0.017828 
0.266165 0.003128 0.128012 
0.484288 0.000000 0.183645 
0.655323 0.000000 0.186560 
0.775892 0.016223 0.169862 
0.862000 0.056715 0.150720 
0.921932 0.107003 0.152207 
0.953254 0.127868 0.170302 
0.000000 0.058750 0.052101 
0.062501 0.062501 0.062501 
0.404963 0.000000 0.064262 
0.568709 0.000000 0.100215 
0.687444 0.003065 0.118389 
0.788179 0.025184 0.126883 
0.866522 0.062901 0.131721 
0.922913 0.108949 0.153543 
0.954428 0.128409 0.170838 
0.000000 0.307029 0.109947 
0.000000 0.325611 0.036403 
0.296515 0.312002 0.000000 
0.551295 0.270505 0.000000 
0.717005 0.136680 0.000000 
0.819814 0.019708 0.000000 
0.883421 0.049229 0.028118 
0.923917 0.112603 0.124337 
0.956018 0.130493 0.169592 
0.000000 0.505848 0.026171 
0.000000 0.514275 0.013744 
0.268152 0.509538 0.000000 
0.507474 0.503708 0.000000 
0.711050 0.473855 0.015602 
0.853836 0.398459 0.062651 
0.899228 0.160589 0.000000 
0.932759 0.098629 0.041570 
0.953910 0.144035 0.137566 
0.011892 0.660650 0.000000 
0.011308 0.665561 0.000000 
0.167329 0.665762 0.000000 
0.441653 0.668303 0.006158 
0.667009 0.660402 0.000000 
0.889757 0.610900 0.038217 
1.000000 0.528470 0.184046 
0.997832 0.315956 0.076638 
0.957633 0.221965 0.118219 
0.000000 0.784293 0.001189 
0.000000 0.786257 0.001315 
0.000000 0.789201 0.001487 
0.297171 0.791929 0.008221 
0.554768 0.802050 0.061880 
0.788672 0.783573 0.000000 
1.000000 0.716849 0.049930 
1.000000 0.614431 0.238150 
1.000000 0.534636 0.356991 
0.047254 0.877519 0.043045 
0.051129 0.877405 0.045289 
0.057624 0.879172 0.049327 
0.071587 0.880721 0.057853 
0.404134 0.895684 0.107587 
0.639259 0.905437 0.113431 
0.881867 0.877772 0.000000 
1.000000 0.785992 0.054894 
1.000000 0.666424 0.264273 
0.180414 0.942206 0.138363 
0.182334 0.943118 0.140050 
0.187285 0.942933 0.144061 
0.193937 0.943659 0.149788 
0.127748 0.946765 0.075466 
0.481283 0.972241 0.199987 
0.693658 0.973421 0.152588 
0.933355 0.929895 0.000000 
1.000000 0.826727 0.054498 
0.242342 0.968111 0.191392 
0.242340 0.968111 0.191393 
0.243250 0.968067 0.192149 
0.243244 0.968068 0.192152 
0.245031 0.968966 0.193724 
0.144168 0.974759 0.071255 
0.517919 1.000000 0.233427 
0.723300 1.000000 0.168392 
0.965121 0.961972 0.000000 
0.074882 0.000000 0.161409 
0.024633 0.000000 0.030514 
0.236478 0.001396 0.200919 
0.451450 0.006730 0.294156 
0.644095 0.000000 0.318892 
0.782575 0.003997 0.297916 
0.879726 0.033024 0.263629 
0.945665 0.076206 0.228401 
0.961256 0.119171 0.188155 
0.000000 0.048828 0.253623 
0.036134 0.006836 0.369146 
0.380187 0.000431 0.345487 
0.542540 0.001744 0.320999 
0.683689 0.000000 0.304219 
0.797716 0.009444 0.282015 
0.885493 0.038234 0.256642 
0.948177 0.079128 0.225661 
0.960105 0.121351 0.184876 
0.000000 0.287113 0.269103 
0.000000 0.304680 0.288429 
0.291997 0.291997 0.291997 
0.583159 0.212632 0.272030 
0.726380 0.082872 0.233656 
0.810237 0.089567 0.232138 
0.883435 0.101455 0.223176 
0.938549 0.104613 0.200117 
0.958701 0.127145 0.176778 
0.000000 0.493840 0.309855 
0.000000 0.504299 0.311394 
0.029923 0.519415 0.202916 
0.475305 0.507177 0.095428 
0.759328 0.412806 0.118799 
0.856322 0.235300 0.066504 
0.892961 0.219533 0.154520 
0.928124 0.179381 0.150372 
0.953910 0.144035 0.137566 
0.004495 0.657072 0.267051 
0.009820 0.661763 0.270196 
0.033132 0.667704 0.200400 
0.316029 0.676700 0.023910 
0.645615 0.665419 0.002070 
0.908772 0.596551 0.055495 
1.000000 0.508060 0.198121 
0.997514 0.315262 0.075772 
0.957518 0.219902 0.116076 
0.000000 0.784293 0.001186 
0.000000 0.785276 0.001259 
0.000000 0.789201 0.001489 
0.296750 0.791879 0.007769 
0.554255 0.801186 0.062281 
0.787914 0.782817 0.000000 
1.000000 0.716847 0.049934 
1.000000 0.614425 0.238164 
1.000000 0.533819 0.356026 
0.046453 0.876565 0.042408 
0.050164 0.877434 0.044728 
0.057760 0.878189 0.049263 
0.070660 0.880748 0.057289 
0.404103 0.895687 0.107622 
0.639240 0.905441 0.113453 
0.881867 0.877772 0.000000 
1.000000 0.785982 0.054913 
1.000000 0.666422 0.264278 
0.180416 0.942206 0.138361 
0.182327 0.943118 0.140054 
0.186300 0.942970 0.143260 
0.192972 0.943697 0.148989 
0.126865 0.946789 0.074894 
0.481267 0.972243 0.200001 
0.693641 0.973424 0.152607 
0.933355 0.929895 0.000000 
1.000000 0.826726 0.054500 
0.242340 0.968111 0.191393 
0.242339 0.968111 0.191394 
0.243249 0.968067 0.192149 
0.243246 0.968068 0.192151 
0.245029 0.968967 0.193725 
0.144163 0.974759 0.071257 
0.517922 1.000000 0.233424 
0.723297 1.000000 0.168395 
0.965121 0.961972 0.000000 
0.088315 0.000000 0.182259 
0.000014 0.000000 0.000000 
0.210118 0.000000 0.239095 
0.421766 0.000776 0.374327 
0.632197 0.000000 0.435176 
0.797857 0.000000 0.420190 
0.914814 0.000000 0.371232 
0.989133 0.000000 0.313480 
1.000000 0.046926 0.255546 
0.000000 0.006965 0.417208 
0.097110 0.000000 0.530420 
0.333204 0.000000 0.459598 
0.509929 0.000000 0.461618 
0.679639 0.000000 0.453135 
0.819746 0.000000 0.416900 
0.923944 0.000000 0.368472 
0.993101 0.000000 0.312452 
1.000000 0.048649 0.253955 
0.000000 0.265671 0.423924 
0.000000 0.272538 0.482068 
0.273932 0.239126 0.552613 
0.582009 0.125799 0.540748 
0.742624 0.020645 0.452011 
0.844256 0.013093 0.392322 
0.927172 0.012672 0.344479 
0.991466 0.010351 0.295489 
1.000000 0.054807 0.249270 
0.000000 0.477545 0.452296 
0.000000 0.488287 0.463180 
0.027710 0.500992 0.480437 
0.482414 0.482434 0.482428 
0.723337 0.407538 0.444408 
0.850670 0.256665 0.353432 
0.916083 0.249583 0.339123 
0.967066 0.233400 0.310605 
0.990475 0.091715 0.220062 
0.070332 0.649490 0.457589 
0.078013 0.653214 0.461112 
0.105130 0.659191 0.442946 
0.236353 0.672263 0.354794 
0.635020 0.663630 0.310631 
0.910461 0.568618 0.343271 
0.943506 0.401085 0.283787 
0.945211 0.362403 0.302551 
0.964143 0.149278 0.150983 
0.211226 0.773783 0.414484 
0.215347 0.774588 0.415926 
0.221009 0.778277 0.418953 
0.259962 0.784008 0.353362 
0.433028 0.802875 0.216029 
0.765443 0.788119 0.162775 
1.000000 0.702693 0.203134 
1.000000 0.591405 0.295918 
1.000000 0.546347 0.397437 
0.069050 0.875906 0.070124 
0.068809 0.876891 0.067411 
0.067564 0.877904 0.061339 
0.069729 0.880776 0.056725 
0.403435 0.894663 0.107122 
0.639203 0.905447 0.113498 
0.881843 0.877779 0.000000 
1.000000 0.785320 0.054969 
1.000000 0.666420 0.264281 
0.179417 0.942243 0.137554 
0.181336 0.943155 0.139246 
0.186298 0.942970 0.143261 
0.192981 0.943696 0.148984 
0.126979 0.946786 0.074849 
0.480888 0.972121 0.199447 
0.693624 0.973427 0.152626 
0.933355 0.929895 0.000000 
1.000000 0.826726 0.054501 
0.242345 0.968111 0.191391 
0.242340 0.968111 0.191393 
0.243256 0.968067 0.192146 
0.243244 0.968068 0.192152 
0.245033 0.968966 0.193723 
0.144165 0.974759 0.071256 
0.517920 1.000000 0.233426 
0.723295 1.000000 0.168397 
0.965095 0.961979 0.000000 
0.093482 0.000000 0.190556 
0.130439 0.000000 0.224137 
0.156852 0.000000 0.221099 
0.381853 0.000000 0.425618 
0.601787 0.000000 0.539863 
0.789737 0.000000 0.552599 
0.935435 0.000000 0.501322 
1.000000 0.000000 0.422806 
1.000000 0.000000 0.339146 
0.108584 0.000000 0.486993 
0.175386 0.000000 0.469227 
0.244121 0.000000 0.408385 
0.459132 0.000000 0.546545 
0.644555 0.000000 0.581842 
0.813074 0.000000 0.561651 
0.946377 0.000000 0.502390 
1.000000 0.000000 0.423559 
1.000000 0.000000 0.338275 
0.000000 0.192484 0.601173 
0.009874 0.184912 0.633740 
0.211830 0.099136 0.716299 
0.499411 0.031022 0.708424 
0.697320 0.022130 0.639563 
0.847182 0.000000 0.567605 
0.960544 0.000000 0.489070 
1.000000 0.000000 0.410562 
1.000000 0.000000 0.334991 
0.027389 0.443456 0.606658 
0.045199 0.452519 0.622106 
0.198476 0.446249 0.668757 
0.466181 0.430576 0.697161 
0.726611 0.335082 0.681388 
0.888486 0.179658 0.567059 
0.967806 0.163346 0.484309 
1.000000 0.150573 0.420926 
1.000000 0.000000 0.309993 
0.018721 0.639711 0.607835 
0.019440 0.644596 0.612418 
0.021044 0.650485 0.620240 
0.207740 0.660281 0.636872 
0.644546 0.644540 0.644541 
0.833148 0.586725 0.609841 
0.948978 0.410596 0.476321 
0.992633 0.376331 0.437513 
1.000000 0.029915 0.259680 
0.222221 0.769508 0.571253 
0.223290 0.771444 0.572879 
0.227624 0.775247 0.576011 
0.300362 0.778982 0.560282 
0.423066 0.788436 0.500691 
0.764927 0.783671 0.497614 
1.000000 0.701451 0.520178 
1.000000 0.616263 0.531078 
0.981865 0.557478 0.502122 
0.352325 0.862667 0.523782 
0.353127 0.863609 0.524434 
0.355895 0.864443 0.525823 
0.359452 0.867202 0.528045 
0.439497 0.872382 0.493613 
0.558120 0.899985 0.374922 
0.863955 0.881359 0.323983 
1.000000 0.780781 0.321445 
1.000000 0.704996 0.486159 
0.316757 0.935597 0.309818 
0.317243 0.935563 0.309570 
0.317249 0.936545 0.308554 
0.318038 0.937473 0.307134 
0.306034 0.939190 0.282047 
0.446972 0.971178 0.197988 
0.687313 0.975055 0.158292 
0.933355 0.929895 0.000000 
1.000000 0.826716 0.054520 
0.242345 0.968111 0.191390 
0.242344 0.968111 0.191391 
0.242337 0.968111 0.191395 
0.243243 0.968068 0.192153 
0.245035 0.968966 0.193722 
0.143300 0.974783 0.070706 
0.517917 1.000000 0.233429 
0.723291 1.000000 0.168401 
0.965095 0.961979 0.000000 
0.096103 0.000000 0.194682 
0.114366 0.000000 0.212472 
0.031846 0.000000 0.052197 
0.319868 0.000000 0.420993 
0.546133 0.001717 0.604978 
0.744664 0.000000 0.670494 
0.918055 0.000000 0.646767 
1.000000 0.000000 0.563324 
1.000000 0.000000 0.454807 
0.088050 0.000000 0.241996 
0.145644 0.000000 0.326277 
0.226020 0.000000 0.400008 
0.398649 0.000000 0.562690 
0.582466 0.011163 0.661873 
0.763671 0.000000 0.690546 
0.928983 0.000000 0.651938 
1.000000 0.000000 0.564504 
1.000000 0.000000 0.454397 
0.000000 0.011736 0.702239 
0.016700 0.000000 0.719556 
0.222445 0.000000 0.722692 
0.357956 0.000000 0.628102 
0.619782 0.050477 0.746356 
0.793262 0.000000 0.720569 
0.945403 0.000000 0.654043 
1.000000 0.000000 0.556966 
1.000000 0.000000 0.452242 
0.186556 0.363165 0.722185 
0.209300 0.369450 0.730448 
0.268142 0.341383 0.749330 
0.411944 0.314296 0.825030 
0.640381 0.219502 0.869193 
0.829943 0.188281 0.764612 
0.965774 0.104605 0.664465 
1.000000 0.030524 0.564380 
1.000000 0.000000 0.432232 
0.162838 0.601085 0.782342 
0.165752 0.605732 0.788212 
0.216878 0.606834 0.807245 
0.403590 0.600529 0.820952 
0.636015 0.603398 0.810075 
0.838865 0.524252 0.795119 
0.989720 0.353828 0.670213 
1.000000 0.335220 0.577992 
1.000000 0.000000 0.405440 
0.042863 0.765782 0.728576 
0.041652 0.768699 0.731228 
0.043583 0.771644 0.734278 
0.158589 0.775599 0.742276 
0.364108 0.783438 0.758718 
0.769548 0.769542 0.769542 
0.916425 0.724138 0.740035 
1.000000 0.602261 0.634637 
1.000000 0.545154 0.571698 
0.307384 0.864523 0.657700 
0.307805 0.865495 0.658537 
0.309340 0.866442 0.659548 
0.312308 0.869304 0.661902 
0.440276 0.871032 0.660521 
0.583523 0.878984 0.636070 
0.866546 0.877591 0.653908 
1.000000 0.812604 0.673332 
1.000000 0.760541 0.703702 
0.442079 0.929242 0.601174 
0.442140 0.929237 0.601138 
0.442976 0.929194 0.601441 
0.444514 0.930098 0.602407 
0.449717 0.931628 0.600615 
0.587584 0.937476 0.619422 
0.675720 0.963956 0.518636 
0.930571 0.941725 0.451497 
1.000000 0.845118 0.461716 
0.417983 0.958543 0.408735 
0.418147 0.958528 0.408644 
0.417694 0.958556 0.407886 
0.417523 0.958559 0.406971 
0.416366 0.959621 0.404703 
0.386802 0.962578 0.363313 
0.452136 1.000000 0.218101 
0.708454 1.000000 0.180937 
0.964275 0.963482 0.000000 
0.098233 0.000000 0.197889 
0.106550 0.000000 0.205814 
0.132534 0.000000 0.230846 
0.194851 0.000000 0.291980 
0.469776 0.000000 0.609024 
0.676467 0.017960 0.746563 
0.859734 0.000000 0.775458 
1.000000 0.000000 0.719028 
1.000000 0.000000 0.605992 
0.120623 0.000000 0.271858 
0.000011 0.000000 0.000000 
0.154837 0.000000 0.289435 
0.305321 0.000000 0.477812 
0.511148 0.017278 0.680240 
0.694138 0.023643 0.772274 
0.868401 0.000000 0.784368 
1.000000 0.000000 0.721231 
1.000000 0.000000 0.606212 
0.202543 0.000000 0.642388 
0.225527 0.000000 0.634501 
0.262649 0.000000 0.600927 
0.304173 0.000000 0.563575 
0.466544 0.013654 0.671745 
0.712931 0.048998 0.815934 
0.881216 0.000000 0.799042 
1.000000 0.000000 0.721862 
1.000000 0.000000 0.605763 
0.123300 0.159845 0.777705 
0.141940 0.162073 0.779811 
0.176165 0.111932 0.794782 
0.235213 0.003906 0.877001 
0.461316 0.046591 0.804888 
0.711589 0.164088 0.852503 
0.900636 0.155196 0.822131 
1.000000 0.027364 0.732423 
1.000000 0.000000 0.593275 
0.373188 0.496832 0.816697 
0.377711 0.500061 0.819087 
0.387975 0.489093 0.817858 
0.437901 0.471826 0.826739 
0.595847 0.502942 0.907101 
0.753112 0.395945 0.954570 
0.925865 0.351628 0.856471 
1.000000 0.309595 0.748498 
1.000000 0.000000 0.585193 
0.217187 0.725113 0.931191 
0.218026 0.726983 0.933584 
0.219824 0.730616 0.938248 
0.339574 0.728690 0.949141 
0.535281 0.713601 0.930319 
0.764476 0.737056 0.896762 
0.922428 0.675131 0.883829 
1.000000 0.508782 0.762605 
1.000000 0.539876 0.687424 
0.068971 0.864523 0.823073 
0.069394 0.865500 0.823924 
0.067916 0.867437 0.825646 
0.069313 0.869408 0.827984 
0.310468 0.872395 0.837693 
0.530211 0.878265 0.854758 
0.867206 0.867199 0.867200 
0.976105 0.831360 0.842296 
1.000000 0.760389 0.773935 
0.368528 0.934868 0.721700 
0.368497 0.934870 0.721719 
0.368909 0.935843 0.722548 
0.370213 0.936805 0.723545 
0.373944 0.937595 0.722361 
0.573554 0.940099 0.751990 
0.717101 0.946390 0.752728 
0.940349 0.946514 0.776497 
1.000000 0.887160 0.802570 
0.483524 0.962971 0.639905 
0.483561 0.962968 0.639882 
0.483659 0.962959 0.639820 
0.483806 0.962945 0.639727 
0.484710 0.963874 0.640247 
0.488194 0.964348 0.634579 
0.502886 0.968260 0.563060 
0.764982 1.000000 0.629226 
0.955203 1.000000 0.211281 
0.100375 0.000000 0.201089 
0.104295 0.000000 0.204586 
0.113517 0.000000 0.213248 
0.146388 0.000000 0.245778 
0.343216 0.000000 0.497945 
0.597089 0.035338 0.764647 
0.781357 0.035681 0.860579 
0.947867 0.000000 0.855784 
1.000000 0.000000 0.772870 
0.105392 0.000000 0.228223 
0.107642 0.000000 0.226590 
0.127110 0.000000 0.247007 
0.147487 0.000000 0.259339 
0.385932 0.000000 0.573494 
0.595706 0.039204 0.770768 
0.789731 0.038318 0.870618 
0.951809 0.000000 0.859663 
1.000000 0.000000 0.772941 
0.122345 0.000000 0.297886 
0.188141 0.000000 0.404899 
0.245745 0.000000 0.490402 
0.268679 0.000000 0.492170 
0.332373 0.000000 0.534225 
0.566885 0.038819 0.759956 
0.796767 0.049399 0.891801 
0.956875 0.000000 0.866432 
1.000000 0.000000 0.773399 
0.177138 0.000000 0.756711 
0.190174 0.000000 0.758530 
0.246757 0.000000 0.740828 
0.304200 0.000000 0.724710 
0.364830 0.000000 0.683433 
0.521337 0.036128 0.756949 
0.786003 0.137378 0.895307 
0.965160 0.112496 0.877166 
1.000000 0.000000 0.770787 
0.266184 0.266681 0.821980 
0.272850 0.270665 0.823012 
0.283375 0.262717 0.826512 
0.307119 0.233268 0.855146 
0.320282 0.093702 0.967259 
0.552517 0.125799 0.948526 
0.775588 0.170438 0.936258 
0.977351 0.324504 0.896192 
1.000000 0.000000 0.762394 
0.462366 0.579275 0.887599 
0.464345 0.580899 0.889087 
0.467127 0.583397 0.891680 
0.491635 0.575341 0.887436 
0.567488 0.586693 0.908264 
0.724231 0.644814 0.957741 
0.841772 0.558675 0.995523 
0.992601 0.504000 0.924179 
1.000000 0.520281 0.820329 
0.241457 0.823605 1.000000 
0.241438 0.824464 1.000000 
0.241839 0.825397 1.000000 
0.242782 0.827250 1.000000 
0.445389 0.810173 1.000000 
0.630937 0.804621 1.000000 
0.859401 0.837852 0.957570 
0.982091 0.794156 0.950274 
1.000000 0.750172 0.865933 
0.091761 0.937858 0.893231 
0.094070 0.937878 0.893270 
0.092264 0.938835 0.894074 
0.092869 0.939812 0.894882 
0.093401 0.941786 0.897542 
0.464783 0.943804 0.910208 
0.671026 0.947641 0.926902 
0.939473 0.939466 0.939467 
0.994643 0.892795 0.900153 
0.400845 0.977504 0.759660 
0.400577 0.978474 0.760244 
0.401403 0.978469 0.760393 
0.401490 0.978464 0.760338 
0.401694 0.978453 0.760210 
0.406307 0.980096 0.758144 
0.445745 0.980815 0.725937 
0.858054 0.988333 0.874891 
0.988554 0.992133 0.877867 
0.101719 0.000000 0.203134 
0.103818 0.000000 0.205199 
0.108128 0.000000 0.208898 
0.118755 0.000000 0.218821 
0.157973 0.000000 0.259357 
0.446469 0.000000 0.639957 
0.641564 0.051455 0.817659 
0.840622 0.047609 0.922151 
1.000000 0.000000 0.915321 
0.104456 0.000000 0.216794 
0.107008 0.000000 0.219011 
0.113153 0.000000 0.224492 
0.128945 0.000000 0.239576 
0.121094 0.000000 0.218130 
0.443465 0.000000 0.643352 
0.643509 0.052924 0.822233 
0.842106 0.048510 0.924513 
1.000000 0.000000 0.917324 
0.113558 0.000000 0.252888 
0.119092 0.000000 0.259332 
0.134659 0.000000 0.275989 
0.079477 0.000000 0.175310 
0.255368 0.000000 0.429288 
0.419248 0.000000 0.630346 
0.633776 0.054552 0.823967 
0.840988 0.052040 0.929151 
1.000000 0.000000 0.920323 
0.254986 0.000000 0.576628 
0.260020 0.000000 0.584158 
0.271056 0.000000 0.587962 
0.289237 0.000000 0.590713 
0.314954 0.000000 0.586838 
0.366523 0.000000 0.595226 
0.613443 0.057367 0.826236 
0.837362 0.061383 0.938593 
1.000000 0.000000 0.926193 
0.157503 0.000000 0.838859 
0.158100 0.000000 0.841772 
0.173809 0.000000 0.837523 
0.255679 0.000000 0.834532 
0.341852 0.005233 0.825116 
0.420079 0.020352 0.786174 
0.577741 0.063790 0.838612 
0.832114 0.078501 0.958219 
1.000000 0.000000 0.932587 
0.374514 0.355141 0.852882 
0.376704 0.356810 0.854572 
0.383415 0.361727 0.856692 
0.398302 0.357131 0.869287 
0.425033 0.339270 0.900823 
0.512273 0.322038 1.000000 
0.634592 0.205529 1.000000 
0.831746 0.126118 1.000000 
1.000000 0.277408 0.940518 
0.525451 0.644166 0.952747 
0.526208 0.645045 0.953894 
0.527944 0.646690 0.955634 
0.530822 0.649130 0.958480 
0.568845 0.650950 0.970518 
0.668315 0.684629 1.000000 
0.803582 0.736680 0.988332 
0.898497 0.669778 1.000000 
1.000000 0.701137 0.960017 
0.238396 0.870032 1.000000 
0.238452 0.870026 1.000000 
0.238719 0.870973 1.000000 
0.238922 0.870953 1.000000 
0.246310 0.872165 1.000000 
0.350922 0.861413 1.000000 
0.748373 0.878337 1.000000 
0.914879 0.897730 0.991188 
1.000000 0.876925 0.977814 
0.116849 0.992658 0.945081 
0.117046 0.992658 0.945019 
0.117130 0.992658 0.944993 
0.119807 0.992680 0.944947 
0.122662 0.992703 0.944841 
0.502156 0.992803 0.953941 
0.724026 0.992737 0.968134 
0.881963 0.992502 0.981934 
0.992209 0.992201 0.992202 
