luts/-UTILITY/LOG_to_Rec709/Canon_LOG2_Rec709_WDR.cube
# Rec.709/CanonLog2 to Rec.709/WDR, full range in and out CD_v6
# Converted by Nick Shaw of Antler Post
LUT_3D_SIZE 5
0.000000 0.000000 0.000000
0.198233 0.000000 0.000000
0.652965 0.000000 0.000000
1.000000 0.000000 0.000000
1.000000 0.000000 0.000000
0.000000 0.198233 0.000000
0.198233 0.198233 0.000000
0.652965 0.209343 0.000000
1.000000 0.194988 0.012722
1.000000 0.186892 0.092924
0.000000 0.652965 0.000000
0.225749 0.652965 0.000000
0.652965 0.652965 0.000000
1.000000 0.617613 0.330767
1.000000 0.605595 0.449815
0.000000 1.000000 0.000000
0.189565 1.000000 0.006103
0.564947 1.000000 0.239759
1.000000 1.000000 0.000000
1.000000 0.943844 0.658044
0.000000 1.000000 0.000000
0.167278 1.000000 0.071732
0.749228 1.000000 0.647787
1.000000 1.000000 1.000000
1.000000 1.000000 1.000000
0.000000 0.000000 0.198233
0.198233 0.000000 0.198233
0.652965 0.000000 0.267626
1.000000 0.000000 0.170915
1.000000 0.000000 0.092770
0.000000 0.198233 0.198233
0.198233 0.198233 0.198233
0.652965 0.198233 0.198233
1.000000 0.198233 0.198233
1.000000 0.198233 0.198233
0.000000 0.652965 0.259763
0.198233 0.652965 0.198233
0.652965 0.652965 0.198233
1.000000 0.625852 0.466810
1.000000 0.619220 0.532503
0.000000 1.000000 0.175094
0.198233 1.000000 0.198233
0.582547 1.000000 0.405586
1.000000 1.000000 0.198233
1.000000 0.958291 0.732588
0.010379 1.000000 0.110494
0.198233 1.000000 0.198233
0.769528 1.000000 0.715033
1.000000 1.000000 1.000000
1.000000 1.000000 1.000000
0.000000 0.000000 0.652965
0.261025 0.000000 0.652965
0.652965 0.000000 0.652965
1.000000 0.003296 0.427968
1.000000 0.021196 0.250641
0.000000 0.223500 0.652965
0.198233 0.198233 0.652965
0.652965 0.198233 0.652965
1.000000 0.218695 0.450273
1.000000 0.229044 0.347754
0.000000 0.652965 0.652965
0.198233 0.652965 0.652965
0.652965 0.652965 0.652965
1.000000 0.652965 0.652965
1.000000 0.652965 0.652965
0.048161 1.000000 0.453972
0.257691 1.000000 0.477884
0.652965 1.000000 0.652965
1.000000 1.000000 0.652965
1.000000 0.992695 0.846525
0.096135 1.000000 0.312707
0.607988 1.000000 0.674061
1.000000 1.000000 1.000000
1.000000 1.000000 1.000000
1.000000 1.000000 1.000000
0.000000 0.000000 1.000000
0.174449 0.000000 1.000000
0.449807 0.040972 1.000000
1.000000 0.000000 1.000000
1.000000 0.025304 0.569226
0.007071 0.190359 1.000000
0.198233 0.198233 1.000000
0.473548 0.251566 1.000000
1.000000 0.198233 1.000000
1.000000 0.235759 0.640500
0.252286 0.572199 1.000000
0.414325 0.588730 1.000000
0.652965 0.652965 1.000000
1.000000 0.652965 1.000000
1.000000 0.667832 0.864959
0.000000 1.000000 1.000000
0.198233 1.000000 1.000000
0.652965 1.000000 1.000000
1.000000 1.000000 1.000000
1.000000 1.000000 1.000000
0.509923 1.000000 0.805009
0.624211 1.000000 0.842504
1.000000 1.000000 1.000000
1.000000 1.000000 1.000000
1.000000 1.000000 1.000000
0.000000 0.000000 1.000000
0.107797 0.007465 1.000000
0.303132 0.084573 1.000000
0.613039 0.099246 1.000000
1.000000 0.000000 1.000000
0.074888 0.170199 1.000000
0.198233 0.198233 1.000000
0.390095 0.276373 1.000000
0.679743 0.297069 1.000000
1.000000 0.198233 1.000000
0.367957 0.537814 1.000000
0.477443 0.569967 1.000000
0.652965 0.652965 1.000000
0.882012 0.691675 1.000000
1.000000 0.652965 1.000000
0.508428 0.855327 1.000000
0.620575 0.886689 1.000000
0.808969 0.965862 1.000000
1.000000 1.000000 1.000000
1.000000 1.000000 1.000000
0.430364 1.000000 1.000000
0.557385 1.000000 1.000000
1.000000 1.000000 1.000000
1.000000 1.000000 1.000000
1.000000 1.000000 1.000000
