luts/-UTILITY/LOG_to_Rec709/Canon_LOG_Rec709_WDR.cube
# Gamut : BT.709
# Gamma : Canon Log to Wide DR
# Version : 1.0
# Created by Canon Inc. CD_v3
LUT_3D_SIZE 9
0.000000 0.000000 0.000000 
0.062315 0.000383 0.000000 
0.283721 0.008588 0.000000 
0.465086 0.026176 0.000000 
0.623525 0.042065 0.000000 
0.748009 0.052057 0.000000 
0.845783 0.059053 0.000000 
0.918334 0.063741 0.000000 
0.971351 0.066902 0.000000 
0.007977 0.060672 0.000000 
0.069551 0.060533 0.000000 
0.245606 0.096555 0.000000 
0.440753 0.119307 0.000000 
0.611013 0.127133 0.000000 
0.743043 0.125621 0.000000 
0.845475 0.122122 0.000000 
0.920783 0.118856 0.000000 
0.975355 0.116683 0.000000 
0.032397 0.288647 0.000000 
0.151975 0.281889 0.000000 
0.302258 0.288972 0.000000 
0.457133 0.305222 0.000000 
0.626558 0.305799 0.000000 
0.766068 0.295442 0.000000 
0.873242 0.284863 0.014179 
0.951043 0.276636 0.030608 
1.000000 0.271152 0.041184 
0.046455 0.479658 0.000000 
0.170325 0.475434 0.000000 
0.330790 0.475975 0.000000 
0.490684 0.480003 0.000000 
0.662697 0.474482 0.006588 
0.817708 0.454457 0.053376 
0.934309 0.435153 0.120170 
1.000000 0.421543 0.170452 
1.000000 0.413146 0.196442 
0.053531 0.642239 0.000000 
0.163848 0.639944 0.000000 
0.318620 0.641538 0.000000 
0.476251 0.645759 0.004604 
0.651291 0.642559 0.000000 
0.840481 0.616037 0.018169 
0.997782 0.578178 0.126388 
1.000000 0.549215 0.226635 
1.000000 0.532445 0.279535 
0.057008 0.767543 0.000000 
0.146052 0.766568 0.000000 
0.291328 0.769600 0.000506 
0.436436 0.776348 0.044470 
0.591249 0.781053 0.044374 
0.775359 0.767836 0.000000 
0.980533 0.725880 0.021967 
1.000000 0.672458 0.172509 
1.000000 0.634180 0.282375 
0.058953 0.865401 0.000000 
0.126734 0.865231 0.000000 
0.264027 0.869154 0.021041 
0.397215 0.877433 0.090907 
0.529861 0.886904 0.127889 
0.679734 0.887534 0.080376 
0.872411 0.865672 0.000000 
1.000000 0.810755 0.021693 
1.000000 0.744968 0.198471 
0.060084 0.937797 0.000000 
0.111556 0.938100 0.000000 
0.241364 0.942522 0.037239 
0.365348 0.951604 0.129230 
0.480721 0.963417 0.192280 
0.598375 0.971513 0.191288 
0.745956 0.967797 0.113427 
0.944290 0.938053 0.000000 
1.000000 0.873389 0.019496 
0.060779 0.990618 0.000000 
0.101432 0.991186 0.000000 
0.224986 0.995854 0.048180 
0.342725 1.000000 0.154002 
0.446231 1.000000 0.227362 
0.540867 1.000000 0.252619 
0.648838 1.000000 0.231556 
0.794213 1.000000 0.139912 
0.996771 0.990863 0.000000 
0.010284 0.000000 0.058135 
0.066385 0.000000 0.059104 
0.277653 0.002863 0.132246 
0.483857 0.000000 0.142383 
0.649685 0.000000 0.103037 
0.768387 0.003127 0.056612 
0.857158 0.029425 0.020780 
0.921671 0.055653 0.000000 
0.968923 0.076461 0.000000 
0.000269 0.062583 0.060893 
0.062501 0.062501 0.062501 
0.291997 0.062500 0.062507 
0.482401 0.062555 0.062317 
0.642969 0.066072 0.054766 
0.763858 0.077334 0.038513 
0.856184 0.094409 0.020212 
0.923454 0.112448 0.004426 
0.972407 0.127587 0.000000 
0.000000 0.296421 0.107653 
0.062492 0.291998 0.062507 
0.291992 0.291998 0.062502 
0.483112 0.291605 0.063191 
0.652831 0.284875 0.081248 
0.781710 0.278831 0.098628 
0.879533 0.276624 0.103209 
0.950324 0.277237 0.099846 
1.000000 0.279060 0.094014 
0.000000 0.485825 0.100354 
0.062738 0.482416 0.062378 
0.291348 0.482525 0.063001 
0.482483 0.482414 0.062480 
0.676386 0.468086 0.079159 
0.829914 0.446095 0.152063 
0.937421 0.431738 0.203667 
1.000000 0.424041 0.228786 
1.000000 0.420417 0.239711 
0.000000 0.646180 0.082300 
0.071905 0.644146 0.058220 
0.280055 0.645755 0.072429 
0.455951 0.649541 0.086136 
0.645897 0.644147 0.061917 
0.847165 0.613023 0.087392 
1.000000 0.575138 0.200637 
1.000000 0.550715 0.276140 
1.000000 0.538413 0.316672 
0.001612 0.769488 0.061786 
0.090327 0.768581 0.050776 
0.266811 0.771556 0.083365 
0.422004 0.778193 0.128359 
0.582220 0.782767 0.121550 
0.772604 0.768650 0.061074 
0.982918 0.724810 0.088100 
1.000000 0.672505 0.226463 
1.000000 0.638069 0.319113 
0.042128 0.865934 0.045036 
0.109768 0.865772 0.043488 
0.256605 0.869603 0.091338 
0.393234 0.877742 0.162976 
0.527079 0.887169 0.191951 
0.677472 0.887903 0.151911 
0.871559 0.865926 0.060328 
1.000000 0.810801 0.085519 
1.000000 0.746861 0.242410 
0.074032 0.937430 0.032977 
0.125676 0.937724 0.037782 
0.249509 0.942051 0.096591 
0.371433 0.950977 0.184185 
0.485608 0.962676 0.235090 
0.601812 0.970818 0.235365 
0.747725 0.967335 0.175740 
0.944660 0.937946 0.059774 
1.000000 0.874072 0.081711 
0.095874 0.989722 0.025128 
0.136945 0.990276 0.033902 
0.245021 0.994855 0.099766 
0.356663 1.000000 0.196734 
0.457422 1.000000 0.260628 
0.549986 1.000000 0.284706 
0.655632 1.000000 0.267135 
0.798279 1.000000 0.192858 
0.997866 0.990543 0.059410 
0.068768 0.000000 0.272108 
0.153446 0.000000 0.261368 
0.296968 0.000000 0.287216 
0.473053 0.006474 0.312952 
0.644257 0.000072 0.293794 
0.769024 0.012464 0.239661 
0.855218 0.051459 0.178757 
0.913124 0.100452 0.118042 
0.953533 0.144576 0.074118 
0.000000 0.086904 0.299632 
0.062485 0.062505 0.292000 
0.291994 0.062502 0.291999 
0.482778 0.062287 0.291052 
0.646929 0.064062 0.266576 
0.766265 0.083759 0.224804 
0.852630 0.120380 0.178782 
0.912534 0.160204 0.132088 
0.954728 0.189147 0.093747 
0.000955 0.292059 0.290189 
0.062500 0.291997 0.291998 
0.291997 0.291997 0.291997 
0.482426 0.292004 0.291936 
0.644010 0.292786 0.288053 
0.766402 0.296443 0.275598 
0.858884 0.303859 0.256173 
0.924496 0.313582 0.234146 
0.970750 0.323179 0.213869 
0.000000 0.484031 0.309749 
0.064154 0.482354 0.291283 
0.292089 0.482417 0.291934 
0.482493 0.482411 0.291977 
0.666785 0.471973 0.306402 
0.799191 0.463764 0.334531 
0.896004 0.461016 0.346290 
0.965274 0.461354 0.346096 
1.000000 0.463396 0.340303 
0.002950 0.644434 0.291020 
0.107242 0.642866 0.277884 
0.297164 0.644046 0.288914 
0.465263 0.647647 0.302738 
0.646676 0.643931 0.291355 
0.835104 0.617931 0.308603 
0.966239 0.594077 0.365583 
1.000000 0.583047 0.404725 
1.000000 0.579204 0.423189 
0.098153 0.766427 0.264533 
0.177140 0.765602 0.258811 
0.310650 0.768017 0.281570 
0.451314 0.773957 0.312790 
0.598770 0.779142 0.318257 
0.775219 0.767902 0.290286 
0.968676 0.730707 0.305469 
1.000000 0.691891 0.377411 
1.000000 0.670640 0.436065 
0.188040 0.861478 0.240588 
0.229577 0.861284 0.240611 
0.327324 0.864572 0.272754 
0.443962 0.871878 0.317707 
0.564286 0.880986 0.344515 
0.699482 0.882976 0.329943 
0.876106 0.864608 0.289284 
1.000000 0.817350 0.301589 
1.000000 0.766701 0.382821 
0.239316 0.931888 0.221589 
0.265465 0.932117 0.225757 
0.342095 0.935951 0.264884 
0.440741 0.944058 0.319616 
0.541075 0.955079 0.362069 
0.644033 0.963377 0.370568 
0.773578 0.961478 0.340532 
0.950725 0.936178 0.288522 
1.000000 0.881001 0.297903 
0.269619 0.983477 0.208235 
0.288403 0.983960 0.215206 
0.352918 0.988093 0.259047 
0.439700 0.996610 0.320091 
0.526549 1.000000 0.372596 
0.608076 1.000000 0.397914 
0.700748 1.000000 0.391642 
0.826496 1.000000 0.348877 
1.000000 0.988476 0.288015 
0.110620 0.000000 0.461239 
0.195900 0.000000 0.452633 
0.326645 0.000000 0.464015 
0.486134 0.000000 0.478801 
0.656717 0.000000 0.461663 
0.796486 0.000000 0.396575 
0.889170 0.001393 0.314700 
0.942850 0.065446 0.239281 
0.974849 0.136309 0.176638 
0.000000 0.084083 0.495563 
0.062994 0.062389 0.482350 
0.291395 0.062811 0.482698 
0.482457 0.062478 0.482403 
0.661781 0.044130 0.451565 
0.797127 0.037571 0.385351 
0.885991 0.072736 0.312484 
0.939727 0.135235 0.247418 
0.973179 0.188391 0.193975 
0.000000 0.300468 0.477901 
0.065253 0.291651 0.482441 
0.292158 0.291956 0.482389 
0.482466 0.291983 0.482396 
0.656749 0.287205 0.456884 
0.783728 0.290247 0.413098 
0.872890 0.303465 0.368174 
0.932173 0.321611 0.326960 
0.971503 0.339567 0.292719 
0.001268 0.482467 0.481179 
0.062511 0.482430 0.482419 
0.292002 0.482430 0.482412 
0.482429 0.482429 0.482429 
0.644520 0.482557 0.481251 
0.768845 0.483539 0.474911 
0.864066 0.486295 0.461868 
0.931804 0.491005 0.444238 
0.978732 0.496825 0.425882 
0.064437 0.642836 0.460950 
0.151679 0.642038 0.453531 
0.321522 0.642218 0.462683 
0.484243 0.644250 0.481130 
0.646191 0.644082 0.481976 
0.803455 0.630393 0.498797 
0.904632 0.624678 0.525631 
0.973436 0.623933 0.535706 
1.000000 0.625183 0.535058 
0.206237 0.763316 0.426997 
0.252190 0.762623 0.423844 
0.362378 0.763978 0.443468 
0.492450 0.768185 0.475810 
0.623992 0.773715 0.493844 
0.775747 0.767783 0.480785 
0.938835 0.742491 0.494619 
1.000000 0.722433 0.541390 
1.000000 0.714948 0.573445 
0.297856 0.856495 0.397904 
0.324540 0.856249 0.398812 
0.402448 0.858601 0.425386 
0.506203 0.864296 0.467532 
0.614068 0.872418 0.500979 
0.729163 0.876221 0.502062 
0.878607 0.863924 0.479485 
1.000000 0.829174 0.489514 
1.000000 0.796836 0.543890 
0.358612 0.925218 0.375336 
0.376230 0.925346 0.378974 
0.435973 0.928365 0.410054 
0.521147 0.935023 0.458901 
0.610833 0.944675 0.503318 
0.699639 0.952975 0.521649 
0.807403 0.953578 0.509072 
0.955254 0.934896 0.478420 
1.000000 0.892948 0.485146 
0.397832 0.975553 0.359705 
0.410770 0.975924 0.365008 
0.460348 0.979336 0.398806 
0.533740 0.986547 0.451798 
0.611018 0.997056 0.503246 
0.682583 1.000000 0.533716 
0.760352 1.000000 0.538385 
0.863462 1.000000 0.514445 
1.000000 0.986712 0.477675 
0.136309 0.000000 0.624566 
0.207903 0.000000 0.619505 
0.328727 0.000000 0.630586 
0.478290 0.003599 0.647200 
0.647453 0.000000 0.641669 
0.811057 0.000000 0.582112 
0.936254 0.000000 0.477302 
1.000000 0.000000 0.363941 
1.000000 0.017936 0.268566 
0.000000 0.071325 0.649687 
0.084068 0.057804 0.641692 
0.282097 0.067461 0.647714 
0.460537 0.081412 0.657708 
0.645181 0.061738 0.643919 
0.813358 0.001093 0.577600 
0.935524 0.000000 0.473668 
1.000000 0.007017 0.367343 
1.000000 0.087793 0.279845 
0.010869 0.290812 0.643855 
0.139159 0.283736 0.638856 
0.301797 0.289598 0.642238 
0.466161 0.298246 0.652916 
0.645700 0.291404 0.643463 
0.806674 0.269857 0.586345 
0.920146 0.263414 0.503332 
0.985404 0.281622 0.422984 
1.000000 0.309872 0.358559 
0.078935 0.475090 0.656777 
0.181745 0.471220 0.658740 
0.339305 0.473322 0.647292 
0.485528 0.481627 0.643669 
0.645518 0.482140 0.643694 
0.789927 0.476710 0.608122 
0.891149 0.478712 0.562545 
0.956928 0.486595 0.519563 
0.998943 0.497046 0.482918 
0.001392 0.644568 0.643588 
0.062816 0.644548 0.644320 
0.292241 0.644559 0.644080 
0.482535 0.644566 0.644077 
0.644541 0.644541 0.644541 
0.769563 0.644694 0.642949 
0.866793 0.645504 0.636646 
0.937411 0.647410 0.625162 
0.986992 0.650418 0.610505 
0.213087 0.765060 0.576871 
0.254170 0.764663 0.574672 
0.373431 0.764809 0.588245 
0.515514 0.765951 0.615431 
0.647035 0.769092 0.642691 
0.772174 0.768817 0.643834 
0.897178 0.757860 0.657718 
0.972036 0.753869 0.679460 
1.000000 0.753868 0.687383 
0.344036 0.855526 0.532064 
0.367013 0.855250 0.533109 
0.443313 0.856432 0.556376 
0.548793 0.859724 0.596931 
0.655313 0.865456 0.636997 
0.754892 0.870363 0.652476 
0.875480 0.864872 0.642409 
1.000000 0.843526 0.653273 
1.000000 0.828406 0.690163 
0.425833 0.921787 0.500793 
0.440930 0.921805 0.504297 
0.496792 0.923835 0.532695 
0.579840 0.928549 0.580321 
0.667538 0.935982 0.629061 
0.747926 0.943593 0.657510 
0.835955 0.946756 0.658939 
0.953686 0.935419 0.641000 
1.000000 0.907101 0.648107 
0.479460 0.970159 0.479524 
0.490512 0.970405 0.484466 
0.535591 0.972974 0.515553 
0.605220 0.978541 0.567034 
0.680093 0.987030 0.621224 
0.746886 0.996227 0.658507 
0.813203 1.000000 0.673439 
0.894992 1.000000 0.663136 
1.000000 0.986736 0.639904 
0.149208 0.000000 0.751078 
0.205539 0.000000 0.749223 
0.314046 0.000000 0.762880 
0.449450 0.027834 0.785743 
0.604638 0.046832 0.797820 
0.772003 0.000000 0.767110 
0.933197 0.000000 0.676039 
1.000000 0.000000 0.537873 
1.000000 0.000000 0.398038 
0.041842 0.053592 0.764781 
0.130414 0.048077 0.761748 
0.277334 0.069685 0.773441 
0.429780 0.106465 0.793805 
0.596246 0.119212 0.802746 
0.770918 0.060486 0.768195 
0.933826 0.000000 0.674677 
1.000000 0.000000 0.538699 
1.000000 0.000000 0.404559 
0.176970 0.272833 0.754619 
0.233185 0.270028 0.751729 
0.329107 0.282659 0.760941 
0.454452 0.302508 0.781018 
0.606285 0.311008 0.794101 
0.772427 0.290187 0.766796 
0.926203 0.247550 0.685795 
1.000000 0.221510 0.570395 
1.000000 0.240694 0.459748 
0.287885 0.455038 0.765182 
0.325850 0.453207 0.761610 
0.401333 0.461889 0.757114 
0.500337 0.477860 0.764402 
0.625545 0.488355 0.779932 
0.773034 0.481174 0.766383 
0.909641 0.466335 0.708521 
1.000000 0.461366 0.628276 
1.000000 0.470034 0.554220 
0.217678 0.624465 0.826447 
0.271054 0.622423 0.825664 
0.400178 0.623961 0.805527 
0.535806 0.631503 0.776388 
0.648725 0.643443 0.768320 
0.771114 0.644130 0.768210 
0.886513 0.640107 0.737779 
0.964436 0.641112 0.698352 
1.000000 0.645874 0.662471 
0.001446 0.769565 0.768749 
0.063323 0.769556 0.769084 
0.292738 0.769579 0.768475 
0.482921 0.769608 0.768059 
0.644679 0.769588 0.768770 
0.769543 0.769543 0.769543 
0.867249 0.769681 0.768011 
0.939310 0.770295 0.762637 
0.991042 0.771614 0.753422 
0.296739 0.861256 0.664651 
0.323027 0.861073 0.664955 
0.418206 0.861297 0.680133 
0.545742 0.862083 0.709122 
0.670645 0.863828 0.743639 
0.771963 0.866735 0.767715 
0.869956 0.866444 0.768807 
0.966939 0.857020 0.780476 
1.000000 0.854178 0.798340 
0.432410 0.924286 0.607758 
0.447833 0.924222 0.610670 
0.508742 0.925288 0.635072 
0.600409 0.927877 0.678221 
0.696932 0.932274 0.726999 
0.779141 0.937748 0.762601 
0.855063 0.942197 0.776021 
0.947828 0.937135 0.767410 
1.000000 0.920011 0.775730 
0.511551 0.969872 0.574252 
0.522383 0.970008 0.578803 
0.568526 0.971762 0.607584 
0.641324 0.975617 0.657139 
0.720609 0.981687 0.712831 
0.789126 0.988842 0.755821 
0.850091 0.995709 0.779750 
0.915849 0.997864 0.780174 
1.000000 0.988231 0.766073 
0.156338 0.000000 0.849988 
0.199833 0.000000 0.850301 
0.297013 0.000000 0.865917 
0.418311 0.052021 0.893327 
0.553924 0.102273 0.918471 
0.703491 0.093818 0.916434 
0.869381 0.000000 0.865041 
1.000000 0.000000 0.747246 
1.000000 0.000000 0.583011 
0.119823 0.037408 0.854822 
0.175224 0.037384 0.854792 
0.280706 0.068016 0.869888 
0.406747 0.123736 0.896663 
0.546702 0.168105 0.921018 
0.700517 0.158320 0.917876 
0.869100 0.059298 0.865330 
1.000000 0.000000 0.747672 
1.000000 0.000000 0.586423 
0.277126 0.254334 0.837111 
0.302577 0.254746 0.836934 
0.364018 0.272804 0.850390 
0.456500 0.301696 0.876703 
0.574535 0.325222 0.903761 
0.714254 0.324191 0.906371 
0.871507 0.288888 0.863047 
1.000000 0.220636 0.760146 
1.000000 0.165083 0.619453 
0.397528 0.436692 0.836921 
0.415073 0.437180 0.835177 
0.458600 0.449717 0.838616 
0.526542 0.471053 0.854195 
0.618615 0.490519 0.879046 
0.735797 0.494661 0.889335 
0.873304 0.479917 0.861538 
1.000000 0.454552 0.783741 
1.000000 0.440652 0.677441 
0.448324 0.594527 0.891256 
0.467738 0.594424 0.886773 
0.518721 0.603207 0.870577 
0.587150 0.620586 0.856172 
0.663181 0.639698 0.861499 
0.756386 0.648252 0.874504 
0.871945 0.643126 0.863015 
0.980025 0.632569 0.812836 
1.000000 0.628913 0.745529 
0.274164 0.741687 0.969954 
0.313372 0.740666 0.967716 
0.431070 0.742259 0.945647 
0.569308 0.747741 0.908587 
0.687151 0.757991 0.873851 
0.773562 0.768482 0.866011 
0.868855 0.769136 0.865815 
0.957602 0.765802 0.839279 
1.000000 0.766411 0.806976 
0.001474 0.867220 0.866502 
0.063799 0.867218 0.866578 
0.293255 0.867250 0.865673 
0.483424 0.867297 0.864779 
0.645057 0.867306 0.865088 
0.769672 0.867252 0.866368 
0.867201 0.867201 0.867201 
0.939526 0.867312 0.865903 
0.992194 0.867758 0.861687 
0.355991 0.932732 0.729519 
0.375671 0.932668 0.731124 
0.456618 0.932966 0.746940 
0.572999 0.933663 0.776327 
0.692423 0.934788 0.812458 
0.791096 0.936406 0.844150 
0.869256 0.939055 0.865629 
0.941927 0.938795 0.866546 
1.000000 0.931640 0.875455 
0.494867 0.974950 0.662790 
0.506802 0.974998 0.666543 
0.559341 0.975999 0.691042 
0.642450 0.978174 0.734607 
0.733484 0.981560 0.786393 
0.811344 0.985761 0.830667 
0.874967 0.990715 0.861468 
0.930684 0.994231 0.871863 
0.999557 0.990164 0.865332 
0.160466 0.000000 0.923161 
0.194324 0.000000 0.924817 
0.282576 0.004527 0.941612 
0.392525 0.070438 0.971682 
0.510189 0.145230 1.000000 
0.635076 0.175298 1.000000 
0.779278 0.142002 1.000000 
0.941473 0.000000 0.937479 
1.000000 0.000000 0.799484 
0.173932 0.024998 0.922077 
0.205207 0.028402 0.923691 
0.287189 0.064864 0.940539 
0.393080 0.133508 0.970750 
0.509279 0.194581 1.000000 
0.634460 0.217336 1.000000 
0.779406 0.191131 1.000000 
0.941690 0.058380 0.937272 
1.000000 0.000000 0.800916 
0.336499 0.238331 0.897761 
0.351027 0.240864 0.899267 
0.395383 0.262794 0.915092 
0.466453 0.298040 0.944997 
0.557400 0.332209 0.979974 
0.664930 0.348720 1.000000 
0.795521 0.338104 0.993201 
0.944732 0.287818 0.934354 
1.000000 0.193107 0.814111 
0.467502 0.421496 0.888022 
0.477073 0.423335 0.888109 
0.506530 0.438058 0.896251 
0.556198 0.462948 0.917121 
0.624157 0.488815 0.948092 
0.709998 0.503688 0.972515 
0.819422 0.501671 0.973755 
0.947578 0.478769 0.931832 
1.000000 0.443588 0.838195 
0.552916 0.575292 0.923810 
0.561824 0.576771 0.921098 
0.588942 0.588941 0.913922 
0.631457 0.610370 0.912248 
0.685458 0.633865 0.926365 
0.752656 0.649357 0.947505 
0.841135 0.652557 0.956692 
0.947301 0.641985 0.932392 
1.000000 0.625516 0.867649 
0.550278 0.702382 1.000000 
0.563603 0.702958 1.000000 
0.606480 0.711221 0.983845 
0.667243 0.727609 0.952040 
0.728325 0.748473 0.931391 
0.785867 0.765267 0.934352 
0.856344 0.772445 0.945573 
0.944300 0.768248 0.935286 
1.000000 0.760537 0.894447 
0.303761 0.833566 1.000000 
0.336150 0.833150 1.000000 
0.447473 0.834958 1.000000 
0.585997 0.839704 1.000000 
0.712250 0.847490 0.978164 
0.804977 0.856991 0.946179 
0.870583 0.866304 0.938460 
0.940953 0.866851 0.938236 
1.000000 0.864381 0.917692 
0.001490 0.939485 0.938828 
0.064165 0.939487 0.938746 
0.293673 0.939524 0.937645 
0.483878 0.939582 0.936383 
0.645496 0.939616 0.936187 
0.769984 0.939588 0.937250 
0.867306 0.939516 0.938704 
0.939467 0.939467 0.939467 
0.992259 0.939554 0.938432 
0.396692 0.985138 0.776438 
0.413015 0.985143 0.778705 
0.485523 0.985505 0.794671 
0.594125 0.986224 0.823906 
0.708785 0.987194 0.860192 
0.805570 0.988269 0.893628 
0.883409 0.989744 0.921341 
0.941103 0.991866 0.938207 
0.994217 0.991653 0.938933 
0.163004 0.000000 0.976535 
0.190361 0.000000 0.978957 
0.272403 0.009201 0.996318 
0.374469 0.082455 1.000000 
0.478864 0.168960 1.000000 
0.582210 0.215898 1.000000 
0.697804 0.225420 1.000000 
0.835130 0.176460 1.000000 
0.994095 0.000000 0.990326 
0.202577 0.016570 0.971860 
0.224101 0.021995 0.974329 
0.293246 0.061883 0.991936 
0.386189 0.137955 1.000000 
0.485546 0.208459 1.000000 
0.586425 0.248089 1.000000 
0.700695 0.256526 1.000000 
0.836993 0.215733 1.000000 
0.994602 0.057757 0.989830 
0.372733 0.226289 0.942900 
0.382587 0.230130 0.945289 
0.418596 0.254584 0.962213 
0.477635 0.293839 0.993810 
0.551200 0.334572 1.000000 
0.633613 0.362439 1.000000 
0.732556 0.371121 1.000000 
0.854480 0.350211 1.000000 
0.998031 0.287059 0.986520 
0.512490 0.410115 0.925842 
0.518705 0.412664 0.927008 
0.541814 0.428551 0.937648 
0.581936 0.455507 0.961447 
0.635446 0.485305 0.995922 
0.699056 0.507378 1.000000 
0.778865 0.516963 1.000000 
0.880120 0.508091 1.000000 
1.000000 0.477899 0.983258 
0.612637 0.562517 0.948396 
0.617707 0.564713 0.947191 
0.636181 0.578206 0.945526 
0.667669 0.601404 0.951111 
0.709235 0.627473 0.970676 
0.758872 0.647606 0.996985 
0.822138 0.658421 1.000000 
0.903668 0.656294 1.000000 
1.000000 0.641015 0.982895 
0.662195 0.680943 1.000000 
0.668168 0.682730 1.000000 
0.689621 0.694426 0.997704 
0.723312 0.715443 0.978272 
0.762312 0.740299 0.970703 
0.803586 0.760621 0.980946 
0.854002 0.773131 0.998651 
0.919770 0.775059 1.000000 
1.000000 0.767303 0.985253 
0.620780 0.786577 1.000000 
0.631124 0.787475 1.000000 
0.669882 0.795245 1.000000 
0.728109 0.810380 1.000000 
0.788032 0.830349 1.000000 
0.836872 0.849344 0.986815 
0.880263 0.863764 0.988060 
0.931674 0.869211 0.996605 
0.996477 0.866134 0.988561 
0.318384 0.901834 1.000000 
0.347035 0.901781 1.000000 
0.454784 0.903793 1.000000 
0.592753 0.908379 1.000000 
0.721900 0.915275 1.000000 
0.821692 0.922950 1.000000 
0.893993 0.931456 0.997718 
0.942136 0.938758 0.991405 
0.993430 0.939186 0.991192 
0.001499 0.992219 0.991600 
0.064412 0.992224 0.991429 
0.293965 0.992263 0.990214 
0.484218 0.992327 0.988711 
0.645869 0.992378 0.988109 
0.770327 0.992374 0.988788 
0.867542 0.992318 0.990198 
0.939550 0.992245 0.991558 
0.992203 0.992203 0.992203 
