luts/-UTILITY/LOG_to_Rec709/CineStyle_S_Curve.cube
TITLE "S-curve_for_CineStyle"
LUT_3D_SIZE 5
DOMAIN_MIN 0.000000 0.000000 0.000000
DOMAIN_MAX 0.903226 0.903226 0.903226
0.0000 0.0000 0.0000
0.1216 0.0000 0.0000
0.4235 0.0000 0.0000
0.7647 0.0000 0.0000
0.9765 0.0000 0.0000
0.0000 0.1216 0.0000
0.1216 0.1216 0.0000
0.4235 0.1216 0.0000
0.7647 0.1216 0.0000
0.9765 0.1216 0.0000
0.0000 0.4235 0.0000
0.1216 0.4235 0.0000
0.4235 0.4235 0.0000
0.7647 0.4235 0.0000
0.9765 0.4235 0.0000
0.0000 0.7647 0.0000
0.1216 0.7647 0.0000
0.4235 0.7647 0.0000
0.7647 0.7647 0.0000
0.9765 0.7647 0.0000
0.0000 0.9765 0.0000
0.1216 0.9765 0.0000
0.4235 0.9765 0.0000
0.7647 0.9765 0.0000
0.9765 0.9765 0.0000
0.0000 0.0000 0.1216
0.1216 0.0000 0.1216
0.4235 0.0000 0.1216
0.7647 0.0000 0.1216
0.9765 0.0000 0.1216
0.0000 0.1216 0.1216
0.1216 0.1216 0.1216
0.4235 0.1216 0.1216
0.7647 0.1216 0.1216
0.9765 0.1216 0.1216
0.0000 0.4235 0.1216
0.1216 0.4235 0.1216
0.4235 0.4235 0.1216
0.7647 0.4235 0.1216
0.9765 0.4235 0.1216
0.0000 0.7647 0.1216
0.1216 0.7647 0.1216
0.4235 0.7647 0.1216
0.7647 0.7647 0.1216
0.9765 0.7647 0.1216
0.0000 0.9765 0.1216
0.1216 0.9765 0.1216
0.4235 0.9765 0.1216
0.7647 0.9765 0.1216
0.9765 0.9765 0.1216
0.0000 0.0000 0.4235
0.1216 0.0000 0.4235
0.4235 0.0000 0.4235
0.7647 0.0000 0.4235
0.9765 0.0000 0.4235
0.0000 0.1216 0.4235
0.1216 0.1216 0.4235
0.4235 0.1216 0.4235
0.7647 0.1216 0.4235
0.9765 0.1216 0.4235
0.0000 0.4235 0.4235
0.1216 0.4235 0.4235
0.4235 0.4235 0.4235
0.7647 0.4235 0.4235
0.9765 0.4235 0.4235
0.0000 0.7647 0.4235
0.1216 0.7647 0.4235
0.4235 0.7647 0.4235
0.7647 0.7647 0.4235
0.9765 0.7647 0.4235
0.0000 0.9765 0.4235
0.1216 0.9765 0.4235
0.4235 0.9765 0.4235
0.7647 0.9765 0.4235
0.9765 0.9765 0.4235
0.0000 0.0000 0.7647
0.1216 0.0000 0.7647
0.4235 0.0000 0.7647
0.7647 0.0000 0.7647
0.9765 0.0000 0.7647
0.0000 0.1216 0.7647
0.1216 0.1216 0.7647
0.4235 0.1216 0.7647
0.7647 0.1216 0.7647
0.9765 0.1216 0.7647
0.0000 0.4235 0.7647
0.1216 0.4235 0.7647
0.4235 0.4235 0.7647
0.7647 0.4235 0.7647
0.9765 0.4235 0.7647
0.0000 0.7647 0.7647
0.1216 0.7647 0.7647
0.4235 0.7647 0.7647
0.7647 0.7647 0.7647
0.9765 0.7647 0.7647
0.0000 0.9765 0.7647
0.1216 0.9765 0.7647
0.4235 0.9765 0.7647
0.7647 0.9765 0.7647
0.9765 0.9765 0.7647
0.0000 0.0000 0.9765
0.1216 0.0000 0.9765
0.4235 0.0000 0.9765
0.7647 0.0000 0.9765
0.9765 0.0000 0.9765
0.0000 0.1216 0.9765
0.1216 0.1216 0.9765
0.4235 0.1216 0.9765
0.7647 0.1216 0.9765
0.9765 0.1216 0.9765
0.0000 0.4235 0.9765
0.1216 0.4235 0.9765
0.4235 0.4235 0.9765
0.7647 0.4235 0.9765
0.9765 0.4235 0.9765
0.0000 0.7647 0.9765
0.1216 0.7647 0.9765
0.4235 0.7647 0.9765
0.7647 0.7647 0.9765
0.9765 0.7647 0.9765
0.0000 0.9765 0.9765
0.1216 0.9765 0.9765
0.4235 0.9765 0.9765
0.7647 0.9765 0.9765
0.9765 0.9765 0.9765
