luts/-UTILITY/LOG_to_Rec709/CineStyle_S_Curve.cube
TITLE "S-curve_for_CineStyle"
LUT_3D_SIZE 8
DOMAIN_MIN 0.000000 0.000000 0.000000
DOMAIN_MAX 0.903226 0.903226 0.903226
0.0000 0.0000 0.0000
0.0392 0.0000 0.0000
0.1569 0.0000 0.0000
0.3255 0.0000 0.0000
0.5255 0.0000 0.0000
0.7216 0.0000 0.0000
0.8784 0.0000 0.0000
0.9765 0.0000 0.0000
0.0000 0.0392 0.0000
0.0392 0.0392 0.0000
0.1569 0.0392 0.0000
0.3255 0.0392 0.0000
0.5255 0.0392 0.0000
0.7216 0.0392 0.0000
0.8784 0.0392 0.0000
0.9765 0.0392 0.0000
0.0000 0.1569 0.0000
0.0392 0.1569 0.0000
0.1569 0.1569 0.0000
0.3255 0.1569 0.0000
0.5255 0.1569 0.0000
0.7216 0.1569 0.0000
0.8784 0.1569 0.0000
0.9765 0.1569 0.0000
0.0000 0.3255 0.0000
0.0392 0.3255 0.0000
0.1569 0.3255 0.0000
0.3255 0.3255 0.0000
0.5255 0.3255 0.0000
0.7216 0.3255 0.0000
0.8784 0.3255 0.0000
0.9765 0.3255 0.0000
0.0000 0.5255 0.0000
0.0392 0.5255 0.0000
0.1569 0.5255 0.0000
0.3255 0.5255 0.0000
0.5255 0.5255 0.0000
0.7216 0.5255 0.0000
0.8784 0.5255 0.0000
0.9765 0.5255 0.0000
0.0000 0.7216 0.0000
0.0392 0.7216 0.0000
0.1569 0.7216 0.0000
0.3255 0.7216 0.0000
0.5255 0.7216 0.0000
0.7216 0.7216 0.0000
0.8784 0.7216 0.0000
0.9765 0.7216 0.0000
0.0000 0.8784 0.0000
0.0392 0.8784 0.0000
0.1569 0.8784 0.0000
0.3255 0.8784 0.0000
0.5255 0.8784 0.0000
0.7216 0.8784 0.0000
0.8784 0.8784 0.0000
0.9765 0.8784 0.0000
0.0000 0.9765 0.0000
0.0392 0.9765 0.0000
0.1569 0.9765 0.0000
0.3255 0.9765 0.0000
0.5255 0.9765 0.0000
0.7216 0.9765 0.0000
0.8784 0.9765 0.0000
0.9765 0.9765 0.0000
0.0000 0.0000 0.0392
0.0392 0.0000 0.0392
0.1569 0.0000 0.0392
0.3255 0.0000 0.0392
0.5255 0.0000 0.0392
0.7216 0.0000 0.0392
0.8784 0.0000 0.0392
0.9765 0.0000 0.0392
0.0000 0.0392 0.0392
0.0392 0.0392 0.0392
0.1569 0.0392 0.0392
0.3255 0.0392 0.0392
0.5255 0.0392 0.0392
0.7216 0.0392 0.0392
0.8784 0.0392 0.0392
0.9765 0.0392 0.0392
0.0000 0.1569 0.0392
0.0392 0.1569 0.0392
0.1569 0.1569 0.0392
0.3255 0.1569 0.0392
0.5255 0.1569 0.0392
0.7216 0.1569 0.0392
0.8784 0.1569 0.0392
0.9765 0.1569 0.0392
0.0000 0.3255 0.0392
0.0392 0.3255 0.0392
0.1569 0.3255 0.0392
0.3255 0.3255 0.0392
0.5255 0.3255 0.0392
0.7216 0.3255 0.0392
0.8784 0.3255 0.0392
0.9765 0.3255 0.0392
0.0000 0.5255 0.0392
0.0392 0.5255 0.0392
0.1569 0.5255 0.0392
0.3255 0.5255 0.0392
0.5255 0.5255 0.0392
0.7216 0.5255 0.0392
0.8784 0.5255 0.0392
0.9765 0.5255 0.0392
0.0000 0.7216 0.0392
0.0392 0.7216 0.0392
0.1569 0.7216 0.0392
0.3255 0.7216 0.0392
0.5255 0.7216 0.0392
0.7216 0.7216 0.0392
0.8784 0.7216 0.0392
0.9765 0.7216 0.0392
0.0000 0.8784 0.0392
0.0392 0.8784 0.0392
0.1569 0.8784 0.0392
0.3255 0.8784 0.0392
0.5255 0.8784 0.0392
0.7216 0.8784 0.0392
0.8784 0.8784 0.0392
0.9765 0.8784 0.0392
0.0000 0.9765 0.0392
0.0392 0.9765 0.0392
0.1569 0.9765 0.0392
0.3255 0.9765 0.0392
0.5255 0.9765 0.0392
0.7216 0.9765 0.0392
0.8784 0.9765 0.0392
0.9765 0.9765 0.0392
0.0000 0.0000 0.1569
0.0392 0.0000 0.1569
0.1569 0.0000 0.1569
0.3255 0.0000 0.1569
0.5255 0.0000 0.1569
0.7216 0.0000 0.1569
0.8784 0.0000 0.1569
0.9765 0.0000 0.1569
0.0000 0.0392 0.1569
0.0392 0.0392 0.1569
0.1569 0.0392 0.1569
0.3255 0.0392 0.1569
0.5255 0.0392 0.1569
0.7216 0.0392 0.1569
0.8784 0.0392 0.1569
0.9765 0.0392 0.1569
0.0000 0.1569 0.1569
0.0392 0.1569 0.1569
0.1569 0.1569 0.1569
0.3255 0.1569 0.1569
0.5255 0.1569 0.1569
0.7216 0.1569 0.1569
0.8784 0.1569 0.1569
0.9765 0.1569 0.1569
0.0000 0.3255 0.1569
0.0392 0.3255 0.1569
0.1569 0.3255 0.1569
0.3255 0.3255 0.1569
0.5255 0.3255 0.1569
0.7216 0.3255 0.1569
0.8784 0.3255 0.1569
0.9765 0.3255 0.1569
0.0000 0.5255 0.1569
0.0392 0.5255 0.1569
0.1569 0.5255 0.1569
0.3255 0.5255 0.1569
0.5255 0.5255 0.1569
0.7216 0.5255 0.1569
0.8784 0.5255 0.1569
0.9765 0.5255 0.1569
0.0000 0.7216 0.1569
0.0392 0.7216 0.1569
0.1569 0.7216 0.1569
0.3255 0.7216 0.1569
0.5255 0.7216 0.1569
0.7216 0.7216 0.1569
0.8784 0.7216 0.1569
0.9765 0.7216 0.1569
0.0000 0.8784 0.1569
0.0392 0.8784 0.1569
0.1569 0.8784 0.1569
0.3255 0.8784 0.1569
0.5255 0.8784 0.1569
0.7216 0.8784 0.1569
0.8784 0.8784 0.1569
0.9765 0.8784 0.1569
0.0000 0.9765 0.1569
0.0392 0.9765 0.1569
0.1569 0.9765 0.1569
0.3255 0.9765 0.1569
0.5255 0.9765 0.1569
0.7216 0.9765 0.1569
0.8784 0.9765 0.1569
0.9765 0.9765 0.1569
0.0000 0.0000 0.3255
0.0392 0.0000 0.3255
0.1569 0.0000 0.3255
0.3255 0.0000 0.3255
0.5255 0.0000 0.3255
0.7216 0.0000 0.3255
0.8784 0.0000 0.3255
0.9765 0.0000 0.3255
0.0000 0.0392 0.3255
0.0392 0.0392 0.3255
0.1569 0.0392 0.3255
0.3255 0.0392 0.3255
0.5255 0.0392 0.3255
0.7216 0.0392 0.3255
0.8784 0.0392 0.3255
0.9765 0.0392 0.3255
0.0000 0.1569 0.3255
0.0392 0.1569 0.3255
0.1569 0.1569 0.3255
0.3255 0.1569 0.3255
0.5255 0.1569 0.3255
0.7216 0.1569 0.3255
0.8784 0.1569 0.3255
0.9765 0.1569 0.3255
0.0000 0.3255 0.3255
0.0392 0.3255 0.3255
0.1569 0.3255 0.3255
0.3255 0.3255 0.3255
0.5255 0.3255 0.3255
0.7216 0.3255 0.3255
0.8784 0.3255 0.3255
0.9765 0.3255 0.3255
0.0000 0.5255 0.3255
0.0392 0.5255 0.3255
0.1569 0.5255 0.3255
0.3255 0.5255 0.3255
0.5255 0.5255 0.3255
0.7216 0.5255 0.3255
0.8784 0.5255 0.3255
0.9765 0.5255 0.3255
0.0000 0.7216 0.3255
0.0392 0.7216 0.3255
0.1569 0.7216 0.3255
0.3255 0.7216 0.3255
0.5255 0.7216 0.3255
0.7216 0.7216 0.3255
0.8784 0.7216 0.3255
0.9765 0.7216 0.3255
0.0000 0.8784 0.3255
0.0392 0.8784 0.3255
0.1569 0.8784 0.3255
0.3255 0.8784 0.3255
0.5255 0.8784 0.3255
0.7216 0.8784 0.3255
0.8784 0.8784 0.3255
0.9765 0.8784 0.3255
0.0000 0.9765 0.3255
0.0392 0.9765 0.3255
0.1569 0.9765 0.3255
0.3255 0.9765 0.3255
0.5255 0.9765 0.3255
0.7216 0.9765 0.3255
0.8784 0.9765 0.3255
0.9765 0.9765 0.3255
0.0000 0.0000 0.5255
0.0392 0.0000 0.5255
0.1569 0.0000 0.5255
0.3255 0.0000 0.5255
0.5255 0.0000 0.5255
0.7216 0.0000 0.5255
0.8784 0.0000 0.5255
0.9765 0.0000 0.5255
0.0000 0.0392 0.5255
0.0392 0.0392 0.5255
0.1569 0.0392 0.5255
0.3255 0.0392 0.5255
0.5255 0.0392 0.5255
0.7216 0.0392 0.5255
0.8784 0.0392 0.5255
0.9765 0.0392 0.5255
0.0000 0.1569 0.5255
0.0392 0.1569 0.5255
0.1569 0.1569 0.5255
0.3255 0.1569 0.5255
0.5255 0.1569 0.5255
0.7216 0.1569 0.5255
0.8784 0.1569 0.5255
0.9765 0.1569 0.5255
0.0000 0.3255 0.5255
0.0392 0.3255 0.5255
0.1569 0.3255 0.5255
0.3255 0.3255 0.5255
0.5255 0.3255 0.5255
0.7216 0.3255 0.5255
0.8784 0.3255 0.5255
0.9765 0.3255 0.5255
0.0000 0.5255 0.5255
0.0392 0.5255 0.5255
0.1569 0.5255 0.5255
0.3255 0.5255 0.5255
0.5255 0.5255 0.5255
0.7216 0.5255 0.5255
0.8784 0.5255 0.5255
0.9765 0.5255 0.5255
0.0000 0.7216 0.5255
0.0392 0.7216 0.5255
0.1569 0.7216 0.5255
0.3255 0.7216 0.5255
0.5255 0.7216 0.5255
0.7216 0.7216 0.5255
0.8784 0.7216 0.5255
0.9765 0.7216 0.5255
0.0000 0.8784 0.5255
0.0392 0.8784 0.5255
0.1569 0.8784 0.5255
0.3255 0.8784 0.5255
0.5255 0.8784 0.5255
0.7216 0.8784 0.5255
0.8784 0.8784 0.5255
0.9765 0.8784 0.5255
0.0000 0.9765 0.5255
0.0392 0.9765 0.5255
0.1569 0.9765 0.5255
0.3255 0.9765 0.5255
0.5255 0.9765 0.5255
0.7216 0.9765 0.5255
0.8784 0.9765 0.5255
0.9765 0.9765 0.5255
0.0000 0.0000 0.7216
0.0392 0.0000 0.7216
0.1569 0.0000 0.7216
0.3255 0.0000 0.7216
0.5255 0.0000 0.7216
0.7216 0.0000 0.7216
0.8784 0.0000 0.7216
0.9765 0.0000 0.7216
0.0000 0.0392 0.7216
0.0392 0.0392 0.7216
0.1569 0.0392 0.7216
0.3255 0.0392 0.7216
0.5255 0.0392 0.7216
0.7216 0.0392 0.7216
0.8784 0.0392 0.7216
0.9765 0.0392 0.7216
0.0000 0.1569 0.7216
0.0392 0.1569 0.7216
0.1569 0.1569 0.7216
0.3255 0.1569 0.7216
0.5255 0.1569 0.7216
0.7216 0.1569 0.7216
0.8784 0.1569 0.7216
0.9765 0.1569 0.7216
0.0000 0.3255 0.7216
0.0392 0.3255 0.7216
0.1569 0.3255 0.7216
0.3255 0.3255 0.7216
0.5255 0.3255 0.7216
0.7216 0.3255 0.7216
0.8784 0.3255 0.7216
0.9765 0.3255 0.7216
0.0000 0.5255 0.7216
0.0392 0.5255 0.7216
0.1569 0.5255 0.7216
0.3255 0.5255 0.7216
0.5255 0.5255 0.7216
0.7216 0.5255 0.7216
0.8784 0.5255 0.7216
0.9765 0.5255 0.7216
0.0000 0.7216 0.7216
0.0392 0.7216 0.7216
0.1569 0.7216 0.7216
0.3255 0.7216 0.7216
0.5255 0.7216 0.7216
0.7216 0.7216 0.7216
0.8784 0.7216 0.7216
0.9765 0.7216 0.7216
0.0000 0.8784 0.7216
0.0392 0.8784 0.7216
0.1569 0.8784 0.7216
0.3255 0.8784 0.7216
0.5255 0.8784 0.7216
0.7216 0.8784 0.7216
0.8784 0.8784 0.7216
0.9765 0.8784 0.7216
0.0000 0.9765 0.7216
0.0392 0.9765 0.7216
0.1569 0.9765 0.7216
0.3255 0.9765 0.7216
0.5255 0.9765 0.7216
0.7216 0.9765 0.7216
0.8784 0.9765 0.7216
0.9765 0.9765 0.7216
0.0000 0.0000 0.8784
0.0392 0.0000 0.8784
0.1569 0.0000 0.8784
0.3255 0.0000 0.8784
0.5255 0.0000 0.8784
0.7216 0.0000 0.8784
0.8784 0.0000 0.8784
0.9765 0.0000 0.8784
0.0000 0.0392 0.8784
0.0392 0.0392 0.8784
0.1569 0.0392 0.8784
0.3255 0.0392 0.8784
0.5255 0.0392 0.8784
0.7216 0.0392 0.8784
0.8784 0.0392 0.8784
0.9765 0.0392 0.8784
0.0000 0.1569 0.8784
0.0392 0.1569 0.8784
0.1569 0.1569 0.8784
0.3255 0.1569 0.8784
0.5255 0.1569 0.8784
0.7216 0.1569 0.8784
0.8784 0.1569 0.8784
0.9765 0.1569 0.8784
0.0000 0.3255 0.8784
0.0392 0.3255 0.8784
0.1569 0.3255 0.8784
0.3255 0.3255 0.8784
0.5255 0.3255 0.8784
0.7216 0.3255 0.8784
0.8784 0.3255 0.8784
0.9765 0.3255 0.8784
0.0000 0.5255 0.8784
0.0392 0.5255 0.8784
0.1569 0.5255 0.8784
0.3255 0.5255 0.8784
0.5255 0.5255 0.8784
0.7216 0.5255 0.8784
0.8784 0.5255 0.8784
0.9765 0.5255 0.8784
0.0000 0.7216 0.8784
0.0392 0.7216 0.8784
0.1569 0.7216 0.8784
0.3255 0.7216 0.8784
0.5255 0.7216 0.8784
0.7216 0.7216 0.8784
0.8784 0.7216 0.8784
0.9765 0.7216 0.8784
0.0000 0.8784 0.8784
0.0392 0.8784 0.8784
0.1569 0.8784 0.8784
0.3255 0.8784 0.8784
0.5255 0.8784 0.8784
0.7216 0.8784 0.8784
0.8784 0.8784 0.8784
0.9765 0.8784 0.8784
0.0000 0.9765 0.8784
0.0392 0.9765 0.8784
0.1569 0.9765 0.8784
0.3255 0.9765 0.8784
0.5255 0.9765 0.8784
0.7216 0.9765 0.8784
0.8784 0.9765 0.8784
0.9765 0.9765 0.8784
0.0000 0.0000 0.9765
0.0392 0.0000 0.9765
0.1569 0.0000 0.9765
0.3255 0.0000 0.9765
0.5255 0.0000 0.9765
0.7216 0.0000 0.9765
0.8784 0.0000 0.9765
0.9765 0.0000 0.9765
0.0000 0.0392 0.9765
0.0392 0.0392 0.9765
0.1569 0.0392 0.9765
0.3255 0.0392 0.9765
0.5255 0.0392 0.9765
0.7216 0.0392 0.9765
0.8784 0.0392 0.9765
0.9765 0.0392 0.9765
0.0000 0.1569 0.9765
0.0392 0.1569 0.9765
0.1569 0.1569 0.9765
0.3255 0.1569 0.9765
0.5255 0.1569 0.9765
0.7216 0.1569 0.9765
0.8784 0.1569 0.9765
0.9765 0.1569 0.9765
0.0000 0.3255 0.9765
0.0392 0.3255 0.9765
0.1569 0.3255 0.9765
0.3255 0.3255 0.9765
0.5255 0.3255 0.9765
0.7216 0.3255 0.9765
0.8784 0.3255 0.9765
0.9765 0.3255 0.9765
0.0000 0.5255 0.9765
0.0392 0.5255 0.9765
0.1569 0.5255 0.9765
0.3255 0.5255 0.9765
0.5255 0.5255 0.9765
0.7216 0.5255 0.9765
0.8784 0.5255 0.9765
0.9765 0.5255 0.9765
0.0000 0.7216 0.9765
0.0392 0.7216 0.9765
0.1569 0.7216 0.9765
0.3255 0.7216 0.9765
0.5255 0.7216 0.9765
0.7216 0.7216 0.9765
0.8784 0.7216 0.9765
0.9765 0.7216 0.9765
0.0000 0.8784 0.9765
0.0392 0.8784 0.9765
0.1569 0.8784 0.9765
0.3255 0.8784 0.9765
0.5255 0.8784 0.9765
0.7216 0.8784 0.9765
0.8784 0.8784 0.9765
0.9765 0.8784 0.9765
0.0000 0.9765 0.9765
0.0392 0.9765 0.9765
0.1569 0.9765 0.9765
0.3255 0.9765 0.9765
0.5255 0.9765 0.9765
0.7216 0.9765 0.9765
0.8784 0.9765 0.9765
0.9765 0.9765 0.9765
