luts/-UTILITY/LOG_to_Rec709/CineStyle_S_Curve.cube
TITLE "S-curve_for_CineStyle"
LUT_3D_SIZE 32
0.0000 0.0000 0.0000
0.0039 0.0000 0.0000
0.0118 0.0000 0.0000
0.0235 0.0000 0.0000
0.0392 0.0000 0.0000
0.0627 0.0000 0.0000
0.0863 0.0000 0.0000
0.1216 0.0000 0.0000
0.1569 0.0000 0.0000
0.1922 0.0000 0.0000
0.2314 0.0000 0.0000
0.2745 0.0000 0.0000
0.3255 0.0000 0.0000
0.3725 0.0000 0.0000
0.4235 0.0000 0.0000
0.4706 0.0000 0.0000
0.5255 0.0000 0.0000
0.5765 0.0000 0.0000
0.6235 0.0000 0.0000
0.6706 0.0000 0.0000
0.7216 0.0000 0.0000
0.7647 0.0000 0.0000
0.8039 0.0000 0.0000
0.8431 0.0000 0.0000
0.8784 0.0000 0.0000
0.9098 0.0000 0.0000
0.9373 0.0000 0.0000
0.9608 0.0000 0.0000
0.9765 0.0000 0.0000
0.9882 0.0000 0.0000
0.9961 0.0000 0.0000
1.0000 0.0000 0.0000
0.0000 0.0039 0.0000
0.0039 0.0039 0.0000
0.0118 0.0039 0.0000
0.0235 0.0039 0.0000
0.0392 0.0039 0.0000
0.0627 0.0039 0.0000
0.0863 0.0039 0.0000
0.1216 0.0039 0.0000
0.1569 0.0039 0.0000
0.1922 0.0039 0.0000
0.2314 0.0039 0.0000
0.2745 0.0039 0.0000
0.3255 0.0039 0.0000
0.3725 0.0039 0.0000
0.4235 0.0039 0.0000
0.4706 0.0039 0.0000
0.5255 0.0039 0.0000
0.5765 0.0039 0.0000
0.6235 0.0039 0.0000
0.6706 0.0039 0.0000
0.7216 0.0039 0.0000
0.7647 0.0039 0.0000
0.8039 0.0039 0.0000
0.8431 0.0039 0.0000
0.8784 0.0039 0.0000
0.9098 0.0039 0.0000
0.9373 0.0039 0.0000
0.9608 0.0039 0.0000
0.9765 0.0039 0.0000
0.9882 0.0039 0.0000
0.9961 0.0039 0.0000
1.0000 0.0039 0.0000
0.0000 0.0118 0.0000
0.0039 0.0118 0.0000
0.0118 0.0118 0.0000
0.0235 0.0118 0.0000
0.0392 0.0118 0.0000
0.0627 0.0118 0.0000
0.0863 0.0118 0.0000
0.1216 0.0118 0.0000
0.1569 0.0118 0.0000
0.1922 0.0118 0.0000
0.2314 0.0118 0.0000
0.2745 0.0118 0.0000
0.3255 0.0118 0.0000
0.3725 0.0118 0.0000
0.4235 0.0118 0.0000
0.4706 0.0118 0.0000
0.5255 0.0118 0.0000
0.5765 0.0118 0.0000
0.6235 0.0118 0.0000
0.6706 0.0118 0.0000
0.7216 0.0118 0.0000
0.7647 0.0118 0.0000
0.8039 0.0118 0.0000
0.8431 0.0118 0.0000
0.8784 0.0118 0.0000
0.9098 0.0118 0.0000
0.9373 0.0118 0.0000
0.9608 0.0118 0.0000
0.9765 0.0118 0.0000
0.9882 0.0118 0.0000
0.9961 0.0118 0.0000
1.0000 0.0118 0.0000
0.0000 0.0235 0.0000
0.0039 0.0235 0.0000
0.0118 0.0235 0.0000
0.0235 0.0235 0.0000
0.0392 0.0235 0.0000
0.0627 0.0235 0.0000
0.0863 0.0235 0.0000
0.1216 0.0235 0.0000
0.1569 0.0235 0.0000
0.1922 0.0235 0.0000
0.2314 0.0235 0.0000
0.2745 0.0235 0.0000
0.3255 0.0235 0.0000
0.3725 0.0235 0.0000
0.4235 0.0235 0.0000
0.4706 0.0235 0.0000
0.5255 0.0235 0.0000
0.5765 0.0235 0.0000
0.6235 0.0235 0.0000
0.6706 0.0235 0.0000
0.7216 0.0235 0.0000
0.7647 0.0235 0.0000
0.8039 0.0235 0.0000
0.8431 0.0235 0.0000
0.8784 0.0235 0.0000
0.9098 0.0235 0.0000
0.9373 0.0235 0.0000
0.9608 0.0235 0.0000
0.9765 0.0235 0.0000
0.9882 0.0235 0.0000
0.9961 0.0235 0.0000
1.0000 0.0235 0.0000
0.0000 0.0392 0.0000
0.0039 0.0392 0.0000
0.0118 0.0392 0.0000
0.0235 0.0392 0.0000
0.0392 0.0392 0.0000
0.0627 0.0392 0.0000
0.0863 0.0392 0.0000
0.1216 0.0392 0.0000
0.1569 0.0392 0.0000
0.1922 0.0392 0.0000
0.2314 0.0392 0.0000
0.2745 0.0392 0.0000
0.3255 0.0392 0.0000
0.3725 0.0392 0.0000
0.4235 0.0392 0.0000
0.4706 0.0392 0.0000
0.5255 0.0392 0.0000
0.5765 0.0392 0.0000
0.6235 0.0392 0.0000
0.6706 0.0392 0.0000
0.7216 0.0392 0.0000
0.7647 0.0392 0.0000
0.8039 0.0392 0.0000
0.8431 0.0392 0.0000
0.8784 0.0392 0.0000
0.9098 0.0392 0.0000
0.9373 0.0392 0.0000
0.9608 0.0392 0.0000
0.9765 0.0392 0.0000
0.9882 0.0392 0.0000
0.9961 0.0392 0.0000
1.0000 0.0392 0.0000
0.0000 0.0627 0.0000
0.0039 0.0627 0.0000
0.0118 0.0627 0.0000
0.0235 0.0627 0.0000
0.0392 0.0627 0.0000
0.0627 0.0627 0.0000
0.0863 0.0627 0.0000
0.1216 0.0627 0.0000
0.1569 0.0627 0.0000
0.1922 0.0627 0.0000
0.2314 0.0627 0.0000
0.2745 0.0627 0.0000
0.3255 0.0627 0.0000
0.3725 0.0627 0.0000
0.4235 0.0627 0.0000
0.4706 0.0627 0.0000
0.5255 0.0627 0.0000
0.5765 0.0627 0.0000
0.6235 0.0627 0.0000
0.6706 0.0627 0.0000
0.7216 0.0627 0.0000
0.7647 0.0627 0.0000
0.8039 0.0627 0.0000
0.8431 0.0627 0.0000
0.8784 0.0627 0.0000
0.9098 0.0627 0.0000
0.9373 0.0627 0.0000
0.9608 0.0627 0.0000
0.9765 0.0627 0.0000
0.9882 0.0627 0.0000
0.9961 0.0627 0.0000
1.0000 0.0627 0.0000
0.0000 0.0863 0.0000
0.0039 0.0863 0.0000
0.0118 0.0863 0.0000
0.0235 0.0863 0.0000
0.0392 0.0863 0.0000
0.0627 0.0863 0.0000
0.0863 0.0863 0.0000
0.1216 0.0863 0.0000
0.1569 0.0863 0.0000
0.1922 0.0863 0.0000
0.2314 0.0863 0.0000
0.2745 0.0863 0.0000
0.3255 0.0863 0.0000
0.3725 0.0863 0.0000
0.4235 0.0863 0.0000
0.4706 0.0863 0.0000
0.5255 0.0863 0.0000
0.5765 0.0863 0.0000
0.6235 0.0863 0.0000
0.6706 0.0863 0.0000
0.7216 0.0863 0.0000
0.7647 0.0863 0.0000
0.8039 0.0863 0.0000
0.8431 0.0863 0.0000
0.8784 0.0863 0.0000
0.9098 0.0863 0.0000
0.9373 0.0863 0.0000
0.9608 0.0863 0.0000
0.9765 0.0863 0.0000
0.9882 0.0863 0.0000
0.9961 0.0863 0.0000
1.0000 0.0863 0.0000
0.0000 0.1216 0.0000
0.0039 0.1216 0.0000
0.0118 0.1216 0.0000
0.0235 0.1216 0.0000
0.0392 0.1216 0.0000
0.0627 0.1216 0.0000
0.0863 0.1216 0.0000
0.1216 0.1216 0.0000
0.1569 0.1216 0.0000
0.1922 0.1216 0.0000
0.2314 0.1216 0.0000
0.2745 0.1216 0.0000
0.3255 0.1216 0.0000
0.3725 0.1216 0.0000
0.4235 0.1216 0.0000
0.4706 0.1216 0.0000
0.5255 0.1216 0.0000
0.5765 0.1216 0.0000
0.6235 0.1216 0.0000
0.6706 0.1216 0.0000
0.7216 0.1216 0.0000
0.7647 0.1216 0.0000
0.8039 0.1216 0.0000
0.8431 0.1216 0.0000
0.8784 0.1216 0.0000
0.9098 0.1216 0.0000
0.9373 0.1216 0.0000
0.9608 0.1216 0.0000
0.9765 0.1216 0.0000
0.9882 0.1216 0.0000
0.9961 0.1216 0.0000
1.0000 0.1216 0.0000
0.0000 0.1569 0.0000
0.0039 0.1569 0.0000
0.0118 0.1569 0.0000
0.0235 0.1569 0.0000
0.0392 0.1569 0.0000
0.0627 0.1569 0.0000
0.0863 0.1569 0.0000
0.1216 0.1569 0.0000
0.1569 0.1569 0.0000
0.1922 0.1569 0.0000
0.2314 0.1569 0.0000
0.2745 0.1569 0.0000
0.3255 0.1569 0.0000
0.3725 0.1569 0.0000
0.4235 0.1569 0.0000
0.4706 0.1569 0.0000
0.5255 0.1569 0.0000
0.5765 0.1569 0.0000
0.6235 0.1569 0.0000
0.6706 0.1569 0.0000
0.7216 0.1569 0.0000
0.7647 0.1569 0.0000
0.8039 0.1569 0.0000
0.8431 0.1569 0.0000
0.8784 0.1569 0.0000
0.9098 0.1569 0.0000
0.9373 0.1569 0.0000
0.9608 0.1569 0.0000
0.9765 0.1569 0.0000
0.9882 0.1569 0.0000
0.9961 0.1569 0.0000
1.0000 0.1569 0.0000
0.0000 0.1922 0.0000
0.0039 0.1922 0.0000
0.0118 0.1922 0.0000
0.0235 0.1922 0.0000
0.0392 0.1922 0.0000
0.0627 0.1922 0.0000
0.0863 0.1922 0.0000
0.1216 0.1922 0.0000
0.1569 0.1922 0.0000
0.1922 0.1922 0.0000
0.2314 0.1922 0.0000
0.2745 0.1922 0.0000
0.3255 0.1922 0.0000
0.3725 0.1922 0.0000
0.4235 0.1922 0.0000
0.4706 0.1922 0.0000
0.5255 0.1922 0.0000
0.5765 0.1922 0.0000
0.6235 0.1922 0.0000
0.6706 0.1922 0.0000
0.7216 0.1922 0.0000
0.7647 0.1922 0.0000
0.8039 0.1922 0.0000
0.8431 0.1922 0.0000
0.8784 0.1922 0.0000
0.9098 0.1922 0.0000
0.9373 0.1922 0.0000
0.9608 0.1922 0.0000
0.9765 0.1922 0.0000
0.9882 0.1922 0.0000
0.9961 0.1922 0.0000
1.0000 0.1922 0.0000
0.0000 0.2314 0.0000
0.0039 0.2314 0.0000
0.0118 0.2314 0.0000
0.0235 0.2314 0.0000
0.0392 0.2314 0.0000
0.0627 0.2314 0.0000
0.0863 0.2314 0.0000
0.1216 0.2314 0.0000
0.1569 0.2314 0.0000
0.1922 0.2314 0.0000
0.2314 0.2314 0.0000
0.2745 0.2314 0.0000
0.3255 0.2314 0.0000
0.3725 0.2314 0.0000
0.4235 0.2314 0.0000
0.4706 0.2314 0.0000
0.5255 0.2314 0.0000
0.5765 0.2314 0.0000
0.6235 0.2314 0.0000
0.6706 0.2314 0.0000
0.7216 0.2314 0.0000
0.7647 0.2314 0.0000
0.8039 0.2314 0.0000
0.8431 0.2314 0.0000
0.8784 0.2314 0.0000
0.9098 0.2314 0.0000
0.9373 0.2314 0.0000
0.9608 0.2314 0.0000
0.9765 0.2314 0.0000
0.9882 0.2314 0.0000
0.9961 0.2314 0.0000
1.0000 0.2314 0.0000
0.0000 0.2745 0.0000
0.0039 0.2745 0.0000
0.0118 0.2745 0.0000
0.0235 0.2745 0.0000
0.0392 0.2745 0.0000
0.0627 0.2745 0.0000
0.0863 0.2745 0.0000
0.1216 0.2745 0.0000
0.1569 0.2745 0.0000
0.1922 0.2745 0.0000
0.2314 0.2745 0.0000
0.2745 0.2745 0.0000
0.3255 0.2745 0.0000
0.3725 0.2745 0.0000
0.4235 0.2745 0.0000
0.4706 0.2745 0.0000
0.5255 0.2745 0.0000
0.5765 0.2745 0.0000
0.6235 0.2745 0.0000
0.6706 0.2745 0.0000
0.7216 0.2745 0.0000
0.7647 0.2745 0.0000
0.8039 0.2745 0.0000
0.8431 0.2745 0.0000
0.8784 0.2745 0.0000
0.9098 0.2745 0.0000
0.9373 0.2745 0.0000
0.9608 0.2745 0.0000
0.9765 0.2745 0.0000
0.9882 0.2745 0.0000
0.9961 0.2745 0.0000
1.0000 0.2745 0.0000
0.0000 0.3255 0.0000
0.0039 0.3255 0.0000
0.0118 0.3255 0.0000
0.0235 0.3255 0.0000
0.0392 0.3255 0.0000
0.0627 0.3255 0.0000
0.0863 0.3255 0.0000
0.1216 0.3255 0.0000
0.1569 0.3255 0.0000
0.1922 0.3255 0.0000
0.2314 0.3255 0.0000
0.2745 0.3255 0.0000
0.3255 0.3255 0.0000
0.3725 0.3255 0.0000
0.4235 0.3255 0.0000
0.4706 0.3255 0.0000
0.5255 0.3255 0.0000
0.5765 0.3255 0.0000
0.6235 0.3255 0.0000
0.6706 0.3255 0.0000
0.7216 0.3255 0.0000
0.7647 0.3255 0.0000
0.8039 0.3255 0.0000
0.8431 0.3255 0.0000
0.8784 0.3255 0.0000
0.9098 0.3255 0.0000
0.9373 0.3255 0.0000
0.9608 0.3255 0.0000
0.9765 0.3255 0.0000
0.9882 0.3255 0.0000
0.9961 0.3255 0.0000
1.0000 0.3255 0.0000
0.0000 0.3725 0.0000
0.0039 0.3725 0.0000
0.0118 0.3725 0.0000
0.0235 0.3725 0.0000
0.0392 0.3725 0.0000
0.0627 0.3725 0.0000
0.0863 0.3725 0.0000
0.1216 0.3725 0.0000
0.1569 0.3725 0.0000
0.1922 0.3725 0.0000
0.2314 0.3725 0.0000
0.2745 0.3725 0.0000
0.3255 0.3725 0.0000
0.3725 0.3725 0.0000
0.4235 0.3725 0.0000
0.4706 0.3725 0.0000
0.5255 0.3725 0.0000
0.5765 0.3725 0.0000
0.6235 0.3725 0.0000
0.6706 0.3725 0.0000
0.7216 0.3725 0.0000
0.7647 0.3725 0.0000
0.8039 0.3725 0.0000
0.8431 0.3725 0.0000
0.8784 0.3725 0.0000
0.9098 0.3725 0.0000
0.9373 0.3725 0.0000
0.9608 0.3725 0.0000
0.9765 0.3725 0.0000
0.9882 0.3725 0.0000
0.9961 0.3725 0.0000
1.0000 0.3725 0.0000
0.0000 0.4235 0.0000
0.0039 0.4235 0.0000
0.0118 0.4235 0.0000
0.0235 0.4235 0.0000
0.0392 0.4235 0.0000
0.0627 0.4235 0.0000
0.0863 0.4235 0.0000
0.1216 0.4235 0.0000
0.1569 0.4235 0.0000
0.1922 0.4235 0.0000
0.2314 0.4235 0.0000
0.2745 0.4235 0.0000
0.3255 0.4235 0.0000
0.3725 0.4235 0.0000
0.4235 0.4235 0.0000
0.4706 0.4235 0.0000
0.5255 0.4235 0.0000
0.5765 0.4235 0.0000
0.6235 0.4235 0.0000
0.6706 0.4235 0.0000
0.7216 0.4235 0.0000
0.7647 0.4235 0.0000
0.8039 0.4235 0.0000
0.8431 0.4235 0.0000
0.8784 0.4235 0.0000
0.9098 0.4235 0.0000
0.9373 0.4235 0.0000
0.9608 0.4235 0.0000
0.9765 0.4235 0.0000
0.9882 0.4235 0.0000
0.9961 0.4235 0.0000
1.0000 0.4235 0.0000
0.0000 0.4706 0.0000
0.0039 0.4706 0.0000
0.0118 0.4706 0.0000
0.0235 0.4706 0.0000
0.0392 0.4706 0.0000
0.0627 0.4706 0.0000
0.0863 0.4706 0.0000
0.1216 0.4706 0.0000
0.1569 0.4706 0.0000
0.1922 0.4706 0.0000
0.2314 0.4706 0.0000
0.2745 0.4706 0.0000
0.3255 0.4706 0.0000
0.3725 0.4706 0.0000
0.4235 0.4706 0.0000
0.4706 0.4706 0.0000
0.5255 0.4706 0.0000
0.5765 0.4706 0.0000
0.6235 0.4706 0.0000
0.6706 0.4706 0.0000
0.7216 0.4706 0.0000
0.7647 0.4706 0.0000
0.8039 0.4706 0.0000
0.8431 0.4706 0.0000
0.8784 0.4706 0.0000
0.9098 0.4706 0.0000
0.9373 0.4706 0.0000
0.9608 0.4706 0.0000
0.9765 0.4706 0.0000
0.9882 0.4706 0.0000
0.9961 0.4706 0.0000
1.0000 0.4706 0.0000
0.0000 0.5255 0.0000
0.0039 0.5255 0.0000
0.0118 0.5255 0.0000
0.0235 0.5255 0.0000
0.0392 0.5255 0.0000
0.0627 0.5255 0.0000
0.0863 0.5255 0.0000
0.1216 0.5255 0.0000
0.1569 0.5255 0.0000
0.1922 0.5255 0.0000
0.2314 0.5255 0.0000
0.2745 0.5255 0.0000
0.3255 0.5255 0.0000
0.3725 0.5255 0.0000
0.4235 0.5255 0.0000
0.4706 0.5255 0.0000
0.5255 0.5255 0.0000
0.5765 0.5255 0.0000
0.6235 0.5255 0.0000
0.6706 0.5255 0.0000
0.7216 0.5255 0.0000
0.7647 0.5255 0.0000
0.8039 0.5255 0.0000
0.8431 0.5255 0.0000
0.8784 0.5255 0.0000
0.9098 0.5255 0.0000
0.9373 0.5255 0.0000
0.9608 0.5255 0.0000
0.9765 0.5255 0.0000
0.9882 0.5255 0.0000
0.9961 0.5255 0.0000
1.0000 0.5255 0.0000
0.0000 0.5765 0.0000
0.0039 0.5765 0.0000
0.0118 0.5765 0.0000
0.0235 0.5765 0.0000
0.0392 0.5765 0.0000
0.0627 0.5765 0.0000
0.0863 0.5765 0.0000
0.1216 0.5765 0.0000
0.1569 0.5765 0.0000
0.1922 0.5765 0.0000
0.2314 0.5765 0.0000
0.2745 0.5765 0.0000
0.3255 0.5765 0.0000
0.3725 0.5765 0.0000
0.4235 0.5765 0.0000
0.4706 0.5765 0.0000
0.5255 0.5765 0.0000
0.5765 0.5765 0.0000
0.6235 0.5765 0.0000
0.6706 0.5765 0.0000
0.7216 0.5765 0.0000
0.7647 0.5765 0.0000
0.8039 0.5765 0.0000
0.8431 0.5765 0.0000
0.8784 0.5765 0.0000
0.9098 0.5765 0.0000
0.9373 0.5765 0.0000
0.9608 0.5765 0.0000
0.9765 0.5765 0.0000
0.9882 0.5765 0.0000
0.9961 0.5765 0.0000
1.0000 0.5765 0.0000
0.0000 0.6235 0.0000
0.0039 0.6235 0.0000
0.0118 0.6235 0.0000
0.0235 0.6235 0.0000
0.0392 0.6235 0.0000
0.0627 0.6235 0.0000
0.0863 0.6235 0.0000
0.1216 0.6235 0.0000
0.1569 0.6235 0.0000
0.1922 0.6235 0.0000
0.2314 0.6235 0.0000
0.2745 0.6235 0.0000
0.3255 0.6235 0.0000
0.3725 0.6235 0.0000
0.4235 0.6235 0.0000
0.4706 0.6235 0.0000
0.5255 0.6235 0.0000
0.5765 0.6235 0.0000
0.6235 0.6235 0.0000
0.6706 0.6235 0.0000
0.7216 0.6235 0.0000
0.7647 0.6235 0.0000
0.8039 0.6235 0.0000
0.8431 0.6235 0.0000
0.8784 0.6235 0.0000
0.9098 0.6235 0.0000
0.9373 0.6235 0.0000
0.9608 0.6235 0.0000
0.9765 0.6235 0.0000
0.9882 0.6235 0.0000
0.9961 0.6235 0.0000
1.0000 0.6235 0.0000
0.0000 0.6706 0.0000
0.0039 0.6706 0.0000
0.0118 0.6706 0.0000
0.0235 0.6706 0.0000
0.0392 0.6706 0.0000
0.0627 0.6706 0.0000
0.0863 0.6706 0.0000
0.1216 0.6706 0.0000
0.1569 0.6706 0.0000
0.1922 0.6706 0.0000
0.2314 0.6706 0.0000
0.2745 0.6706 0.0000
0.3255 0.6706 0.0000
0.3725 0.6706 0.0000
0.4235 0.6706 0.0000
0.4706 0.6706 0.0000
0.5255 0.6706 0.0000
0.5765 0.6706 0.0000
0.6235 0.6706 0.0000
0.6706 0.6706 0.0000
0.7216 0.6706 0.0000
0.7647 0.6706 0.0000
0.8039 0.6706 0.0000
0.8431 0.6706 0.0000
0.8784 0.6706 0.0000
0.9098 0.6706 0.0000
0.9373 0.6706 0.0000
0.9608 0.6706 0.0000
0.9765 0.6706 0.0000
0.9882 0.6706 0.0000
0.9961 0.6706 0.0000
1.0000 0.6706 0.0000
0.0000 0.7216 0.0000
0.0039 0.7216 0.0000
0.0118 0.7216 0.0000
0.0235 0.7216 0.0000
0.0392 0.7216 0.0000
0.0627 0.7216 0.0000
0.0863 0.7216 0.0000
0.1216 0.7216 0.0000
0.1569 0.7216 0.0000
0.1922 0.7216 0.0000
0.2314 0.7216 0.0000
0.2745 0.7216 0.0000
0.3255 0.7216 0.0000
0.3725 0.7216 0.0000
0.4235 0.7216 0.0000
0.4706 0.7216 0.0000
0.5255 0.7216 0.0000
0.5765 0.7216 0.0000
0.6235 0.7216 0.0000
0.6706 0.7216 0.0000
0.7216 0.7216 0.0000
0.7647 0.7216 0.0000
0.8039 0.7216 0.0000
0.8431 0.7216 0.0000
0.8784 0.7216 0.0000
0.9098 0.7216 0.0000
0.9373 0.7216 0.0000
0.9608 0.7216 0.0000
0.9765 0.7216 0.0000
0.9882 0.7216 0.0000
0.9961 0.7216 0.0000
1.0000 0.7216 0.0000
0.0000 0.7647 0.0000
0.0039 0.7647 0.0000
0.0118 0.7647 0.0000
0.0235 0.7647 0.0000
0.0392 0.7647 0.0000
0.0627 0.7647 0.0000
0.0863 0.7647 0.0000
0.1216 0.7647 0.0000
0.1569 0.7647 0.0000
0.1922 0.7647 0.0000
0.2314 0.7647 0.0000
0.2745 0.7647 0.0000
0.3255 0.7647 0.0000
0.3725 0.7647 0.0000
0.4235 0.7647 0.0000
0.4706 0.7647 0.0000
0.5255 0.7647 0.0000
0.5765 0.7647 0.0000
0.6235 0.7647 0.0000
0.6706 0.7647 0.0000
0.7216 0.7647 0.0000
0.7647 0.7647 0.0000
0.8039 0.7647 0.0000
0.8431 0.7647 0.0000
0.8784 0.7647 0.0000
0.9098 0.7647 0.0000
0.9373 0.7647 0.0000
0.9608 0.7647 0.0000
0.9765 0.7647 0.0000
0.9882 0.7647 0.0000
0.9961 0.7647 0.0000
1.0000 0.7647 0.0000
0.0000 0.8039 0.0000
0.0039 0.8039 0.0000
0.0118 0.8039 0.0000
0.0235 0.8039 0.0000
0.0392 0.8039 0.0000
0.0627 0.8039 0.0000
0.0863 0.8039 0.0000
0.1216 0.8039 0.0000
0.1569 0.8039 0.0000
0.1922 0.8039 0.0000
0.2314 0.8039 0.0000
0.2745 0.8039 0.0000
0.3255 0.8039 0.0000
0.3725 0.8039 0.0000
0.4235 0.8039 0.0000
0.4706 0.8039 0.0000
0.5255 0.8039 0.0000
0.5765 0.8039 0.0000
0.6235 0.8039 0.0000
0.6706 0.8039 0.0000
0.7216 0.8039 0.0000
0.7647 0.8039 0.0000
0.8039 0.8039 0.0000
0.8431 0.8039 0.0000
0.8784 0.8039 0.0000
0.9098 0.8039 0.0000
0.9373 0.8039 0.0000
0.9608 0.8039 0.0000
0.9765 0.8039 0.0000
0.9882 0.8039 0.0000
0.9961 0.8039 0.0000
1.0000 0.8039 0.0000
0.0000 0.8431 0.0000
0.0039 0.8431 0.0000
0.0118 0.8431 0.0000
0.0235 0.8431 0.0000
0.0392 0.8431 0.0000
0.0627 0.8431 0.0000
0.0863 0.8431 0.0000
0.1216 0.8431 0.0000
0.1569 0.8431 0.0000
0.1922 0.8431 0.0000
0.2314 0.8431 0.0000
0.2745 0.8431 0.0000
0.3255 0.8431 0.0000
0.3725 0.8431 0.0000
0.4235 0.8431 0.0000
0.4706 0.8431 0.0000
0.5255 0.8431 0.0000
0.5765 0.8431 0.0000
0.6235 0.8431 0.0000
0.6706 0.8431 0.0000
0.7216 0.8431 0.0000
0.7647 0.8431 0.0000
0.8039 0.8431 0.0000
0.8431 0.8431 0.0000
0.8784 0.8431 0.0000
0.9098 0.8431 0.0000
0.9373 0.8431 0.0000
0.9608 0.8431 0.0000
0.9765 0.8431 0.0000
0.9882 0.8431 0.0000
0.9961 0.8431 0.0000
1.0000 0.8431 0.0000
0.0000 0.8784 0.0000
0.0039 0.8784 0.0000
0.0118 0.8784 0.0000
0.0235 0.8784 0.0000
0.0392 0.8784 0.0000
0.0627 0.8784 0.0000
0.0863 0.8784 0.0000
0.1216 0.8784 0.0000
0.1569 0.8784 0.0000
0.1922 0.8784 0.0000
0.2314 0.8784 0.0000
0.2745 0.8784 0.0000
0.3255 0.8784 0.0000
0.3725 0.8784 0.0000
0.4235 0.8784 0.0000
0.4706 0.8784 0.0000
0.5255 0.8784 0.0000
0.5765 0.8784 0.0000
0.6235 0.8784 0.0000
0.6706 0.8784 0.0000
0.7216 0.8784 0.0000
0.7647 0.8784 0.0000
0.8039 0.8784 0.0000
0.8431 0.8784 0.0000
0.8784 0.8784 0.0000
0.9098 0.8784 0.0000
0.9373 0.8784 0.0000
0.9608 0.8784 0.0000
0.9765 0.8784 0.0000
0.9882 0.8784 0.0000
0.9961 0.8784 0.0000
1.0000 0.8784 0.0000
0.0000 0.9098 0.0000
0.0039 0.9098 0.0000
0.0118 0.9098 0.0000
0.0235 0.9098 0.0000
0.0392 0.9098 0.0000
0.0627 0.9098 0.0000
0.0863 0.9098 0.0000
0.1216 0.9098 0.0000
0.1569 0.9098 0.0000
0.1922 0.9098 0.0000
0.2314 0.9098 0.0000
0.2745 0.9098 0.0000
0.3255 0.9098 0.0000
0.3725 0.9098 0.0000
0.4235 0.9098 0.0000
0.4706 0.9098 0.0000
0.5255 0.9098 0.0000
0.5765 0.9098 0.0000
0.6235 0.9098 0.0000
0.6706 0.9098 0.0000
0.7216 0.9098 0.0000
0.7647 0.9098 0.0000
0.8039 0.9098 0.0000
0.8431 0.9098 0.0000
0.8784 0.9098 0.0000
0.9098 0.9098 0.0000
0.9373 0.9098 0.0000
0.9608 0.9098 0.0000
0.9765 0.9098 0.0000
0.9882 0.9098 0.0000
0.9961 0.9098 0.0000
1.0000 0.9098 0.0000
0.0000 0.9373 0.0000
0.0039 0.9373 0.0000
0.0118 0.9373 0.0000
0.0235 0.9373 0.0000
0.0392 0.9373 0.0000
0.0627 0.9373 0.0000
0.0863 0.9373 0.0000
0.1216 0.9373 0.0000
0.1569 0.9373 0.0000
0.1922 0.9373 0.0000
0.2314 0.9373 0.0000
0.2745 0.9373 0.0000
0.3255 0.9373 0.0000
0.3725 0.9373 0.0000
0.4235 0.9373 0.0000
0.4706 0.9373 0.0000
0.5255 0.9373 0.0000
0.5765 0.9373 0.0000
0.6235 0.9373 0.0000
0.6706 0.9373 0.0000
0.7216 0.9373 0.0000
0.7647 0.9373 0.0000
0.8039 0.9373 0.0000
0.8431 0.9373 0.0000
0.8784 0.9373 0.0000
0.9098 0.9373 0.0000
0.9373 0.9373 0.0000
0.9608 0.9373 0.0000
0.9765 0.9373 0.0000
0.9882 0.9373 0.0000
0.9961 0.9373 0.0000
1.0000 0.9373 0.0000
0.0000 0.9608 0.0000
0.0039 0.9608 0.0000
0.0118 0.9608 0.0000
0.0235 0.9608 0.0000
0.0392 0.9608 0.0000
0.0627 0.9608 0.0000
0.0863 0.9608 0.0000
0.1216 0.9608 0.0000
0.1569 0.9608 0.0000
0.1922 0.9608 0.0000
0.2314 0.9608 0.0000
0.2745 0.9608 0.0000
0.3255 0.9608 0.0000
0.3725 0.9608 0.0000
0.4235 0.9608 0.0000
0.4706 0.9608 0.0000
0.5255 0.9608 0.0000
0.5765 0.9608 0.0000
0.6235 0.9608 0.0000
0.6706 0.9608 0.0000
0.7216 0.9608 0.0000
0.7647 0.9608 0.0000
0.8039 0.9608 0.0000
0.8431 0.9608 0.0000
0.8784 0.9608 0.0000
0.9098 0.9608 0.0000
0.9373 0.9608 0.0000
0.9608 0.9608 0.0000
0.9765 0.9608 0.0000
0.9882 0.9608 0.0000
0.9961 0.9608 0.0000
1.0000 0.9608 0.0000
0.0000 0.9765 0.0000
0.0039 0.9765 0.0000
0.0118 0.9765 0.0000
0.0235 0.9765 0.0000
