luts/-UTILITY/LOG_to_Rec709/SLog2-SGumut_To_Cine+709.cube
TITLE "Generate by Resolve"
LUT_3D_SIZE 9
0.0401617 0.0389105 0.0283207
0.116167 0.0255589 0.0273594
0.39704 0 0
0.555932 0 0
0.637018 0 0.00480659
0.684001 0 0.30251
0.706783 0 0.528298
0.760464 0 0.685939
0.866194 0.0940261 0.846281
0.0391546 0.0562753 0.0284733
0.0652628 0.0612955 0.0259556
0.351553 0.00170901 0
0.546349 0 0
0.622019 0 0
0.682536 0 0.272374
0.705501 0 0.519677
0.758465 0 0.682185
0.865553 0.0892805 0.845319
0 0.249073 0
0 0.247074 0
0.284642 0.319921 0
0.692348 0.331472 0
0.800488 0.209033 0
0.770596 0 0.00114443
0.693935 0 0.416098
0.754696 0 0.675135
0.864347 0.0804608 0.843519
0 0.374365 0
0 0.374029 0
0 0.371069 0
0.623117 0.62153 0
0.924315 0.645075 0
0.96083 0.495338 0
0.912978 0.344823 0.203708
0.789456 0 0.579751
0.861677 0.0608682 0.839536
0 0.436377 0
0 0.436271 0
0 0.436072 0
0 0.487739 0
0.868788 0.771756 0
1 0.789517 0
1 0.712139 0
0.999298 0.651637 0.46273
0.903883 0.309438 0.792187
0 0.465614 0
0 0.465614 0
0 0.465614 0
0 0.465614 0
0.336095 0.650385 0
0.996765 0.83064 0
1 0.843565 0
1 0.85745 0
1 0.868299 0.698222
0 0.465614 0
0 0.465614 0
0 0.465614 0
0 0.465614 0
0 0.465614 0
0.61323 0.745968 0
1 0.853376 0
1 0.861524 0
1 0.953536 0.33994
0 0.465614 0
0 0.465614 0
0 0.465614 0
0 0.465614 0
0 0.465614 0
0 0.465614 0
0.833112 0.805066 0
1 0.859129 0
1 0.862318 0
0 0.465614 0
0 0.465614 0
0 0.465614 0
0 0.465614 0
0 0.465614 0
0 0.465614 0
0 0.465614 0
0.969863 0.835019 0
1 0.862165 0
0.0271611 0.039704 0.101244
0.1364 0.0141299 0.11342
0.426459 0 0.12607
0.586511 0 0.175036
0.660563 0 0.285298
0.692988 0 0.432258
0.714931 0 0.573205
0.775631 0 0.710765
0.870069 0.123262 0.852064
0.0255589 0.0608377 0.0554971
0.0581216 0.0600748 0.0531472
0.333837 0 0.0428473
0.530297 0 0.0429236
0.644282 0 0.175799
0.691295 0 0.416129
0.713664 0 0.566918
0.773007 0 0.706752
0.869474 0.118639 0.851164
0 0.228305 0
0 0.221195 0
0.280552 0.266651 0
0.653269 0.235142 0
0.769329 0.127733 0
0.774212 0 0.210697
0.698711 0 0.465202
0.768093 0 0.699214
0.868345 0.110079 0.8495
0 0.375509 0
0 0.375174 0
0 0.371298 0
0.625605 0.61561 0
0.898085 0.560555 0
0.938338 0.458793 0
0.910155 0.345983 0.341207
0.795285 0 0.609003
0.865827 0.0912795 0.845716
0 0.436759 0
0 0.436652 0
0 0.436439 0
0.00109865 0.493889 0
0.86978 0.772381 0
1 0.767071 0
1 0.722713 0
0.996429 0.651545 0.52398
0.905303 0.31371 0.801541
0 0.465614 0
0 0.465614 0
0 0.465614 0
0 0.465614 0
0.342855 0.65272 0
0.996994 0.830762 0
1 0.843656 0
1 0.871305 0.0302434
1 0.869276 0.720928
0 0.465614 0
0 0.465614 0
0 0.465614 0
0 0.465614 0
0 0.465614 0
0.616175 0.746838 0
1 0.853391 0
1 0.861524 0
1 0.959655 0.408011
0 0.465614 0
0 0.465614 0
0 0.465614 0
0 0.465614 0
0 0.465614 0
0 0.465614 0
0.833982 0.805264 0
1 0.859129 0
1 0.862318 0
0 0.465614 0
0 0.465614 0
0 0.465614 0
0 0.465614 0
0 0.465614 0
0 0.465614 0
0 0.465614 0
0.970092 0.835065 0
1 0.862165 0
0.08336 0 0.379202
0.204501 0 0.426215
0.474311 0 0.453544
0.615427 0 0.460639
0.679377 0 0.495903
0.709438 0 0.55642
0.732952 0 0.630686
0.803754 0 0.753277
0.876692 0.173968 0.861952
0.00166323 0.0707103 0.33431
0.0647135 0.0418097 0.322591
0.359091 0 0.333486
0.556542 0 0.330129
0.656886 0 0.394034
0.704814 0 0.536767
0.731228 0 0.626245
0.801465 0 0.749874
0.876127 0.169696 0.861112
0 0.239811 0.293416
0 0.238392 0.302586
0.251942 0.262776 0.273045
0.652247 0.224048 0.26627
0.773648 0.100771 0.309468
0.780362 0 0.415106
0.705943 0 0.522713
0.797192 0 0.743526
0.875105 0.161776 0.859571
0 0.377951 0.103395
0 0.378851 0.118212
0 0.367971 0.125887
0.597955 0.546883 0.00302129
0.878813 0.518944 0
0.928893 0.457603 0.23592
0.907851 0.346761 0.493599
0.805463 0 0.651987
0.872801 0.144228 0.856153
0 0.433371 0
0 0.43154 0
0 0.428077 0
0.013901 0.490318 0
0.859693 0.725155 0
1 0.738369 0
1 0.740139 0.164141
0.992615 0.650675 0.609522
0.907988 0.322316 0.816892
0 0.465614 0
0 0.465614 0
0 0.465614 0
0 0.465614 0
0.3552 0.656947 0
0.997391 0.830976 0
1 0.814206 0
1 0.888609 0.248417
1 0.870817 0.757946
0 0.465614 0
0 0.465614 0
0 0.465614 0
0 0.465614 0
0 0.465614 0
0.621515 0.748394 0
1 0.853407 0
1 0.858747 0
1 0.968902 0.493553
0 0.465614 0
0 0.465614 0
0 0.465614 0
0 0.465614 0
0 0.465614 0
0 0.465614 0
0.835599 0.805631 0
1 0.859129 0
1 0.862318 0
0 0.465614 0
0 0.465614 0
0 0.465614 0
0 0.465614 0
0 0.465614 0
0 0.465614 0
0 0.465614 0
0.970504 0.835142 0
1 0.862165 0
0.0241398 0 0.484413
0.247028 0 0.558648
0.495048 0 0.59823
0.645808 0 0.617166
0.725856 0 0.656382
0.757992 0 0.684657
0.792462 0 0.736522
0.842618 0.00306706 0.811093
0.880247 0.201251 0.867262
0.00299077 0.0661479 0.527108
0.120424 0.00903334 0.532296
0.400854 0 0.564965
0.599588 0 0.554452
0.66685 0 0.539208
0.724666 0 0.622492
0.789944 0 0.732708
0.841505 0.00248722 0.80943
0.880247 0.201251 0.867262
0 0.265171 0.570626
0 0.257359 0.56614
0.278737 0.281041 0.599603
0.659297 0.230198 0.605097
0.783093 0.0970626 0.598077
0.800412 0 0.616495
0.719722 0 0.590951
0.839429 0.00141909 0.806332
0.880247 0.201251 0.867262
0 0.439292 0.545266
0 0.438743 0.548272
0 0.413001 0.522698
0.583535 0.573953 0.54905
0.861784 0.52282 0.545205
0.918013 0.4542 0.585595
0.90869 0.350011 0.66865
0.826368 0.0316014 0.718441
0.880247 0.201251 0.867262
0 0.505898 0.403281
0 0.506844 0.408652
0 0.5084 0.418311
0 0.588998 0.382834
0.839155 0.795682 0.310643
0.993194 0.779004 0.379202
1 0.749249 0.542748
0.988159 0.648936 0.728588
0.914183 0.344335 0.843976
0 0.454353 0
0 0.458656 0
0 0.466728 0
0 0.481544 0
0.320943 0.67985 0
0.993362 0.855299 0
1 0.892729 0.0912642
1 0.908248 0.522896
1 0.871153 0.818189
0 0.465614 0
0 0.465614 0
0 0.465614 0
0 0.465614 0
0 0.465614 0
0.632868 0.75172 0
1 0.853437 0
1 0.910903 0
1 0.983154 0.625223
0 0.465614 0
0 0.465614 0
0 0.465614 0
0 0.465614 0
0 0.465614 0
0 0.465614 0
0.839048 0.806439 0
1 0.859144 0
1 0.862318 0
0 0.465614 0
0 0.465614 0
0 0.465614 0
0 0.465614 0
0 0.465614 0
0 0.465614 0
0 0.465614 0
0.971374 0.835325 0
1 0.862165 0
0 0 0.621592
0.287449 0 0.67155
0.515221 0 0.69662
0.669291 0 0.707149
0.76762 0 0.740246
0.841199 0.00436408 0.813367
0.866484 0.0961471 0.846708
0.880247 0.201251 0.867262
0.880247 0.201251 0.867262
0 0.207599 0.644877
0.137636 0.172656 0.691279
0.468711 0.103807 0.733776
0.668971 0.00955215 0.731579
0.743343 0 0.71017
0.756405 0 0.695674
0.85771 0.0317235 0.833616
0.880247 0.201251 0.867262
0.880247 0.201251 0.867262
0 0.310262 0.684291
0 0.289326 0.675349
0.340856 0.325353 0.76614
0.683131 0.275593 0.790722
0.807401 0.172412 0.7794
0.837095 0.0456703 0.773037
0.800549 0 0.731334
0.880247 0.201251 0.867262
0.880247 0.201251 0.867262
0 0.452338 0.713573
0 0.451652 0.713985
0 0.469947 0.726528
0.595941 0.571023 0.813413
0.856687 0.518929 0.81294
0.917189 0.45803 0.808743
0.917098 0.372412 0.817288
0.865095 0.145251 0.806531
0.880247 0.201251 0.867262
0 0.550439 0.700191
0 0.550362 0.700984
0 0.55024 0.702434
0 0.668284 0.733074
0.815778 0.813672 0.765743
0.972168 0.783139 0.76791
0.998779 0.747692 0.799954
0.984833 0.646403 0.85333
0.928847 0.403937 0.885679
0 0.594263 0.642725
0 0.594385 0.644007
0 0.594629 0.646326
0 0.595132 0.651316
0.0555428 0.807309 0.641779
0.959838 0.938552 0.614572
1 0.935256 0.661677
1 0.921477 0.766476
1 0.867643 0.894286
0 0.54583 0.274342
0 0.547433 0.284184
0 0.55024 0.296269
0 0.556008 0.321187
0 0.567819 0.370367
0.605417 0.858198 0.193668
1 0.951888 0.278187
1 0.97998 0.554421
1 0.996246 0.783459
0 0.465614 0
0 0.465614 0
0 0.465614 0
0 0.465614 0
0 0.465614 0
0 0.465614 0
0.846418 0.808133 0
1 0.859159 0
1 0.97641 0.38764
0 0.465614 0
0 0.465614 0
0 0.465614 0
0 0.465614 0
0 0.465614 0
0 0.465614 0
0 0.465614 0
0.973266 0.835706 0
1 0.862165 0
0.118883 0.366461 0.802243
0.400839 0.370428 0.837964
0.612589 0.347219 0.862272
0.763348 0.272786 0.86598
0.835874 0.149676 0.853178
0.860395 0.0849928 0.846784
0.880247 0.201251 0.867262
0.880247 0.201251 0.867262
0.880247 0.201251 0.867262
0 0.39321 0.787198
0.285756 0.418173 0.834073
0.56669 0.414008 0.869429
0.759411 0.374487 0.882948
0.852598 0.305241 0.877592
0.879042 0.20763 0.86807
0.870024 0.0781109 0.847654
0.880247 0.201251 0.867262
0.880247 0.201251 0.867262
0 0.395865 0.738079
0 0.466407 0.815015
0.453452 0.495933 0.872724
0.736004 0.468711 0.899245
0.859968 0.411963 0.897597
0.902663 0.375921 0.894133
0.908309 0.307958 0.886015
0.872816 0.144244 0.856153
0.880247 0.201251 0.867262
0 0.494606 0.767239
0 0.494209 0.767163
0.00646983 0.584314 0.845075
0.64918 0.6318 0.916823
0.86807 0.587152 0.924834
0.933806 0.540703 0.920089
0.945693 0.493965 0.915633
0.926116 0.389761 0.903304
0.880247 0.201251 0.867262
0 0.567681 0.782528
0 0.56759 0.782574
0 0.567437 0.782666
0 0.730465 0.87335
0.823728 0.812421 0.940002
0.964385 0.779553 0.939818
0.994385 0.75111 0.940063
0.98909 0.676081 0.94258
0.958144 0.534432 0.935699
0 0.613321 0.785489
0 0.613306 0.785611
0 0.613275 0.78584
0 0.613184 0.786343
0.243534 0.861692 0.882307
0.945663 0.953307 0.91574
1 0.942901 0.914488
1 0.921996 0.93051
1 0.868711 0.963241
0 0.64062 0.771725
0 0.64065 0.771969
0 0.640711 0.772427
0 0.640848 0.773404
0 0.641123 0.775494
0.591501 0.946303 0.848295
1 1 0.843214
1 1 0.865141
1 1 0.920607
0 0.598566 0.505425
0 0.599084 0.507988
0 0.600031 0.512657
0 0.602029 0.522591
0 0.605982 0.542672
0 0.613031 0.580652
0.818799 0.959228 0.575174
1 1 0.660456
1 1 0.810437
0 0.465614 0
0 0.465614 0
0 0.465614 0
0 0.465614 0
0 0.465614 0
0 0.465614 0
0 0.465614 0
0.97731 0.83653 0
1 0.862181 0
0.457557 0.557687 0.903563
0.578683 0.5617 0.919524
0.699306 0.558068 0.93344
0.815686 0.539651 0.942321
0.896574 0.508858 0.943969
0.934661 0.495842 0.945068
0.941939 0.453605 0.938155
0.891325 0.245487 0.880049
0.880247 0.201251 0.867262
0.374304 0.585718 0.90074
0.52549 0.594949 0.920623
0.673869 0.595636 0.938582
0.808621 0.580133 0.949981
0.8981 0.550408 0.952544
0.940826 0.535912 0.953094
0.951217 0.498085 0.94847
0.913771 0.335454 0.905898
0.880247 0.201251 0.867262
0.152071 0.614771 0.887236
0.395636 0.63917 0.915755
0.616312 0.652232 0.943206
0.791012 0.644114 0.960327
0.89958 0.616678 0.965331
0.949752 0.596429 0.964385
0.963897 0.56733 0.961105
0.943954 0.459541 0.939757
0.880247 0.201251 0.867262
0 0.553994 0.80618
0 0.654902 0.875105
0.386236 0.720668 0.93225
0.730312 0.739483 0.967803
0.891966 0.71783 0.97673
0.961517 0.692912 0.977386
0.980774 0.667491 0.974838
0.971893 0.594644 0.964401
0.923644 0.375418 0.917235
0 0.583963 0.799847
0 0.583841 0.799817
0 0.577951 0.798108
0.419944 0.818494 0.947326
0.848753 0.851698 0.986755
0.970047 0.831128 0.990982
1 0.812009 0.990646
1 0.765896 0.98674
0.986236 0.668299 0.977508
0 0.624872 0.812085
0 0.624826 0.812085
0 0.62475 0.81207
0 0.624582 0.812055
0.5196 0.907546 0.960449
0.94548 0.952224 0.994034
1 0.944701 0.995789
1 0.928649 0.996506
1 0.891539 0.998489
0 0.657969 0.825559
0 0.657969 0.825559
0 0.657954 0.825589
0 0.657954 0.82562
0 0.657923 0.825696
0.671122 0.970565 0.97081
1 1 0.988251
1 1 0.988907
1 1 0.995117
0 0.65919 0.818936
0 0.65922 0.819013
0 0.659281 0.81915
0 0.659403 0.81944
0 0.659648 0.820066
0 0.660212 0.821393
0.816724 1 0.958587
1 1 0.9617
1 1 0.973846
0 0.627924 0.666529
0 0.628046 0.667247
0 0.62826 0.668589
0 0.628748 0.671458
0 0.629755 0.677562
0 0.6318 0.689967
0 0.635294 0.712673
0.93402 1 0.761608
1 1 0.836484
0.717464 0.727428 0.966705
0.754742 0.726711 0.970001
0.805447 0.72369 0.973907
0.868116 0.714046 0.977737
0.930312 0.697459 0.980346
0.967529 0.687877 0.981674
0.98233 0.667414 0.979629
0.972824 0.597665 0.967254
0.93434 0.419059 0.929335
0.6963 0.743542 0.967041
0.738033 0.743725 0.970977
0.794171 0.741924 0.975586
0.863584 0.733806 0.980117
0.929915 0.717403 0.983032
0.969863 0.707164 0.984634
0.985565 0.687785 0.982986
0.977661 0.622415 0.971801
0.944457 0.461677 0.940291
0.652857 0.76878 0.966613
0.703914 0.770962 0.971908
0.772061 0.771603 0.978042
0.853849 0.765576 0.983703
0.927733 0.750439 0.987259
0.973266 0.739406 0.989197
0.990723 0.721538 0.988357
0.985397 0.663081 0.979065
0.957732 0.522271 0.953429
0.503136 0.799191 0.95642
0.597971 0.809415 0.967071
0.704875 0.81796 0.978439
0.824659 0.820142 0.988617
0.920562 0.808499 0.994156
0.977981 0.797162 0.996841
0.998978 0.781811 0.996841
0.998169 0.734981 0.990753
0.978515 0.626749 0.972595
0 0.713191 0.873152
0 0.778607 0.910689
0.381842 0.841337 0.952834
0.711269 0.883696 0.986816
0.890257 0.889647 1
0.979599 0.880812 1
1 0.87068 1
1 0.840528 1
1 0.77322 0.996323
0 0.626932 0.814725
0 0.626902 0.814694
0 0.626825 0.814664
0 0.70837 0.858396
0.732952 0.946136 0.995087
0.958267 0.960922 1
1 0.958206 1
1 0.946883 1
1 0.92018 1
0 0.660395 0.831968
0 0.66038 0.831952
0 0.660349 0.831937
0 0.660288 0.831907
0 0.660166 0.831846
0.786938 0.991501 1
1 1 1
1 1 1
1 1 1
0 0.676326 0.840436
0 0.676326 0.840436
0 0.676326 0.840436
0 0.676326 0.840436
0 0.676326 0.840436
0 0.676326 0.840436
0.859312 1 1
1 1 1
1 1 1
0 0.671168 0.834699
0 0.671183 0.834714
0 0.671199 0.83473
0 0.671229 0.834775
0 0.671321 0.834867
0 0.671504 0.835081
0 0.671885 0.835523
0.935805 1 1
1 1 1
0.878248 0.876936 0.998871
0.888655 0.876234 0.999542
0.905348 0.874983 1
0.932921 0.87245 1
0.967544 0.868849 1
0.994522 0.864256 1
1 0.85449 1
1 0.825605 1
1 0.767773 0.99559
0.873503 0.883284 0.999191
0.884184 0.882597 0.999863
0.90193 0.881392 1
0.930632 0.878904 1
0.966628 0.875227 1
0.994919 0.871336 1
1 0.861601 1
1 0.834104 1
1 0.778836 0.997086
0.863859 0.894286 0.999634
0.875761 0.893751 1
0.89456 0.892607 1
0.925689 0.890257 1
0.964889 0.886473 1
0.995438 0.882826 1
1 0.874113 1
1 0.848966 1
1 0.79794 0.999649
0.837568 0.911116 0.999435
0.852735 0.911345 1
0.876478 0.911391 1
0.913207 0.910246 1
0.960555 0.90779 1
0.995834 0.90457 1
1 0.897368 1
1 0.875929 1
1 0.833646 1
0.749615 0.930724 0.994888
0.779171 0.933867 0.997482
0.820172 0.937224 1
0.878126 0.940032 1
0.943542 0.939666 1
0.99443 0.938109 1
1 0.9337 1
1 0.919875 1
1 0.891035 1
0.00285344 0.845212 0.927642
0.204807 0.880308 0.947601
0.490364 0.920668 0.971801
0.718059 0.957732 0.995071
0.882994 0.975601 1
0.980621 0.978973 1
1 0.977615 1
1 0.970916 1
1 0.956176 1
0 0.661067 0.832319
0 0.661051 0.832319
0 0.661036 0.832303
0 0.661006 0.832288
0 0.859556 0.930404
0.895033 1 1
1 1 1
1 1 1
1 1 1
0 0.676326 0.840436
0 0.676326 0.840436
0 0.676326 0.840436
0 0.676326 0.840436
0 0.676326 0.840436
0 0.676326 0.840436
0.919997 1 1
1 1 1
1 1 1
0 0.676326 0.840436
0 0.676326 0.840436
0 0.676326 0.840436
0 0.676326 0.840436
0 0.676326 0.840436
0 0.676326 0.840436
0 0.676326 0.840436
0.961471 1 1
1 1 1
