luts/-UTILITY/LOG_to_Rec709/SLog3-SGamut_to_Cine+709.cube
TITLE "Generate by Resolve"
LUT_3D_SIZE 33
0.0399939 0.0388647 0.029572
0.0399939 0.0388647 0.029572
0.0421454 0.0389258 0.0296635
0.0454414 0.0393378 0.0298161
0.049012 0.0394598 0.0299687
0.0535439 0.0396124 0.0300603
0.0619974 0.0397803 0.0303349
0.0798352 0.0381781 0.03122
0.121782 0.0317235 0.0347601
0.171633 0.0361334 0.0411231
0.231312 0.0484474 0.049836
0.302815 0.0634165 0.063447
0.365805 0.0766003 0.0766003
0.423865 0.0887617 0.0887617
0.476585 0.099794 0.099794
0.514778 0.10779 0.10779
0.548043 0.114763 0.114763
0.575814 0.120577 0.120577
0.596841 0.124971 0.124971
0.609735 0.127672 0.127687
0.619364 0.129686 0.129702
0.626932 0.131273 0.131289
0.633234 0.132601 0.132601
0.633844 0.132723 0.132723
0.633844 0.132723 0.132723
0.633844 0.132723 0.132723
0.633844 0.132723 0.132723
0.633844 0.132723 0.132723
0.633844 0.132723 0.132723
0.633844 0.132723 0.132723
0.633844 0.132723 0.132723
0.633844 0.132723 0.132723
0.633844 0.132723 0.132723
0.0399939 0.0388647 0.029572
0.0399939 0.0388647 0.029572
0.0413367 0.0389105 0.0296178
0.0446174 0.0393072 0.0297856
0.0482948 0.0394446 0.0299382
0.0525063 0.0395819 0.030045
0.0598764 0.039765 0.0302434
0.0760357 0.0386206 0.0309911
0.114595 0.0323644 0.0340276
0.166735 0.0352331 0.0404212
0.229038 0.0479744 0.049485
0.303105 0.0634623 0.0634928
0.365972 0.0766308 0.0766308
0.424002 0.0887922 0.0887922
0.476661 0.0998093 0.0998093
0.514824 0.107805 0.107805
0.548074 0.114763 0.114763
0.57583 0.120577 0.120577
0.596841 0.124971 0.124987
0.609735 0.127672 0.127687
0.619364 0.129686 0.129702
0.626932 0.131273 0.131289
0.633234 0.132601 0.132601
0.633844 0.132723 0.132723
0.633844 0.132723 0.132723
0.633844 0.132723 0.132723
0.633844 0.132723 0.132723
0.633844 0.132723 0.132723
0.633844 0.132723 0.132723
0.633844 0.132723 0.132723
0.633844 0.132723 0.132723
0.633844 0.132723 0.132723
0.633844 0.132723 0.132723
0.040238 0.0421302 0.0299535
0.0401923 0.041474 0.0298619
0.041062 0.0410925 0.0298009
0.0467689 0.0418555 0.0299382
0.0488136 0.0407263 0.0299382
0.0514687 0.0395514 0.0300145
0.0581064 0.0397345 0.0301823
0.0721752 0.0391089 0.0307927
0.105898 0.0334783 0.0332036
0.157122 0.0336614 0.0390936
0.215396 0.0451209 0.047425
0.292744 0.0612955 0.0613718
0.364523 0.0763256 0.0763256
0.42414 0.0888075 0.0888075
0.476722 0.0998245 0.0998245
0.51487 0.107805 0.10782
0.548104 0.114778 0.114778
0.575845 0.120577 0.120577
0.596857 0.124971 0.124987
0.609751 0.127672 0.127687
0.619379 0.129702 0.129702
0.626932 0.131273 0.131289
0.633234 0.132601 0.132601
0.633844 0.132723 0.132723
0.633844 0.132723 0.132723
0.633844 0.132723 0.132723
0.633844 0.132723 0.132723
0.633844 0.132723 0.132723
0.633844 0.132723 0.132723
0.633844 0.132723 0.132723
0.633844 0.132723 0.132723
0.633844 0.132723 0.132723
0.633844 0.132723 0.132723
0.0405737 0.0460975 0.0306249
0.0405127 0.0454566 0.0305028
0.0404669 0.0448615 0.030396
0.0493782 0.0473182 0.0303807
0.0552224 0.048188 0.0303655
0.0583505 0.0476387 0.0303502
0.0638895 0.0467689 0.0304723
0.0748608 0.0453193 0.0308232
0.102861 0.038529 0.0323644
0.147524 0.0323796 0.0378729
0.204288 0.0428016 0.0456703
0.278614 0.0583505 0.0585184
0.352972 0.0739147 0.0739147
0.420172 0.0879835 0.0879835
0.476799 0.0998398 0.0998398
0.514916 0.10782 0.10782
0.548135 0.114778 0.114778
0.57586 0.120577 0.120592
0.596857 0.124987 0.124987
0.609751 0.127687 0.127687
0.619379 0.129702 0.129702
0.626947 0.131273 0.131289
0.633234 0.132601 0.132601
0.633844 0.132723 0.132723
0.633844 0.132723 0.132723
0.633844 0.132723 0.132723
0.633844 0.132723 0.132723
0.633844 0.132723 0.132723
0.633844 0.132723 0.132723
0.633844 0.132723 0.132723
0.633844 0.132723 0.132723
0.633844 0.132723 0.132723
0.633844 0.132723 0.132723
0.0408484 0.05037 0.0313115
0.0408026 0.0496071 0.0311894
0.0407568 0.0488289 0.0310826
0.0478065 0.050782 0.0309148
0.0565347 0.0530404 0.0310216
0.0634318 0.0546273 0.03122
0.0700542 0.0545052 0.0313268
0.0814527 0.0539864 0.0316167
0.108415 0.0512398 0.0324865
0.155825 0.0442512 0.0343481
0.205753 0.0434577 0.043122
0.264515 0.0553902 0.0557565
0.340688 0.0713359 0.0713359
0.408606 0.0855573 0.0855573
0.474403 0.0993362 0.0993362
0.514961 0.107836 0.107836
0.548165 0.114778 0.114794
0.575875 0.120592 0.120592
0.596872 0.124987 0.124987
0.609751 0.127687 0.127687
0.619379 0.129702 0.129702
0.626947 0.131273 0.131289
0.633234 0.132601 0.132601
0.633844 0.132723 0.132723
0.633844 0.132723 0.132723
0.633844 0.132723 0.132723
0.633844 0.132723 0.132723
0.633844 0.132723 0.132723
0.633844 0.132723 0.132723
0.633844 0.132723 0.132723
0.633844 0.132723 0.132723
0.633844 0.132723 0.132723
0.633844 0.132723 0.132723
0.04065 0.0559396 0.0319829
0.0408484 0.0549325 0.0319066
0.0408637 0.0540475 0.0317845
0.0463722 0.0557565 0.0315404
0.0554818 0.0581369 0.0316625
0.0644236 0.0603647 0.0320287
0.0743877 0.0621195 0.0324407
0.0881514 0.0628977 0.0328832
0.112276 0.0625162 0.0336004
0.16289 0.059968 0.0375067
0.215351 0.05243 0.0456855
0.275563 0.0577096 0.0577096
0.338094 0.0708019 0.0708019
0.397024 0.0831311 0.0831464
0.464698 0.0973068 0.0973068
0.515007 0.107836 0.107836
0.548196 0.114794 0.114794
0.575891 0.120592 0.120592
0.596872 0.124987 0.124987
0.609766 0.127687 0.127687
0.619379 0.129702 0.129702
0.626947 0.131273 0.131289
0.633234 0.132601 0.132601
0.633844 0.132723 0.132723
0.633844 0.132723 0.132723
0.633844 0.132723 0.132723
0.633844 0.132723 0.132723
0.633844 0.132723 0.132723
0.633844 0.132723 0.132723
0.633844 0.132723 0.132723
0.633844 0.132723 0.132723
0.633844 0.132723 0.132723
0.633844 0.132723 0.132723
0.0365606 0.0653849 0.0324865
0.0373999 0.063798 0.0324102
0.0383001 0.062211 0.0323491
0.0426337 0.0623636 0.0317082
0.0548867 0.0661936 0.0318151
0.0644999 0.0692607 0.0323949
0.0771038 0.0728923 0.0331121
0.0953994 0.0764019 0.0341039
0.121599 0.0780194 0.0353399
0.169986 0.0793622 0.0412757
0.227176 0.0756695 0.05037
0.287068 0.0616159 0.0602274
0.355108 0.0743572 0.0743572
0.403357 0.0844587 0.0844587
0.451484 0.0945449 0.0945449
0.506996 0.106157 0.106172
0.548226 0.114794 0.114794
0.575921 0.120592 0.120592
0.596887 0.124987 0.124987
0.609766 0.127687 0.127687
0.619379 0.129702 0.129702
0.626947 0.131289 0.131289
0.633249 0.132601 0.132601
0.633844 0.132723 0.132723
0.633844 0.132723 0.132723
0.633844 0.132723 0.132723
0.633844 0.132723 0.132723
0.633844 0.132723 0.132723
0.633844 0.132723 0.132723
0.633844 0.132723 0.132723
0.633844 0.132723 0.132723
0.633844 0.132723 0.132723
0.633844 0.132723 0.132723
0.0312657 0.0914473 0.0349584
0.0303655 0.0878309 0.0344701
0.0295872 0.0842145 0.0340734
0.029572 0.081178 0.0336919
0.0446021 0.0866407 0.0298619
0.0594949 0.0899672 0.0314794
0.0765087 0.0935378 0.0336614
0.0982223 0.0975204 0.0365148
0.126299 0.100542 0.0400397
0.173556 0.104387 0.0467842
0.237613 0.107057 0.0569162
0.304921 0.104738 0.0680247
0.378622 0.0880598 0.0799573
0.432197 0.0905013 0.0905013
0.471138 0.0986496 0.0986648
0.494041 0.103456 0.103456
0.54136 0.113359 0.113359
0.575952 0.120607 0.120607
0.596902 0.124987 0.124987
0.609781 0.127687 0.127687
0.619394 0.129702 0.129702
0.626947 0.131289 0.131289
0.633249 0.132601 0.132601
0.633844 0.132723 0.132723
0.633844 0.132723 0.132723
0.633844 0.132723 0.132723
0.633844 0.132723 0.132723
0.633844 0.132723 0.132723
0.633844 0.132723 0.132723
0.633844 0.132723 0.132723
0.633844 0.132723 0.132723
0.633844 0.132723 0.132723
0.633844 0.132723 0.132723
0.0425574 0.126223 0.0427405
0.0413672 0.122667 0.0416724
0.040177 0.119127 0.0406806
0.0389715 0.115572 0.0397498
0.0407874 0.120607 0.0406653
0.0442969 0.12639 0.042649
0.059144 0.132311 0.0449989
0.0975662 0.140581 0.0493477
0.133196 0.145235 0.0531624
0.179202 0.148226 0.0582589
0.243397 0.151537 0.0667735
0.313817 0.1505 0.0767987
0.394553 0.144091 0.089189
0.467979 0.132952 0.101106
0.517037 0.113085 0.108629
0.538689 0.112795 0.11281
0.532448 0.111498 0.111498
0.57142 0.119661 0.119661
0.596918 0.124987 0.125002
0.609781 0.127687 0.127687
0.619394 0.129702 0.129702
0.626947 0.131289 0.131289
0.633249 0.132601 0.132601
0.633844 0.132723 0.132723
0.633844 0.132723 0.132723
0.633844 0.132723 0.132723
0.633844 0.132723 0.132723
0.633844 0.132723 0.132723
0.633844 0.132723 0.132723
0.633844 0.132723 0.132723
0.633844 0.132723 0.132723
0.633844 0.132723 0.132723
0.633844 0.132723 0.132723
0.0582742 0.172839 0.0582742
0.0566262 0.167941 0.0566262
0.0549783 0.163027 0.054963
0.053315 0.158114 0.053315
0.0542306 0.16083 0.0542306
0.0569009 0.168765 0.0569009
0.0597238 0.177066 0.0596933
0.0783246 0.188922 0.0640574
0.137224 0.198703 0.0697032
0.185412 0.205158 0.0748913
0.251667 0.212665 0.0830091
0.324376 0.216693 0.0924086
0.40795 0.214664 0.103502
0.492256 0.202701 0.114717
0.552972 0.176165 0.121614
0.596765 0.144289 0.126497
0.606882 0.127123 0.127092
0.576547 0.120729 0.120729
0.593835 0.124346 0.124346
0.609796 0.127687 0.127687
0.61941 0.129702 0.129702
0.626963 0.131289 0.131289
0.633249 0.132601 0.132601
0.633844 0.132723 0.132723
0.633844 0.132723 0.132723
0.633844 0.132723 0.132723
0.633844 0.132723 0.132723
0.633844 0.132723 0.132723
0.633844 0.132723 0.132723
0.633844 0.132723 0.132723
0.633844 0.132723 0.132723
0.633844 0.132723 0.132723
0.633844 0.132723 0.132723
0.0762951 0.226291 0.0762951
0.0749065 0.222156 0.0749065
0.0734112 0.217716 0.0733959
0.071809 0.212955 0.0717937
0.0722362 0.214252 0.0722362
0.0752117 0.223041 0.0751965
0.0784924 0.232776 0.0784772
0.084123 0.245823 0.0829023
0.138476 0.259892 0.089189
0.190936 0.270756 0.095201
0.258503 0.282506 0.10338
0.335119 0.291356 0.112749
0.419791 0.294575 0.122988
0.513375 0.2925 0.134859
0.585458 0.272602 0.141802
0.639475 0.238605 0.145281
0.669383 0.188144 0.144396
0.668345 0.141405 0.140063
0.62031 0.129885 0.1299
0.608408 0.127398 0.127398
0.61941 0.129702 0.129702
0.626963 0.131289 0.131289
0.633249 0.132601 0.132601
0.633844 0.132723 0.132723
0.633844 0.132723 0.132723
0.633844 0.132723 0.132723
0.633844 0.132723 0.132723
0.633844 0.132723 0.132723
0.633844 0.132723 0.132723
0.633844 0.132723 0.132723
0.633844 0.132723 0.132723
0.633844 0.132723 0.132723
0.633844 0.132723 0.132723
0.0914931 0.271366 0.0914931
0.0902876 0.267781 0.0902876
0.0890822 0.26421 0.0890822
0.0878767 0.260639 0.0878767
0.0880751 0.261219 0.0880751
0.0923323 0.273838 0.0923171
0.0964523 0.286076 0.0964523
0.102098 0.301503 0.101656
0.143511 0.320546 0.109026
0.197543 0.337224 0.116503
0.2636 0.355444 0.12575
0.345235 0.373388 0.136919
0.431174 0.386297 0.148196
0.529854 0.393561 0.160647
0.615167 0.385672 0.16936
0.677012 0.358083 0.172137
0.722896 0.314137 0.171176
0.736522 0.253285 0.164355
0.725399 0.169986 0.153307
0.66717 0.139696 0.139712
0.618845 0.12958 0.12958
0.626978 0.131289 0.131289
0.633265 0.132601 0.132601
0.633844 0.132723 0.132723
0.633844 0.132723 0.132723
0.633844 0.132723 0.132723
0.633844 0.132723 0.132723
0.633844 0.132723 0.132723
0.633844 0.132723 0.132723
0.633844 0.132723 0.132723
0.633844 0.132723 0.132723
0.633844 0.132723 0.132723
0.633844 0.132723 0.132723
0.105241 0.312123 0.105226
0.104234 0.309117 0.104219
0.103212 0.306127 0.103212
0.102159 0.302968 0.102144
0.101823 0.301991 0.101823
0.107225 0.317998 0.10721
0.112016 0.332219 0.112016
0.118105 0.349783 0.117937
0.148196 0.372656 0.126192
0.202228 0.393744 0.134829
0.26627 0.416037 0.144823
0.348882 0.439796 0.157046
0.436698 0.461219 0.169955
0.537377 0.479789 0.184237
0.633463 0.490196 0.19707
0.706737 0.480186 0.20325
0.765393 0.455634 0.205295
0.79675 0.406088 0.199542
0.802152 0.329717 0.186847
0.782589 0.230884 0.169986
0.716716 0.150072 0.150088
0.626978 0.131289 0.131289
0.633265 0.132601 0.132601
0.633844 0.132723 0.132723
0.633844 0.132723 0.132723
0.633844 0.132723 0.132723
0.633844 0.132723 0.132723
0.633844 0.132723 0.132723
0.633844 0.132723 0.132723
0.633844 0.132723 0.132723
0.633844 0.132723 0.132723
0.633844 0.132723 0.132723
0.633844 0.132723 0.132723
0.115801 0.343435 0.115785
0.115068 0.341238 0.115053
0.114321 0.339055 0.114305
0.113588 0.336858 0.113573
0.113344 0.336141 0.113329
0.119997 0.355871 0.119982
0.125734 0.372885 0.125719
0.132692 0.393347 0.132616
0.15375 0.419394 0.14168
0.206088 0.444587 0.151446
0.267124 0.47068 0.162219
0.349569 0.499062 0.175341
0.438056 0.525597 0.189136
0.538109 0.550225 0.204166
0.640818 0.569268 0.218921
0.722347 0.574655 0.228794
0.790173 0.564721 0.234028
0.837491 0.540429 0.234104
0.862364 0.497597 0.227878
0.86833 0.425299 0.214176
0.838987 0.310277 0.190204
0.759213 0.160372 0.159091
0.63328 0.132601 0.132616
0.633844 0.132723 0.132723
0.633844 0.132723 0.132723
0.633844 0.132723 0.132723
0.633844 0.132723 0.132723
0.633844 0.132723 0.132723
0.633844 0.132723 0.132723
0.633844 0.132723 0.132723
0.633844 0.132723 0.132723
0.633844 0.132723 0.132723
0.633844 0.132723 0.132723
0.123201 0.365362 0.123186
0.122652 0.36376 0.122637
0.122118 0.362158 0.122103
0.121553 0.360494 0.121538
0.121889 0.361486 0.121874
0.128801 0.381994 0.128786
0.134859 0.399939 0.134844
0.142138 0.4215 0.142107
0.159319 0.450736 0.152132
0.208331 0.479316 0.162829
0.266529 0.508049 0.174197
0.347341 0.540429 0.18819
0.435508 0.57145 0.202899
0.533349 0.600381 0.218463
0.639307 0.626734 0.234852
0.728252 0.645029 0.248264
0.804044 0.652888 0.258152
0.863172 0.644846 0.262638
0.899107 0.620996 0.261006
0.921386 0.580468 0.254307
0.925536 0.521752 0.241962
0.893996 0.411231 0.215625
0.801144 0.208743 0.171176
0.633844 0.132723 0.132723
0.633844 0.132723 0.132723
0.633844 0.132723 0.132723
0.633844 0.132723 0.132723
0.633844 0.132723 0.132723
0.633844 0.132723 0.132723
0.633844 0.132723 0.132723
0.633844 0.132723 0.132723
0.633844 0.132723 0.132723
0.633844 0.132723 0.132723
0.129519 0.384115 0.129503
0.129015 0.382605 0.129
0.128496 0.381109 0.128481
0.127993 0.379599 0.127977
0.129763 0.384848 0.129747
0.136233 0.404013 0.136217
0.14229 0.421988 0.142275
0.149538 0.443473 0.149508
0.164263 0.473442 0.159731
0.209049 0.502922 0.170565
0.263996 0.531258 0.181582
0.342458 0.564569 0.195575
0.430411 0.598276 0.210864
0.524819 0.630472 0.226841
0.630213 0.660456 0.243763
0.724697 0.684764 0.258961
0.803052 0.702403 0.271336
0.871397 0.70898 0.280156
0.917845 0.704234 0.284001
0.952026 0.688807 0.284047
0.973037 0.66099 0.279805
0.972595 0.608515 0.267475
0.944106 0.515969 0.243427
0.846082 0.284276 0.18793
0.633844 0.132723 0.132723
0.633844 0.132723 0.132723
0.633844 0.132723 0.132723
0.633844 0.132723 0.132723
0.633844 0.132723 0.132723
0.633844 0.132723 0.132723
0.633844 0.132723 0.132723
0.633844 0.132723 0.132723
0.633844 0.132723 0.132723
0.135286 0.401205 0.135271
0.134798 0.399771 0.134783
0.13431 0.398306 0.134295
0.133806 0.396857 0.133791
0.137636 0.408194 0.137621
0.143374 0.425193 0.143359
0.149203 0.442512 0.149187
0.156237 0.46334 0.156222
0.169741 0.492927 0.166262
0.21088 0.522469 0.177005
0.263615 0.550454 0.187793
0.337575 0.583429 0.201358
0.424842 0.61825 0.21677
0.517189 0.652049 0.232837
0.621454 0.684825 0.250202
0.718502 0.712276 0.266194
0.799786 0.733333 0.27953
0.871565 0.749874 0.291112
0.924575 0.753185 0.29749
0.962722 0.74873 0.300481
0.993759 0.739116 0.301549
1 0.721538 0.299046
1 0.686641 0.29044
0.983703 0.602106 0.267521
0.891218 0.370886 0.208331
0.633844 0.132723 0.132723
0.633844 0.132723 0.132723
0.633844 0.132723 0.132723
0.633844 0.132723 0.132723
0.633844 0.132723 0.132723
0.633844 0.132723 0.132723
0.633844 0.132723 0.132723
0.633844 0.132723 0.132723
0.140307 0.416114 0.140291
0.139879 0.414862 0.139879
0.139467 0.413611 0.139452
0.13904 0.412345 0.139025
0.145678 0.432059 0.145663
0.150515 0.446387 0.1505
0.156115 0.46302 0.1561
0.162875 0.482948 0.162829
0.176516 0.511254 0.172457
0.217105 0.539849 0.182879
0.268147 0.566735 0.193225
0.33727 0.598154 0.206058
0.421927 0.63267 0.221118
0.511315 0.666728 0.236942
0.612634 0.701106 0.254353
0.711223 0.730816 0.270893
0.794034 0.753857 0.284733
0.867491 0.772808 0.296956
0.92549 0.785641 0.306249
0.967041 0.787869 0.311177
1 0.787015 0.314748
1 0.779339 0.315236
1 0.764767 0.312627
1 0.738918 0.306096
1 0.67747 0.289158
0.937316 0.472663 0.233768
0.633844 0.132723 0.132723
0.633844 0.132723 0.132723
0.633844 0.132723 0.132723
0.633844 0.132723 0.132723
0.633844 0.132723 0.132723
0.633844 0.132723 0.132723
0.633844 0.132723 0.132723
0.144396 0.42826 0.144381
0.143999 0.42707 0.143984
0.143618 0.425925 0.143603
0.147753 0.438193 0.147738
0.153262 0.45452 0.153231
0.157778 0.467933 0.157763
0.162737 0.482628 0.162722
0.169512 0.502312 0.16936
0.185016 0.528801 0.178439
0.226688 0.55555 0.188281
0.276097 0.580865 0.198093
0.341146 0.610269 0.210101
0.421988 0.64329 0.224445
0.507424 0.676478 0.239689
0.603891 0.710246 0.256443
0.703029 0.741482 0.273304
0.786053 0.765454 0.287282
0.860105 0.785199 0.299657
0.920287 0.800336 0.309697
0.965331 0.810315 0.316976
1 0.81471 0.322026
1 0.814817 0.325017
1 0.809964 0.325475
1 0.798215 0.323003
1 0.777554 0.317739
1 0.734127 0.305791
0.975372 0.56318 0.257832
0.633844 0.132723 0.132723
0.633844 0.132723 0.132723
0.633844 0.132723 0.132723
0.633844 0.132723 0.132723
0.633844 0.132723 0.132723
0.633844 0.132723 0.132723
0.147768 0.438254 0.147753
0.147494 0.43743 0.147478
0.15108 0.448035 0.151049
0.156603 0.464439 0.156588
0.161028 0.477592 0.161013
0.165133 0.489754 0.165118
0.169436 0.50251 0.169421
0.176913 0.522927 0.176318
0.197375 0.547189 0.184771
0.240223 0.571099 0.193759
0.287694 0.594232 0.202838
0.348882 0.621073 0.213886
0.425208 0.651621 0.227237
0.506035 0.683024 0.241627
0.596902 0.715099 0.257389
0.69395 0.745983 0.273884
0.777127 0.770687 0.287984
0.849958 0.790646 0.300221
0.912825 0.806943 0.310765
0.958984 0.819409 0.318776
0.997101 0.828138 0.325048
1 0.831815 0.329168
1 0.833402 0.331853
1 0.830747 0.332189
1 0.82324 0.330724
1 0.807248 0.326665
1 0.771908 0.316869
1 0.637827 0.278492
0.633844 0.132723 0.132723
0.633844 0.132723 0.132723
0.633844 0.132723 0.132723
0.633844 0.132723 0.132723
0.633844 0.132723 0.132723
0.150484 0.446281 0.150469
0.155703 0.461784 0.155688
0.160571 0.476234 0.160555
0.164782 0.488685 0.164752
0.168597 0.500008 0.168582
0.171908 0.509819 0.171878
0.176577 0.523201 0.176394
0.185153 0.542367 0.18291
0.214862 0.56466 0.190951
0.25594 0.58529 0.198871
0.300404 0.606302 0.207202
0.358358 0.631037 0.217487
0.430076 0.659297 0.229908
0.5066 0.688975 0.243488
0.592096 0.71931 0.25832
0.684977 0.748806 0.273991
0.768795 0.773877 0.288182
0.840513 0.793545 0.30016
0.904204 0.809964 0.31075
0.952529 0.82298 0.319081
0.990921 0.833783 0.325917
1 0.841184 0.331243
1 0.844419 0.334386
1 0.845563 0.33608
1 0.844465 0.336583
1 0.839353 0.335714
1 0.829541 0.33344
1 0.801984 0.325551
1 0.703792 0.29723
0.633844 0.132723 0.132723
0.633844 0.132723 0.132723
0.633844 0.132723 0.132723
0.633844 0.132723 0.132723
0.166506 0.493797 0.166491
0.170092 0.504463 0.170077
0.173556 0.514717 0.173541
0.176745 0.524178 0.17673
0.179339 0.531884 0.179324
0.182956 0.542626 0.18294
0.187137 0.554971 0.187106
0.194202 0.570855 0.192493
0.214176 0.588113 0.198642
0.258381 0.60383 0.20499
0.312367 0.619928 0.212055
0.370657 0.641291 0.221317
0.437522 0.667216 0.232792
0.509422 0.694881 0.245487
0.589685 0.723384 0.259388
0.67808 0.751369 0.27422
0.760647 0.77615 0.288136
0.832105 0.796048 0.300084
0.895735 0.8121 0.310521
0.946487 0.825101 0.319051
0.985077 0.835904 0.325872
1 0.845365 0.331823
1 0.851514 0.335912
1 0.853941 0.338125
1 0.854795 0.339269
1 0.853605 0.33959
1 0.850385 0.339147
1 0.842832 0.337209
1 0.823636 0.331777
1 0.750378 0.310643
0.633844 0.132723 0.132723
0.633844 0.132723 0.132723
0.633844 0.132723 0.132723
0.182635 0.541619 0.182605
0.185458 0.550011 0.185443
0.188098 0.557855 0.188083
0.191546 0.568078 0.191531
0.194751 0.577569 0.19472
0.197757 0.586511 0.197742
0.201297 0.596994 0.201282
0.205753 0.610178 0.205722
0.212696 0.622278 0.209857
0.236789 0.635843 0.214893
0.297688 0.65156 0.22179
0.367544 0.670756 0.23061
0.435584 0.692226 0.240574
0.507424 0.714855 0.25156
0.586175 0.737163 0.26334
0.67245 0.758373 0.275853
0.753964 0.778103 0.288136
0.824887 0.798291 0.300069
0.888151 0.814343 0.310414
0.939666 0.827008 0.318898
0.979477 0.836942 0.325582
1 0.845716 0.33138
1 0.854215 0.336278
1 0.858351 0.339086
1 0.861234 0.340856
1 0.861875 0.341695
1 0.861051 0.342016
1 0.858625 0.341665
1 0.852491 0.339925
1 0.839857 0.33637
1 0.787243 0.321294
0.633844 0.132723 0.132723
0.633844 0.132723 0.132723
0.197971 0.587137 0.198123
0.201038 0.596246 0.201114
0.203952 0.604868 0.203983
0.206729 0.613123 0.206729
0.209369 0.620905 0.209339
0.211856 0.628305 0.211826
0.21445 0.635431 0.214237
0.219028 0.644572 0.21735
0.229541 0.655375 0.221149
0.259785 0.667735 0.225956
0.308675 0.682765 0.232319
0.369909 0.700404 0.240238
0.43508 0.720378 0.24947
0.50515 0.742 0.259876
0.581064 0.764096 0.271229
0.663462 0.784772 0.28307
0.743481 0.802289 0.294331
0.815229 0.815793 0.304204
0.880262 0.82324 0.312154
0.933623 0.829221 0.318898
0.973983 0.83888 0.325551
1 0.846998 0.331212
1 0.853315 0.335637
1 0.857725 0.338689
1 0.860594 0.340475
1 0.862715 0.341787
1 0.864347 0.342794
1 0.865797 0.343664
1 0.864607 0.343343
1 0.860105 0.342077
1 0.851164 0.339559
1 0.815259 0.329366
0.633844 0.132723 0.132723
0.215869 0.639765 0.234577
0.218204 0.646754 0.234928
0.220127 0.652476 0.23505
0.221942 0.657633 0.235172
0.223789 0.662562 0.235386
0.225696 0.667277 0.235691
0.228641 0.672801 0.236118
0.236103 0.67985 0.236851
0.250996 0.688533 0.238163
0.27863 0.699397 0.240513
0.321874 0.712566 0.244678
0.374807 0.728191 0.250736
0.436271 0.74612 0.258381
0.503563 0.765911 0.267521
0.576761 0.786526 0.277913
0.65539 0.806378 0.289021
0.732555 0.82414 0.299916
0.803418 0.8383 0.309697
0.867979 0.847684 0.317922
0.922881 0.851118 0.323919
0.966583 0.850492 0.327977
1 0.846067 0.330434
1 0.852399 0.334997
1 0.857069 0.338247
1 0.860075 0.340154
1 0.862287 0.341512
1 0.863981 0.34258
1 0.865415 0.34345
1 0.865797 0.343664
1 0.865797 0.343664
1 0.865797 0.343664
1 0.859419 0.341878
1 0.834852 0.334966
0.232364 0.686992 0.309392
0.233829 0.691249 0.308431
0.23537 0.695201 0.307424
0.23711 0.699031 0.306462
0.239078 0.702739 0.305562
0.241306 0.706325 0.304723
0.244511 0.710643 0.303731
0.252918 0.716686 0.302312
0.268757 0.724285 0.30071
0.295109 0.7337 0.299062
0.335348 0.745342 0.297246
0.388342 0.759258 0.295842
0.444877 0.775464 0.29456
0.507454 0.793194 0.293446
0.576516 0.811872 0.29453
0.650568 0.830335 0.298528
0.724392 0.846891 0.306233
0.793698 0.860227 0.315312
0.857114 0.869871 0.323323
0.9122 0.875196 0.329686
0.957565 0.877134 0.334432
0.994797 0.873793 0.337133
1 0.864546 0.337697
1 0.856291 0.337713
1 0.859663 0.33991
1 0.861936 0.341299
1 0.8636 0.342336
1 0.865064 0.343236
1 0.865797 0.343664
1 0.865797 0.343664
1 0.865797 0.343664
1 0.865797 0.343664
1 0.865797 0.343664
0.24744 0.729397 0.373342
0.249195 0.732647 0.372625
0.251545 0.735805 0.371908
0.25449 0.738888 0.371237
0.258045 0.741894 0.370565
0.262196 0.744839 0.36994
0.268177 0.748425 0.369177
0.279454 0.753323 0.368093
0.299336 0.759625 0.36672
0.329656 0.767544 0.365133
0.370047 0.77734 0.363195
0.414237 0.789181 0.360464
0.466133 0.803082 0.357137
0.521355 0.81883 0.352819
0.584222 0.835477 0.347219
0.652125 0.852293 0.337728
0.720714 0.868025 0.326085
0.786435 0.881575 0.323354
0.847944 0.892424 0.329213
0.902922 0.899565 0.33579
0.948135 0.902098 0.340536
0.986526 0.900832 0.343771
1 0.894896 0.345205
1 0.88484 0.344732
1 0.864317 0.340902
1 0.861677 0.341131
1 0.86331 0.342153
1 0.864729 0.343023
1 0.865797 0.343664
1 0.865797 0.343664
1 0.865797 0.343664
1 0.865797 0.343664
1 0.865797 0.343664
0.28249 0.772351 0.437003
0.289265 0.774884 0.436561
0.296635 0.777371 0.436149
0.304524 0.779828 0.435752
0.31284 0.782223 0.43537
0.321553 0.784573 0.435004
0.332906 0.787472 0.434577
0.348547 0.791424 0.433936
0.366552 0.796429 0.432929
