luts/-UTILITY/LOG_to_Rec709/SLog2-SGumut_To_Cine+709.cube
TITLE "Generate by Resolve"
LUT_3D_SIZE 33
0.0401617 0.0389105 0.0283207
0.0401617 0.0389105 0.0283207
0.0477455 0.0392615 0.0283207
0.0649577 0.0390326 0.027863
0.116167 0.0255589 0.0273594
0.186801 0.00337224 0.0242771
0.263188 0 0.012192
0.338064 0 0.0015259
0.39704 0 0
0.450767 0 0
0.495415 0 0
0.528115 0 0
0.555932 0 0
0.581079 0 0
0.602411 0 0
0.621103 0 0
0.637018 0 0.00480659
0.654444 0 0.0585641
0.666331 0 0.149096
0.67631 0 0.22945
0.684001 0 0.30251
0.690181 0 0.368338
0.69482 0 0.426169
0.700435 0 0.480278
0.706783 0 0.528298
0.714229 0 0.569863
0.724468 0 0.60679
0.739406 0 0.644495
0.760464 0 0.685939
0.791074 0 0.734432
0.82269 6.10361e-05 0.781369
0.847059 0.0053254 0.817716
0.866194 0.0940261 0.846281
0.0401617 0.0389105 0.0283207
0.0401617 0.0389105 0.0283207
0.0437324 0.0390784 0.0283207
0.0566415 0.0392309 0.0280766
0.0951247 0.0323796 0.0275425
0.16965 0.00761425 0.0254826
0.246525 0 0.0153811
0.327153 0 0.00209049
0.389364 0 0
0.444755 0 0
0.491966 0 0
0.52578 0 0
0.554131 0 0
0.579736 0 0
0.600839 0 0
0.619821 0 0
0.635477 0 0.00241093
0.652842 0 0.0467689
0.665492 0 0.135927
0.675776 0 0.220539
0.68365 0 0.295506
0.689845 0 0.363363
0.694484 0 0.42237
0.700084 0 0.477424
0.706477 0 0.526253
0.713939 0 0.568353
0.724071 0 0.605646
0.738933 0 0.643473
0.759976 0 0.685039
0.790494 0 0.733562
0.822339 6.10361e-05 0.780865
0.846799 0.00520333 0.817334
0.866041 0.0928817 0.846052
0.0401617 0.0389258 0.0283207
0.0401617 0.0389105 0.0283207
0.0401617 0.0389105 0.0283207
0.0491798 0.0392615 0.0283055
0.0708171 0.0384833 0.0277562
0.136782 0.0180972 0.0269169
0.211643 0.00105287 0.0212711
0.295613 0 0.00672923
0.367712 0 1.5259e-05
0.426322 0 0
0.479393 0 0
0.518822 0 0
0.549615 0 0
0.577783 0 0
0.599191 0 0
0.61854 0 0
0.633844 0 0
0.651164 0 0.0343633
0.664622 0 0.12224
0.675212 0 0.211383
0.683314 0 0.288334
0.689494 0 0.358282
0.694148 0 0.418524
0.699748 0 0.47454
0.706172 0 0.524178
0.713634 0 0.566812
0.723674 0 0.604501
0.738445 0 0.642451
0.759503 0 0.684138
0.789929 0 0.732692
0.822003 6.10361e-05 0.780362
0.84654 0.005066 0.816953
0.865888 0.0917372 0.845808
0.0401465 0.0462806 0.0285344
0.0401465 0.0460975 0.0285191
0.0401617 0.0456703 0.0284886
0.0491798 0.0473487 0.0276799
0.0671702 0.0478828 0.026627
0.113191 0.0407263 0.0241245
0.188418 0.0145876 0.0043946
0.264515 0.000289921 0.000244144
0.33843 0 0.00112917
0.39913 0 0
0.455802 0 0
0.50161 0 0
0.535637 0 0
0.565515 0 0
0.59115 0 0
0.612207 0 0
0.630533 0 0
0.649393 0 0.0227054
0.663706 0 0.108019
0.674586 0 0.201602
0.682948 0 0.28098
0.689143 0 0.353109
0.693797 0 0.414618
0.699397 0 0.471611
0.705852 0 0.522087
0.713344 0 0.56527
0.723278 0 0.603357
0.737957 0 0.641413
0.759014 0 0.683223
0.789349 0 0.731807
0.821668 4.57771e-05 0.779858
0.846281 0.00494392 0.816571
0.865721 0.0905928 0.845579
0.0391546 0.0562753 0.0284733
0.0392615 0.0559701 0.0285039
0.0393683 0.0556649 0.0285344
0.0396277 0.0542458 0.0285954
0.0652628 0.0612955 0.0259556
0.105379 0.0660563 0.0216831
0.186282 0.0630961 0.00500496
0.267063 0.0343633 0
0.351553 0.00170901 0
0.421225 0 0
0.474174 0 0
0.51902 0 0
0.546349 0 0
0.560418 0 0
0.57882 0 0
0.601724 0 0
0.622019 0 0
0.639643 0 0.00201419
0.659113 0 0.0662242
0.673716 0 0.188907
0.682536 0 0.272374
0.688777 0 0.346975
0.693401 0 0.410086
0.699016 0 0.468132
0.705501 0 0.519677
0.712993 0 0.5635
0.72282 0 0.602029
0.737408 0 0.640223
0.758465 0 0.682185
0.788708 0 0.7308
0.821271 4.57771e-05 0.779278
0.845991 0.00479133 0.816129
0.865553 0.0892805 0.845319
0.0113832 0.0849928 0.0230869
0.0120394 0.0841993 0.0232853
0.0128786 0.0834821 0.0234379
0.015671 0.0811017 0.0239414
0.034638 0.0779278 0.0144045
0.093843 0.0932937 0.0069276
0.16582 0.102068 0.000686656
0.264637 0.1066 0
0.359503 0.101717 0
0.448493 0.0867018 0
0.51339 0.0659953 0
0.566247 0.0397345 0
0.60383 0.0142214 0
0.619974 0 0
0.627146 0 0
0.630228 0 0
0.623392 0 0
0.629084 0 0
0.647807 0 0.0130617
0.665537 0 0.109834
0.678935 0 0.23064
0.688426 0 0.338949
0.692912 0 0.404471
0.698573 0 0.463737
0.705058 0 0.516716
0.712581 0 0.561318
0.722286 0 0.600397
0.736721 0 0.638773
0.757778 0 0.680919
0.7879 0 0.72958
0.820798 3.0518e-05 0.778561
0.84564 0.00460822 0.815595
0.865324 0.0876783 0.844984
0 0.134417 0.00511177
0 0.133639 0.00527962
0 0.132845 0.00546273
0 0.132052 0.00563058
0.000167849 0.124269 0.00817884
0.0243992 0.136538 0
0.13962 0.158007 0
0.242329 0.169268 0
0.345403 0.173205 0
0.448936 0.168688 0
0.532906 0.157946 0
0.594446 0.139788 0
0.644083 0.115694 0
0.675761 0.0879225 0
0.690196 0.0395361 0
0.697536 0.00222782 0
0.693065 0 0
0.681575 0 0
0.668345 0 0
0.653452 0 0.0283055
0.670268 0 0.142809
0.683009 0 0.262272
0.690639 0 0.375143
0.698024 0 0.458305
0.704509 0 0.513054
0.712062 0 0.558648
0.721752 0 0.598413
0.735897 0 0.636988
0.756954 0 0.679362
0.786923 0 0.728084
0.820218 3.0518e-05 0.777707
0.845197 0.00437934 0.814939
0.865064 0.0857252 0.844587
0 0.193637 0
0 0.192905 0
0 0.192157 0
0 0.191409 0
0 0.190311 0
0 0.172503 0.00030518
0.0564279 0.209079 0
0.204303 0.232776 0
0.323262 0.247898 0
0.43624 0.253285 0
0.540139 0.251255 0
0.613977 0.2421 0
0.673274 0.22652 0
0.715831 0.207019 0
0.737835 0.176287 0
0.747082 0.126452 0
0.750011 0.0581216 0
0.745037 0 0
0.735821 0 0
0.720638 0 0
0.705028 0 0.0542458
0.675258 0 0.164477
0.685924 0 0.283864
0.6925 0 0.399786
0.703838 0 0.508537
0.711421 0 0.555352
0.72108 0 0.595972
0.734874 0 0.634821
0.755932 0 0.67747
0.785733 0 0.726253
0.819516 1.5259e-05 0.776654
0.844663 0.00410468 0.814145
0.864744 0.08336 0.844114
0 0.249073 0
0 0.248585 0
0 0.248112 0
0 0.247623 0
0 0.247074 0
0 0.24126 0
0 0.24744 0
0.149645 0.291768 0
0.284642 0.319921 0
0.410025 0.336889 0
0.531136 0.344198 0
0.624994 0.341955 0
0.692348 0.331472 0
0.746181 0.315984 0
0.780789 0.298772 0
0.795514 0.260197 0
0.800488 0.209033 0
0.796872 0.150759 0
0.786038 0.0778973 0
0.780285 0.0225986 0
0.770596 0 0.00114443
0.752529 0 0.105303
0.726558 0 0.217731
0.686656 0 0.297414
0.693935 0 0.416098
0.707362 0 0.532174
0.720272 0 0.592966
0.733623 0 0.632136
0.754696 0 0.675135
0.784283 0 0.724025
0.818647 0 0.775357
0.844022 0.00376898 0.813184
0.864347 0.0804608 0.843519
0 0.292561 0
0 0.292226 0
0 0.29189 0
0 0.291569 0
0 0.291188 0
0 0.29073 0
0 0.280156 0
0.0146487 0.320546 0
0.217258 0.371115 0
0.368048 0.405982 0
0.502235 0.427512 0
0.619654 0.437812 0
0.702037 0.436988 0
0.76614 0.428229 0
0.811276 0.414298 0
0.84036 0.396414 0
0.850034 0.344488 0
0.849226 0.284871 0
0.838743 0.22385 0
0.827497 0.17348 0
0.820066 0.131212 0
0.811093 0.06215 0.0170138
0.798032 0.00746166 0.173907
0.77023 0 0.275532
0.72958 0 0.35288
0.694728 0 0.425116
0.71014 0 0.54873
0.732158 0 0.628885
0.75317 0 0.672282
0.782483 0 0.721279
0.817288 0 0.773342
0.843229 0.00337224 0.811994
0.863874 0.076936 0.842802
0 0.329839 0
0 0.32961 0
0 0.329381 0
0 0.329152 0
0 0.328893 0
0 0.328573 0
0 0.328176 0
0 0.312993 0
0.120531 0.396155 0
0.299336 0.448218 0
0.451255 0.48452 0
0.590951 0.507301 0
0.694514 0.516121 0
0.770214 0.515862 0
0.829313 0.510399 0
0.86598 0.499001 0
0.891646 0.480262 0
0.899855 0.428031 0
0.893126 0.362158 0
0.876265 0.290913 0
0.86659 0.257542 0
0.857679 0.222995 0
0.847715 0.173327 0.0796674
0.833188 0.104479 0.231022
0.812329 0.0560922 0.337987
0.768215 0 0.41236
0.713252 0 0.458259
0.712123 0 0.558968
0.751293 0 0.668757
0.780301 0 0.717922
0.815442 0 0.770611
0.842252 0.0028687 0.810544
0.863279 0.0726177 0.841932
0 0.355016 0
0 0.35491 0
0 0.354788 0
0 0.354681 0
0 0.354559 0
0 0.354391 0
0 0.354208 0
0 0.353872 0
0 0.377325 0
0.195621 0.467063 0
0.382132 0.52311 0
0.538842 0.559396 0
0.670573 0.580423 0
0.761456 0.587304 0
0.831525 0.587335 0
0.879988 0.581079 0
0.912642 0.570657 0
0.935805 0.549447 0
0.940459 0.499306 0
0.930739 0.433997 0
0.912657 0.367544 0
0.9028 0.336141 0
0.893324 0.303471 0.00289921
0.881804 0.262806 0.143572
0.865507 0.209842 0.288731
0.841871 0.138094 0.395789
0.808057 0.0367742 0.476738
0.752865 0 0.519509
0.713176 0 0.564416
0.777584 0 0.713771
0.813184 0 0.767254
0.841062 0.00225834 0.808774
0.862562 0.0673381 0.840848
0 0.374365 0
0 0.374289 0
0 0.374197 0
0 0.374121 0
0 0.374029 0
0 0.373907 0
0 0.37377 0
0 0.373617 0
0 0.371069 0
0.0136873 0.436561 0
0.275731 0.528664 0
0.463127 0.58529 0
0.623117 0.62153 0
0.738308 0.640681 0
0.823133 0.650477 0
0.884749 0.651576 0
0.924315 0.645075 0
0.955657 0.637079 0
0.975464 0.613733 0
0.973846 0.558984 0
0.96083 0.495338 0
0.947158 0.449805 0
0.936126 0.41825 0
0.926497 0.38381 0.0182956
0.912978 0.344823 0.203708
0.894499 0.292958 0.346822
0.868849 0.2177 0.453513
0.839414 0.1178 0.5364
0.789456 0 0.579751
0.715496 0 0.57525
0.796582 0 0.742626
0.839597 0.00151064 0.806592
0.861677 0.0608682 0.839536
0 0.391699 0
0 0.391638 0
0 0.391577 0
0 0.391516 0
0 0.39144 0
0 0.391363 0
0 0.391257 0
0 0.391119 0
0 0.390967 0
0 0.385931 0
0.116503 0.495369 0
0.36025 0.581262 0
0.545419 0.635782 0
0.695628 0.668864 0
0.796704 0.686152 0
0.873747 0.695598 0
0.925475 0.697383 0
0.961639 0.69424 0
0.99147 0.690105 0
1 0.669337 0
1 0.611673 0
0.986603 0.550668 0
0.976135 0.524285 0
0.966522 0.498527 0
0.956085 0.466041 0.043946
0.941527 0.426703 0.270039
0.919661 0.371298 0.406119
0.894896 0.297963 0.511666
0.865187 0.196551 0.591608
0.826459 0.0527657 0.642603
0.750439 0 0.62707
0.812177 0 0.765759
0.860594 0.0529335 0.837919
0 0.408072 0
0 0.408011 0
0 0.407965 0
0 0.407919 0
0 0.407874 0
0 0.407797 0
0 0.407721 0
0 0.40763 0
0 0.407507 0
0 0.407355 0
0 0.399359 0
0.196857 0.544121 0
0.439384 0.628611 0
0.627192 0.680537 0
0.758984 0.70898 0
0.851255 0.724407 0
0.915709 0.731228 0
0.959396 0.732448 0
0.993317 0.731533 0
1 0.729503 0
1 0.708614 0
1 0.654948 0
1 0.605386 0
1 0.589822 0
0.992508 0.572198 0
0.981888 0.547921 0.109697
0.964248 0.50663 0.337713
0.942611 0.448539 0.467018
0.91873 0.37554 0.568048
0.890013 0.276036 0.644419
0.854582 0.135958 0.69424
0.787442 0 0.684596
0.82182 6.10361e-05 0.780087
0 0.423102 0
0 0.423072 0
0 0.423026 0
0 0.422995 0
0 0.42295 0
0 0.422904 0
0 0.422858 0
0 0.422782 0
0 0.42269 0
0 0.422583 0
0 0.422461 0
0 0.437293 0
0.278492 0.590387 0
0.519203 0.671427 0
0.701793 0.719722 0
0.816648 0.744106 0
0.899687 0.757336 0
0.951766 0.761791 0
0.990234 0.763058 0
1 0.763165 0
1 0.762127 0
1 0.738231 0
1 0.691279 0
1 0.661143 0
1 0.651576 0
1 0.640024 0
1 0.621424 0.215457
0.983825 0.582986 0.399969
0.963287 0.525841 0.526802
0.940078 0.450568 0.622721
0.912657 0.353185 0.695705
0.88014 0.222721 0.745464
0.825772 0.0154726 0.743511
0 0.436377 0
0 0.436347 0
0 0.436332 0
0 0.436301 0
0 0.436271 0
0 0.43624 0
0 0.436194 0
0 0.436133 0
0 0.436072 0
0 0.435996 0
0 0.435889 0
0 0.435782 0
0 0.487739 0
0.366491 0.634348 0
0.602564 0.709789 0
0.765179 0.75079 0
0.868788 0.771756 0
0.937407 0.782162 0
0.982177 0.786282 0
1 0.788724 0
1 0.789517 0
1 0.788876 0
1 0.761746 0
1 0.720684 0
1 0.712139 0
1 0.710384 0
1 0.703334 0.0518502
1 0.684977 0.30164
0.999298 0.651637 0.46273
0.980911 0.599664 0.584161
0.959319 0.525017 0.675669
0.935119 0.434394 0.749889
0.903883 0.309438 0.792187
0 0.446693 0
0 0.446677 0
0 0.446662 0
0 0.446647 0
0 0.446632 0
0 0.446601 0
0 0.446586 0
0 0.44654 0
0 0.44651 0
0 0.446464 0
0 0.446403 0
0 0.446326 0
0 0.44625 0
0.0567941 0.540047 0
0.449378 0.67187 0
0.679683 0.741299 0
0.819928 0.775296 0
0.912413 0.793347 0
0.968399 0.80206 0
1 0.806378 0
1 0.808927 0
1 0.809766 0
1 0.808972 0
1 0.780407 0
1 0.744305 0
1 0.754391 0
1 0.763668 0
1 0.758968 0.143099
1 0.742336 0.372824
1 0.712428 0.523644
0.995254 0.666453 0.638132
0.977905 0.60531 0.731579
0.955505 0.514824 0.799115
0 0.455314 0
0 0.455299 0
0 0.455299 0
0 0.455283 0
0 0.455268 0
0 0.455253 0
0 0.455238 0
0 0.455222 0
0 0.455207 0
0 0.455177 0
0 0.455146 0
0 0.4551 0
0 0.455055 0
0 0.454994 0
0.177203 0.58468 0
0.527474 0.70486 0
0.744259 0.765652 0
0.868009 0.793805 0
0.945174 0.808164 0
0.993637 0.815839 0
1 0.820584 0
1 0.823484 0
1 0.824826 0
1 0.82472 0
1 0.795346 0
1 0.772412 0
1 0.793072 0
1 0.806683 0.00323491
1 0.807874 0.241245
1 0.794034 0.439216
1 0.76701 0.581186
1 0.732204 0.694408
0.99321 0.679301 0.782696
0 0.461692 0
0 0.461692 0
0 0.461677 0
0 0.461677 0
0 0.461662 0
0 0.461662 0
0 0.461646 0
0 0.461631 0
0 0.461616 0
0 0.461585 0
0 0.461555 0
0 0.461524 0
0 0.461494 0
0 0.461448 0
0 0.461387 0
0.258137 0.618875 0
0.603387 0.732998 0
0.798749 0.784878 0
0.908751 0.808469 0
0.972702 0.820478 0
1 0.827375 0
1 0.831724 0
1 0.83444 0
1 0.835401 0
1 0.835401 0
1 0.808301 0
1 0.801358 0
1 0.827741 0
1 0.843153 0.0605173
1 0.847318 0.328862
1 0.839338 0.504036
1 0.820996 0.640848
1 0.791852 0.74786
0 0.465614 0
0 0.465614 0
0 0.465614 0
0 0.465614 0
0 0.465614 0
0 0.465614 0
0 0.465614 0
0 0.465614 0
0 0.465614 0
0 0.465614 0
0 0.465614 0
0 0.465614 0
0 0.465614 0
0 0.465614 0
0 0.465614 0
0 0.465614 0
0.336095 0.650385 0
0.674769 0.757488 0
0.847089 0.801099 0
0.942382 0.820584 0
0.996765 0.83064 0
1 0.836469 0
1 0.840177 0
1 0.842405 0
1 0.843565 0
1 0.84358 0
1 0.819623 0
1 0.828916 0
1 0.85745 0
1 0.875013 0.163867
1 0.88127 0.40589
1 0.879561 0.572778
1 0.868299 0.698222
0 0.465614 0
0 0.465614 0
0 0.465614 0
0 0.465614 0
0 0.465614 0
0 0.465614 0
0 0.465614 0
0 0.465614 0
0 0.465614 0
0 0.465614 0
0 0.465614 0
0 0.465614 0
0 0.465614 0
0 0.465614 0
0 0.465614 0
0 0.465614 0
0 0.465614 0
0.413489 0.680171 0
0.737377 0.77792 0
0.890364 0.814511 0
0.970199 0.830625 0
1 0.839185 0
1 0.844282 0
1 0.847593 0
1 0.849271 0
1 0.850004 0
1 0.850156 0
1 0.828717 0
1 0.853132 0
1 0.884611 0
1 0.903197 0.268528
1 0.91313 0.486946
1 0.914382 0.638651
0 0.465614 0
0 0.465614 0
0 0.465614 0
0 0.465614 0
0 0.465614 0
0 0.465614 0
0 0.465614 0
0 0.465614 0
0 0.465614 0
0 0.465614 0
0 0.465614 0
0 0.465614 0
0 0.465614 0
0 0.465614 0
0 0.465614 0
0 0.465614 0
0 0.465614 0
0 0.465614 0
0.481971 0.704509 0
0.79089 0.79443 0
0.928084 0.826276 0
0.993988 0.839048 0
1 0.846555 0
1 0.850813 0
1 0.853315 0
1 0.854734 0
1 0.85536 0
1 0.85565 0
1 0.836088 0
1 0.876799 0
1 0.908614 0.0604562
1 0.930388 0.372335
1 0.941588 0.565423
0 0.465614 0
0 0.465614 0
0 0.465614 0
0 0.465614 0
0 0.465614 0
0 0.465614 0
0 0.465614 0
0 0.465614 0
0 0.465614 0
0 0.465614 0
0 0.465614 0
0 0.465614 0
0 0.465614 0
0 0.465614 0
0 0.465614 0
0 0.465614 0
0 0.465614 0
0 0.465614 0
0 0.465614 0
0.547066 0.725978 0
0.837125 0.805982 0
0.956405 0.832258 0
1 0.843976 0
1 0.851011 0
1 0.855283 0
1 0.857877 0
1 0.859541 0
1 0.860258 0
1 0.860533 0
1 0.842298 0
1 0.898451 0
1 0.932418 0.190372
1 0.954253 0.471977
0 0.465614 0
0 0.465614 0
0 0.465614 0
0 0.465614 0
0 0.465614 0
0 0.465614 0
0 0.465614 0
0 0.465614 0
0 0.465614 0
0 0.465614 0
0 0.465614 0
0 0.465614 0
0 0.465614 0
0 0.465614 0
0 0.465614 0
0 0.465614 0
0 0.465614 0
0 0.465614 0
0 0.465614 0
0 0.465614 0
0.61323 0.745968 0
0.87985 0.815869 0
0.980575 0.837186 0
1 0.847532 0
1 0.853376 0
1 0.856809 0
1 0.85893 0
1 0.860365 0
1 0.861524 0
1 0.862318 0
1 0.856916 0
1 0.919539 3.0518e-05
1 0.953536 0.33994
0 0.465614 0
0 0.465614 0
0 0.465614 0
0 0.465614 0
0 0.465614 0
0 0.465614 0
0 0.465614 0
0 0.465614 0
0 0.465614 0
0 0.465614 0
0 0.465614 0
0 0.465614 0
0 0.465614 0
0 0.465614 0
0 0.465614 0
0 0.465614 0
0 0.465614 0
0 0.465614 0
0 0.465614 0
0 0.465614 0
0 0.465614 0
0.677424 0.76408 0
0.916762 0.82388 0
1 0.84152 0
1 0.850446 0
1 0.855329 0
1 0.858137 0
1 0.8598 0
1 0.861097 0
1 0.862211 0
1 0.862318 0
1 0.8748 0
1 0.93933 0.0106355
0 0.465614 0
0 0.465614 0
0 0.465614 0
0 0.465614 0
0 0.465614 0
0 0.465614 0
0 0.465614 0
0 0.465614 0
0 0.465614 0
0 0.465614 0
0 0.465614 0
0 0.465614 0
0 0.465614 0
0 0.465614 0
0 0.465614 0
0 0.465614 0
0 0.465614 0
0 0.465614 0
0 0.465614 0
0 0.465614 0
0 0.465614 0
0 0.465614 0
0.735775 0.779919 0
0.947127 0.830304 0
1 0.845396 0
1 0.852903 0
1 0.85684 0
1 0.859098 0
1 0.860609 0
1 0.861784 0
1 0.862318 0
1 0.862318 0
1 0.894438 0
0 0.465614 0
0 0.465614 0
0 0.465614 0
0 0.465614 0
0 0.465614 0
0 0.465614 0
0 0.465614 0
0 0.465614 0
0 0.465614 0
