luts/-UTILITY/LOG_to_Rec709/SLog2-SGumut_To_Cine+709.cube
TITLE "Generate by Resolve"
LUT_3D_SIZE 5
0.0401617 0.0389105 0.0283207
0.39704 0 0
0.637018 0 0.00480659
0.706783 0 0.528298
0.866194 0.0940261 0.846281
0 0.249073 0
0.284642 0.319921 0
0.800488 0.209033 0
0.693935 0 0.416098
0.864347 0.0804608 0.843519
0 0.436377 0
0 0.436072 0
0.868788 0.771756 0
1 0.712139 0
0.903883 0.309438 0.792187
0 0.465614 0
0 0.465614 0
0 0.465614 0
1 0.853376 0
1 0.953536 0.33994
0 0.465614 0
0 0.465614 0
0 0.465614 0
0 0.465614 0
1 0.862165 0
0.08336 0 0.379202
0.474311 0 0.453544
0.679377 0 0.495903
0.732952 0 0.630686
0.876692 0.173968 0.861952
0 0.239811 0.293416
0.251942 0.262776 0.273045
0.773648 0.100771 0.309468
0.705943 0 0.522713
0.875105 0.161776 0.859571
0 0.433371 0
0 0.428077 0
0.859693 0.725155 0
1 0.740139 0.164141
0.907988 0.322316 0.816892
0 0.465614 0
0 0.465614 0
0 0.465614 0
1 0.853407 0
1 0.968902 0.493553
0 0.465614 0
0 0.465614 0
0 0.465614 0
0 0.465614 0
1 0.862165 0
0 0 0.621592
0.515221 0 0.69662
0.76762 0 0.740246
0.866484 0.0961471 0.846708
0.880247 0.201251 0.867262
0 0.310262 0.684291
0.340856 0.325353 0.76614
0.807401 0.172412 0.7794
0.800549 0 0.731334
0.880247 0.201251 0.867262
0 0.550439 0.700191
0 0.55024 0.702434
0.815778 0.813672 0.765743
0.998779 0.747692 0.799954
0.928847 0.403937 0.885679
0 0.54583 0.274342
0 0.55024 0.296269
0 0.567819 0.370367
1 0.951888 0.278187
1 0.996246 0.783459
0 0.465614 0
0 0.465614 0
0 0.465614 0
0 0.465614 0
1 0.862165 0
0.457557 0.557687 0.903563
0.699306 0.558068 0.93344
0.896574 0.508858 0.943969
0.941939 0.453605 0.938155
0.880247 0.201251 0.867262
0.152071 0.614771 0.887236
0.616312 0.652232 0.943206
0.89958 0.616678 0.965331
0.963897 0.56733 0.961105
0.880247 0.201251 0.867262
0 0.583963 0.799847
0 0.577951 0.798108
0.848753 0.851698 0.986755
1 0.812009 0.990646
0.986236 0.668299 0.977508
0 0.657969 0.825559
0 0.657954 0.825589
0 0.657923 0.825696
1 1 0.988251
1 1 0.995117
0 0.627924 0.666529
0 0.62826 0.668589
0 0.629755 0.677562
0 0.635294 0.712673
1 1 0.836484
0.878248 0.876936 0.998871
0.905348 0.874983 1
0.967544 0.868849 1
1 0.85449 1
1 0.767773 0.99559
0.863859 0.894286 0.999634
0.89456 0.892607 1
0.964889 0.886473 1
1 0.874113 1
1 0.79794 0.999649
0.749615 0.930724 0.994888
0.820172 0.937224 1
0.943542 0.939666 1
1 0.9337 1
1 0.891035 1
0 0.661067 0.832319
0 0.661036 0.832303
0 0.859556 0.930404
1 1 1
1 1 1
0 0.676326 0.840436
0 0.676326 0.840436
0 0.676326 0.840436
0 0.676326 0.840436
1 1 1
