luts/-UTILITY/LOG_to_Rec709/SLog3-SGamut_to_Cine+709.cube
TITLE "Generate by Resolve"
LUT_3D_SIZE 5
0.0399939 0.0388647 0.029572
0.121782 0.0317235 0.0347601
0.548043 0.114763 0.114763
0.633844 0.132723 0.132723
0.633844 0.132723 0.132723
0.0425574 0.126223 0.0427405
0.133196 0.145235 0.0531624
0.532448 0.111498 0.111498
0.633844 0.132723 0.132723
0.633844 0.132723 0.132723
0.135286 0.401205 0.135271
0.169741 0.492927 0.166262
0.799786 0.733333 0.27953
0.891218 0.370886 0.208331
0.633844 0.132723 0.132723
0.215869 0.639765 0.234577
0.250996 0.688533 0.238163
0.732555 0.82414 0.299916
1 0.860075 0.340154
1 0.834852 0.334966
0.781811 0.981018 0.847562
0.795666 0.983642 0.84741
0.872923 0.997482 0.844022
1 1 0.798627
1 0.865797 0.343664
0.0306249 0.0371862 0.185031
0.138491 0.0370489 0.200763
0.566476 0.118669 0.12517
0.633844 0.132723 0.132723
0.633844 0.132723 0.132723
0.040238 0.112856 0.133867
0.10576 0.114916 0.116548
0.533318 0.111681 0.112078
0.633844 0.132723 0.132723
0.633844 0.132723 0.132723
0.139132 0.412619 0.139849
0.165026 0.489418 0.165011
0.78439 0.683391 0.264302
0.892683 0.374121 0.209094
0.633844 0.132723 0.132723
0.225422 0.664927 0.343282
0.242512 0.714931 0.335119
0.722454 0.855955 0.309834
1 0.860243 0.340261
1 0.834897 0.334981
0.781552 0.981933 0.854734
0.795392 0.984588 0.85478
0.872557 0.998535 0.852308
1 1 0.808835
1 0.865797 0.343664
0.0738384 0.0737469 0.553887
0.228962 0.0926833 0.639338
0.699382 0.164645 0.70193
0.705623 0.160388 0.602472
0.633844 0.132723 0.132723
0.0843061 0.147784 0.568902
0.145174 0.0859236 0.585031
0.615686 0.144396 0.608698
0.706065 0.160525 0.603662
0.633844 0.132723 0.132723
0.185168 0.515663 0.6439
0.208072 0.586999 0.66479
0.742687 0.73521 0.697078
0.824598 0.222156 0.538857
0.633844 0.132723 0.132723
0.257267 0.741329 0.671672
0.273976 0.792325 0.681605
0.690501 0.934081 0.681651
1 0.974289 0.533257
1 0.835294 0.335088
0.779477 0.987472 0.899229
0.793347 0.990158 0.899626
0.870466 1 0.900008
1 1 0.872709
1 0.970459 0.462272
0.114763 0.258854 0.657435
0.139147 0.281605 0.727703
0.735866 0.227497 0.811399
0.85417 0.266194 0.841978
0.85417 0.266194 0.841978
0.133989 0.32694 0.692012
0.150942 0.373129 0.76231
0.733089 0.326925 0.845609
0.85417 0.266194 0.841978
0.85417 0.266194 0.841978
0.193027 0.523796 0.76109
0.224125 0.617136 0.827756
0.735653 0.742367 0.951766
0.91696 0.481575 0.915358
0.85417 0.266194 0.841978
0.278187 0.786358 0.875608
0.292927 0.830793 0.898192
0.67129 0.967681 0.97409
1 1 1
1 0.867048 0.976272
0.775555 0.997955 0.989929
0.789303 1 0.991379
0.864912 1 0.998947
1 1 1
1 1 0.993088
0.224109 0.617136 0.827665
0.241932 0.67039 0.865339
0.752026 0.745312 0.953994
0.935683 0.563714 0.935576
0.85417 0.266194 0.841978
0.227756 0.628702 0.830839
0.245884 0.682963 0.868009
0.750576 0.764263 0.957366
0.94342 0.598886 0.943435
0.85417 0.266194 0.841978
0.246983 0.689357 0.847684
0.26598 0.746456 0.881559
0.739147 0.861585 0.972992
0.98088 0.782834 0.982071
0.85417 0.266194 0.841978
0.295918 0.839139 0.908553
0.306188 0.86981 0.926207
0.702922 0.974548 0.988495
1 1 1
1 0.92105 1
0.794095 1 1
0.806424 1 1
0.872343 1 1
1 1 1
1 1 1
