luts/-UTILITY/LOG_to_Rec709/SLog3-SGamut_to_Cine+709.cube
TITLE "Generate by Resolve"
LUT_3D_SIZE 9
0.0399939 0.0388647 0.029572
0.049012 0.0394598 0.0299687
0.121782 0.0317235 0.0347601
0.365805 0.0766003 0.0766003
0.548043 0.114763 0.114763
0.619364 0.129686 0.129702
0.633844 0.132723 0.132723
0.633844 0.132723 0.132723
0.633844 0.132723 0.132723
0.0408484 0.05037 0.0313115
0.0565347 0.0530404 0.0310216
0.108415 0.0512398 0.0324865
0.340688 0.0713359 0.0713359
0.548165 0.114778 0.114794
0.619379 0.129702 0.129702
0.633844 0.132723 0.132723
0.633844 0.132723 0.132723
0.633844 0.132723 0.132723
0.0425574 0.126223 0.0427405
0.0407874 0.120607 0.0406653
0.133196 0.145235 0.0531624
0.394553 0.144091 0.089189
0.532448 0.111498 0.111498
0.619394 0.129702 0.129702
0.633844 0.132723 0.132723
0.633844 0.132723 0.132723
0.633844 0.132723 0.132723
0.105241 0.312123 0.105226
0.101823 0.301991 0.101823
0.148196 0.372656 0.126192
0.436698 0.461219 0.169955
0.765393 0.455634 0.205295
0.716716 0.150072 0.150088
0.633844 0.132723 0.132723
0.633844 0.132723 0.132723
0.633844 0.132723 0.132723
0.135286 0.401205 0.135271
0.137636 0.408194 0.137621
0.169741 0.492927 0.166262
0.424842 0.61825 0.21677
0.799786 0.733333 0.27953
0.993759 0.739116 0.301549
0.891218 0.370886 0.208331
0.633844 0.132723 0.132723
0.633844 0.132723 0.132723
0.150484 0.446281 0.150469
0.168597 0.500008 0.168582
0.214862 0.56466 0.190951
0.430076 0.659297 0.229908
0.768795 0.773877 0.288182
0.990921 0.833783 0.325917
1 0.844465 0.336583
1 0.703792 0.29723
0.633844 0.132723 0.132723
0.215869 0.639765 0.234577
0.223789 0.662562 0.235386
0.250996 0.688533 0.238163
0.436271 0.74612 0.258381
0.732555 0.82414 0.299916
0.966583 0.850492 0.327977
1 0.860075 0.340154
1 0.865797 0.343664
1 0.834852 0.334966
0.370382 0.815457 0.503685
0.398978 0.822965 0.50277
0.440589 0.833753 0.501213
0.542763 0.860609 0.495766
0.735668 0.906157 0.478859
0.931121 0.939513 0.427054
1 0.936065 0.359258
1 0.865583 0.343542
1 0.865797 0.343664
0.781811 0.981018 0.847562
0.787259 0.982055 0.847501
0.795666 0.983642 0.84741
0.820066 0.988251 0.847044
0.872923 0.997482 0.844022
0.955077 1 0.830198
1 1 0.798627
1 1 0.707134
1 0.865797 0.343664
0.0396124 0.0398413 0.0438544
0.050782 0.0401007 0.0467536
0.126482 0.0333715 0.0495155
0.368322 0.0771191 0.0771191
0.54844 0.114839 0.114839
0.619364 0.129686 0.129702
0.633844 0.132723 0.132723
0.633844 0.132723 0.132723
0.633844 0.132723 0.132723
0.036286 0.0518959 0.0478218
0.0503853 0.0501259 0.0420996
0.0993515 0.0437324 0.0399634
0.339605 0.071107 0.0711223
0.548592 0.11487 0.11487
0.619379 0.129702 0.129702
0.633844 0.132723 0.132723
0.633844 0.132723 0.132723
0.633844 0.132723 0.132723
0.0356603 0.105592 0.0421454
0.038056 0.0961318 0.0325933
0.122667 0.11397 0.0432898
0.362829 0.123842 0.0808423
0.526116 0.11017 0.11017
0.619394 0.129702 0.129702
0.633844 0.132723 0.132723
0.633844 0.132723 0.132723
0.633844 0.132723 0.132723
0.0949416 0.281544 0.0949264
0.0914168 0.271122 0.0914015
0.140246 0.333318 0.113085
0.422827 0.409491 0.153903
0.747646 0.408637 0.192782
0.718196 0.150393 0.150393
0.633844 0.132723 0.132723
0.633844 0.132723 0.132723
0.633844 0.132723 0.132723
0.130755 0.387793 0.130739
0.133257 0.395209 0.133242
0.165316 0.47776 0.161166
0.420401 0.599313 0.210605
0.792355 0.708186 0.27187
0.99379 0.739254 0.301579
0.891768 0.372076 0.208606
0.633844 0.132723 0.132723
0.633844 0.132723 0.132723
0.158175 0.469108 0.15816
0.17464 0.517952 0.174624
0.19501 0.578347 0.19498
0.422065 0.66482 0.231235
0.768368 0.770901 0.287297
0.990768 0.827787 0.324285
1 0.84448 0.336583
1 0.704051 0.297307
0.633844 0.132723 0.132723
0.22005 0.650935 0.283513
0.227787 0.674098 0.280598
0.245106 0.700603 0.274708
0.425223 0.758877 0.272007
0.728542 0.837369 0.303548
0.965194 0.86569 0.332006
1 0.860166 0.340215
1 0.865797 0.343664
1 0.834867 0.334966
0.368658 0.818372 0.517433
0.39704 0.825849 0.516594
0.438544 0.836637 0.515221
0.54139 0.863569 0.510613
0.73489 0.909178 0.494331
0.930343 0.942657 0.446006
1 0.940398 0.361761
1 0.865614 0.343557
1 0.865797 0.343664
0.781704 0.981384 0.850477
0.787137 0.982437 0.850492
0.795544 0.984054 0.850507
0.819928 0.988663 0.850233
0.872786 0.997894 0.847257
0.954971 1 0.833616
1 1 0.802625
1 1 0.712963
1 0.865797 0.343664
0.0306249 0.0371862 0.185031
0.0443122 0.0342565 0.185855
0.138491 0.0370489 0.200763
0.394476 0.0840314 0.179553
0.566476 0.118669 0.12517
0.619455 0.129717 0.129717
0.633844 0.132723 0.132723
0.633844 0.132723 0.132723
0.633844 0.132723 0.132723
0.0248569 0.0540932 0.146471
0.0391546 0.0475471 0.132174
0.0982834 0.0329442 0.127825
0.362158 0.0766308 0.138567
0.567407 0.118883 0.126665
0.619471 0.129717 0.129717
0.633844 0.132723 0.132723
0.633844 0.132723 0.132723
0.633844 0.132723 0.132723
0.040238 0.112856 0.133867
0.035935 0.100954 0.118242
0.10576 0.114916 0.116548
0.360479 0.091371 0.0973526
0.533318 0.111681 0.112078
0.619242 0.129671 0.129671
0.633844 0.132723 0.132723
0.633844 0.132723 0.132723
0.633844 0.132723 0.132723
0.100298 0.296681 0.128511
0.094377 0.279561 0.108888
0.109758 0.32517 0.109926
0.403281 0.373831 0.142077
0.706218 0.337591 0.172641
0.735821 0.154086 0.154086
0.633844 0.132723 0.132723
0.633844 0.132723 0.132723
0.633844 0.132723 0.132723
0.139132 0.412619 0.139849
0.140108 0.415518 0.140108
0.165026 0.489418 0.165011
0.402762 0.604639 0.211292
0.78439 0.683391 0.264302
0.980575 0.698436 0.289845
0.892683 0.374121 0.209094
0.633844 0.132723 0.132723
0.633844 0.132723 0.132723
0.16614 0.492424 0.178958
0.182986 0.542626 0.18558
0.203098 0.602335 0.203082
0.392477 0.694347 0.239231
0.760281 0.79379 0.293217
0.990448 0.819471 0.322042
1 0.844495 0.336583
1 0.704387 0.297398
0.633844 0.132723 0.132723
0.225422 0.664927 0.343282
0.233112 0.688151 0.340505
0.242512 0.714931 0.335119
0.409247 0.774701 0.319783
0.722454 0.855955 0.309834
0.963104 0.885649 0.337331
1 0.860243 0.340261
1 0.865797 0.343664
1 0.834897 0.334981
0.366171 0.822751 0.538399
0.394202 0.830213 0.537682
0.435477 0.84097 0.536461
0.539055 0.867842 0.532265
0.733669 0.913695 0.517952
0.929168 0.947265 0.472724
1 0.946563 0.370825
1 0.865629 0.343572
1 0.865797 0.343664
0.781552 0.981933 0.854734
0.786984 0.982971 0.854765
0.795392 0.984588 0.85478
0.81973 0.989242 0.85478
0.872557 0.998535 0.852308
0.954818 1 0.838956
1 1 0.808835
1 1 0.722026
1 0.865797 0.343664
0.097673 0.0534829 0.38854
0.114031 0.0562753 0.403388
0.192737 0.0675059 0.444266
0.436973 0.105013 0.473426
0.603586 0.134188 0.449531
0.656123 0.141665 0.371466
0.633844 0.132723 0.132723
0.633844 0.132723 0.132723
0.633844 0.132723 0.132723
0.0754711 0.0488594 0.360235
0.0904097 0.0480354 0.347753
0.149538 0.0562295 0.37966
0.399695 0.0957809 0.428916
0.603861 0.134295 0.450843
0.656306 0.141772 0.37348
0.633844 0.132723 0.132723
0.633844 0.132723 0.132723
0.633844 0.132723 0.132723
0.0647288 0.132113 0.403662
0.0611734 0.121675 0.387915
0.119081 0.106737 0.400092
0.366705 0.0876936 0.390112
0.572763 0.125536 0.380423
0.656596 0.141924 0.376638
0.633844 0.132723 0.132723
0.633844 0.132723 0.132723
0.633844 0.132723 0.132723
0.1187 0.330526 0.412955
0.11133 0.310063 0.386816
0.123217 0.347768 0.392279
0.378241 0.380072 0.381292
0.699687 0.304372 0.32781
0.678279 0.143175 0.239506
0.633844 0.132723 0.132723
0.633844 0.132723 0.132723
0.633844 0.132723 0.132723
0.162692 0.473121 0.370626
0.162585 0.474357 0.347646
0.185794 0.54519 0.344305
0.330007 0.654856 0.320607
0.775174 0.72105 0.277882
0.949645 0.658824 0.276387
0.914656 0.42652 0.221637
0.633844 0.132723 0.132723
0.633844 0.132723 0.132723
0.183856 0.537179 0.381201
0.199985 0.586526 0.375998
0.219364 0.645457 0.370886
0.318105 0.739681 0.33817
0.74435 0.844999 0.306996
0.987015 0.865599 0.334112
1 0.82031 0.32958
1 0.70544 0.297704
0.633844 0.132723 0.132723
0.23798 0.696757 0.469337
0.245502 0.719631 0.468742
0.254185 0.746136 0.465858
0.380911 0.806729 0.457115
0.709911 0.889418 0.42858
0.95349 0.928679 0.359075
1 0.897444 0.349844
1 0.865797 0.343664
1 0.835004 0.335012
0.359487 0.834211 0.594827
0.386511 0.841642 0.594583
0.427176 0.852338 0.594095
0.532692 0.87924 0.591821
0.729381 0.925338 0.581353
0.925566 0.959411 0.542229
1 0.961959 0.444816
1 0.878538 0.346914
1 0.865797 0.343664
0.781079 0.983551 0.867536
0.786526 0.984604 0.867582
0.794919 0.986206 0.867628
0.819226 0.990845 0.867704
0.871977 1 0.865904
0.95433 1 0.854978
1 1 0.827176
1 1 0.748852
1 0.907073 0.354345
0.0738384 0.0737469 0.553887
0.0793164 0.0772564 0.579904
0.228962 0.0926833 0.639338
0.541329 0.138674 0.709346
0.699382 0.164645 0.70193
0.734142 0.169482 0.677501
0.705623 0.160388 0.602472
0.633844 0.132723 0.132723
0.633844 0.132723 0.132723
0.0679637 0.0678874 0.509865
0.0971847 0.0684825 0.507637
0.183719 0.0790265 0.552926
0.450706 0.118563 0.630243
0.699779 0.164736 0.702358
0.734478 0.169574 0.677989
0.705791 0.160449 0.60293
0.633844 0.132723 0.132723
0.633844 0.132723 0.132723
0.0843061 0.147784 0.568902
0.079881 0.122271 0.559762
0.145174 0.0859236 0.585031
0.385977 0.10724 0.607706
0.615686 0.144396 0.608698
0.734997 0.169711 0.678767
0.706065 0.160525 0.603662
0.633844 0.132723 0.132723
0.633844 0.132723 0.132723
0.129763 0.327825 0.62858
0.124453 0.310536 0.617853
0.135607 0.343389 0.65359
0.374563 0.361227 0.69276
0.692943 0.273594 0.687495
0.689082 0.155978 0.574884
0.706874 0.1608 0.60592
0.633844 0.132723 0.132723
0.633844 0.132723 0.132723
0.185168 0.515663 0.6439
0.186343 0.520485 0.636759
0.208072 0.586999 0.66479
0.254948 0.688167 0.694591
0.742687 0.73521 0.697078
0.918379 0.647318 0.646159
0.824598 0.222156 0.538857
0.633844 0.132723 0.132723
0.633844 0.132723 0.132723
0.205982 0.585092 0.623392
0.222675 0.636576 0.635218
0.24213 0.696239 0.648585
0.275303 0.798032 0.658808
0.71429 0.90753 0.649592
0.964782 0.934539 0.591546
1 0.901305 0.433967
1 0.721736 0.302388
0.633844 0.132723 0.132723
0.257267 0.741329 0.671672
0.264958 0.764797 0.676646
0.273976 0.792325 0.681605
0.347875 0.852049 0.686137
0.690501 0.934081 0.681651
0.936446 0.975631 0.640467
1 0.974289 0.533257
1 0.892073 0.350225
1 0.835294 0.335088
0.343282 0.855741 0.709819
0.368063 0.863111 0.710628
0.408133 0.873747 0.711711
0.519615 0.900786 0.713848
0.718425 0.947188 0.712398
0.915496 0.982681 0.690867
1 0.991638 0.629389
1 0.963211 0.419562
1 0.865797 0.343664
0.779477 0.987472 0.899229
0.784924 0.988525 0.899382
0.793347 0.990158 0.899626
0.817639 0.994842 0.900236
0.870466 1 0.900008
0.953323 1 0.893797
1 1 0.872709
1 1 0.813367
1 0.970459 0.462272
0.0926375 0.172152 0.60943
0.0981308 0.186664 0.638148
0.209781 0.21857 0.710399
0.562722 0.236103 0.789639
0.777844 0.22359 0.815183
0.841581 0.253239 0.835508
0.85417 0.266194 0.841978
0.835599 0.200427 0.814939
0.633844 0.132723 0.132723
0.104891 0.221836 0.637247
0.105531 0.219791 0.648814
0.155428 0.234012 0.707088
0.500969 0.235142 0.778683
0.768017 0.224186 0.81413
0.841581 0.253239 0.835508
0.85417 0.266194 0.841978
0.835676 0.200534 0.815045
0.633844 0.132723 0.132723
0.124681 0.294469 0.676036
0.122652 0.28455 0.680476
0.124285 0.272251 0.727138
0.441978 0.207813 0.778225
0.71931 0.184588 0.794202
0.841596 0.253254 0.835523
0.85417 0.266194 0.841978
0.835782 0.200732 0.815198
0.633844 0.132723 0.132723
0.150088 0.383566 0.708949
0.14815 0.376135 0.710002
0.161959 0.415518 0.758068
0.387579 0.44506 0.819257
0.725643 0.389853 0.848646
0.80058 0.1879 0.790524
0.85417 0.266194 0.841978
0.836133 0.201343 0.815717
0.633844 0.132723 0.132723
0.192599 0.524147 0.750225
0.195666 0.533165 0.758328
0.215503 0.593118 0.797833
0.257145 0.679011 0.858518
0.729763 0.708751 0.908476
0.902296 0.609522 0.898802
0.853559 0.266072 0.817731
0.837201 0.203372 0.817288
0.633844 0.132723 0.132723
0.219409 0.610742 0.765179
0.234165 0.655894 0.786053
0.254276 0.716747 0.817533
0.288624 0.820249 0.86392
0.692409 0.927901 0.912413
0.946563 0.95346 0.919753
1 0.920592 0.891066
0.933379 0.537652 0.807431
0.633844 0.132723 0.132723
0.270954 0.768841 0.827314
0.278309 0.791211 0.835966
0.28719 0.81825 0.846189
0.311742 0.878233 0.870237
0.672541 0.962264 0.90219
0.921248 1 0.905882
1 1 0.880674
1 1 0.772351
1 0.808988 0.326619
0.311147 0.879911 0.854292
0.321782 0.887251 0.856916
0.354009 0.897826 0.860716
0.496086 0.925109 0.870695
0.708125 0.971313 0.885374
0.904265 1 0.88658
1 1 0.863081
1 1 0.802686
1 0.961776 0.411475
0.775982 0.993317 0.950774
0.781476 0.994415 0.951186
0.78999 0.996139 0.951812
0.814298 1 0.953521
0.867597 1 0.956451
0.950683 1 0.957534
1 1 0.95108
1 1 0.922789
1 1 0.805508
0.114763 0.258854 0.657435
0.116915 0.261738 0.675059
0.139147 0.281605 0.727703
0.466773 0.276585 0.78819
0.735866 0.227497 0.811399
0.842023 0.253681 0.835737
0.85417 0.266194 0.841978
0.85417 0.266194 0.841978
0.85417 0.266194 0.841978
0.124529 0.293812 0.675975
0.127382 0.299931 0.693507
0.138918 0.323537 0.744442
0.451804 0.328161 0.804517
0.724437 0.238544 0.814359
0.842039 0.253697 0.835752
0.85417 0.266194 0.841978
0.85417 0.266194 0.841978
0.85417 0.266194 0.841978
0.133989 0.32694 0.692012
0.137758 0.336797 0.709285
0.150942 0.373129 0.76231
0.434348 0.400031 0.827878
0.733089 0.326925 0.845609
0.838468 0.250141 0.833921
0.85417 0.266194 0.841978
0.85417 0.266194 0.841978
0.85417 0.266194 0.841978
0.156359 0.403464 0.722011
0.1608 0.415915 0.737942
0.177859 0.466026 0.788861
0.388449 0.517342 0.855436
0.743084 0.500572 0.899031
0.855161 0.354574 0.870726
0.85417 0.266194 0.841978
0.85417 0.266194 0.841978
0.85417 0.266194 0.841978
0.193027 0.523796 0.76109
0.20235 0.551705 0.782055
0.224125 0.617136 0.827756
0.280949 0.702022 0.892744
0.735653 0.742367 0.951766
0.914397 0.68101 0.957961
0.91696 0.481575 0.915358
0.85417 0.266194 0.841978
0.85417 0.266194 0.841978
0.228428 0.634852 0.80354
0.242405 0.677195 0.827192
0.261845 0.735882 0.859693
0.293751 0.828595 0.912001
0.695552 0.922316 0.974258
0.935363 0.940764 0.997131
1 0.910399 0.996521
0.956558 0.631846 0.948287
0.85417 0.266194 0.841978
0.278187 0.786358 0.875608
0.284733 0.806119 0.885481
0.292927 0.830793 0.898192
0.318776 0.887083 0.928817
0.67129 0.967681 0.97409
0.914824 1 0.999435
1 1 1
1 1 0.997757
1 0.867048 0.976272
0.320287 0.895232 0.928435
0.33138 0.902342 0.932311
0.366567 0.912505 0.937865
0.500587 0.938598 0.9523
0.704479 0.9823 0.97641
0.898665 1 0.995682
1 1 1
1 1 0.994949
1 1 0.977554
0.775555 0.997955 0.989929
0.780957 0.999069 0.990494
0.789303 1 0.991379
0.812711 1 0.99382
0.864912 1 0.998947
0.947188 1 1
1 1 1
1 1 1
1 1 0.993088
0.144945 0.364706 0.708003
0.157244 0.400702 0.747677
0.169223 0.434989 0.78854
0.422141 0.471473 0.847639
0.739956 0.449592 0.884779
0.840894 0.301671 0.852308
0.85417 0.266194 0.841978
0.85417 0.266194 0.841978
0.85417 0.266194 0.841978
0.148379 0.376364 0.712642
0.160952 0.413321 0.751766
0.17348 0.449531 0.792493
0.416052 0.488701 0.851514
0.740093 0.470649 0.890715
0.848859 0.336553 0.864332
0.85417 0.266194 0.841978
0.85417 0.266194 0.841978
0.85417 0.266194 0.841978
0.153506 0.393637 0.719554
0.166705 0.432822 0.757931
0.179843 0.471077 0.798337
0.40705 0.514397 0.857176
0.740124 0.50135 0.898878
0.861997 0.393057 0.883162
0.85417 0.266194 0.841978
0.85417 0.266194 0.841978
0.85417 0.266194 0.841978
0.167941 0.441505 0.737743
0.18201 0.483726 0.77351
0.197238 0.528908 0.813458
0.380774 0.582055 0.872206
0.739986 0.583078 0.919097
0.882979 0.496635 0.914153
0.85417 0.266194 0.841978
0.85417 0.266194 0.841978
0.85417 0.266194 0.841978
0.198398 0.539849 0.773434
0.212711 0.582986 0.803403
0.230213 0.635538 0.839414
0.299229 0.708354 0.89688
0.732464 0.747845 0.952453
0.914427 0.699275 0.961364
0.935851 0.564828 0.935805
0.85417 0.266194 0.841978
0.85417 0.266194 0.841978
0.236393 0.658701 0.819333
0.25008 0.699962 0.843198
0.264958 0.744854 0.867933
0.298451 0.827237 0.91754
0.701823 0.911238 0.977066
0.932174 0.926452 1
1 0.896284 1
0.965377 0.668009 0.959625
0.85417 0.266194 0.841978
0.282979 0.80029 0.887663
0.288548 0.817014 0.896452
0.296239 0.840055 0.909316
0.33138 0.893339 0.939956
0.682002 0.968582 0.985351
0.915343 1 1
1 1 1
1 1 1
1 0.861906 0.997406
0.333059 0.906493 0.945693
0.353231 0.91284 0.949294
0.398215 0.922225 0.954681
0.528298 0.946151 0.968612
0.713436 0.98616 0.992203
0.896635 1 1
1 1 1
1 1 1
1 1 1
0.781308 1 1
0.786526 1 1
0.794583 1 1
0.816312 1 1
0.866041 1 1
0.945693 1 1
1 1 1
1 1 1
1 1 1
0.224109 0.617136 0.827665
0.232227 0.64152 0.844068
0.241932 0.67039 0.865339
0.412268 0.721553 0.911025
0.752026 0.745312 0.953994
0.915785 0.69601 0.960906
0.935683 0.563714 0.935576
0.85417 0.266194 0.841978
0.85417 0.266194 0.841978
0.225589 0.621836 0.828962
0.233722 0.646296 0.845243
0.243503 0.675364 0.866377
0.409003 0.727214 0.911986
0.751446 0.752834 0.955337
0.917067 0.705531 0.962692
0.938796 0.577874 0.93872
0.85417 0.266194 0.841978
0.85417 0.266194 0.841978
0.227756 0.628702 0.830839
0.236027 0.653574 0.847044
0.245884 0.682963 0.868009
0.404089 0.735836 0.913451
0.750576 0.764263 0.957366
0.919036 0.719982 0.965393
0.94342 0.598886 0.943435
0.85417 0.266194 0.841978
0.85417 0.266194 0.841978
0.233814 0.647883 0.836118
0.24213 0.672953 0.851759
0.252308 0.703349 0.872312
0.390448 0.759625 0.917464
0.747677 0.795209 0.962646
0.923568 0.760311 0.972839
0.956191 0.657053 0.956664
0.85417 0.266194 0.841978
0.85417 0.266194 0.841978
0.246983 0.689357 0.847684
0.25536 0.714641 0.862074
0.26598 0.746456 0.881559
0.367849 0.808652 0.925063
0.739147 0.861585 0.972992
0.931472 0.848966 0.988312
0.98088 0.782834 0.982071
0.85417 0.266194 0.841978
0.85417 0.266194 0.841978
0.267292 0.752453 0.867445
0.274311 0.773602 0.878676
0.284138 0.803037 0.895521
0.354299 0.865644 0.933745
0.716182 0.936858 0.982467
0.933516 0.958206 1
1 0.944045 1
0.998749 0.823041 0.990616
0.85417 0.266194 0.841978
0.295918 0.839139 0.908553
0.300191 0.851881 0.915831
0.306188 0.86981 0.926207
0.402579 0.912474 0.950744
0.702922 0.974548 0.988495
0.917052 1 1
1 1 1
1 1 1
1 0.92105 1
0.393545 0.92137 0.954192
0.425971 0.927016 0.957443
0.468345 0.93492 0.962036
0.571908 0.955139 0.973892
0.730648 0.989837 0.994369
0.900526 1 1
1 1 1
1 1 1
1 1 1
0.794095 1 1
0.799069 1 1
0.806424 1 1
0.82591 1 1
0.872343 1 1
0.948302 1 1
1 1 1
1 1 1
1 1 1
