luts/-UTILITY/LOG_to_Rec709/Sony_SLog2_to_Rec709.cube
LUT_3D_SIZE 9
0 0 0
0.0612192 0 0
0.276493 0 0
0.502815 0 0
0.795422 0 0
1 0 0
1 0 0
1 0 0
1 0 0
0 0.0612192 0
0.0612192 0.0612192 0
0.276493 0.0612192 0
0.502815 0.0612192 0
0.795422 0.0612192 0
1 0.0612192 0
1 0.0612192 0
1 0.0612192 0
1 0.0612192 0
0 0.276493 0
0.0612192 0.276493 0
0.276493 0.276493 0
0.502815 0.276493 0
0.795422 0.276493 0
1 0.276493 0
1 0.276493 0
1 0.276493 0
1 0.276493 0
0 0.502815 0
0.0612192 0.502815 0
0.276493 0.502815 0
0.502815 0.502815 0
0.795422 0.502815 0
1 0.502815 0
1 0.502815 0
1 0.502815 0
1 0.502815 0
0 0.795422 0
0.0612192 0.795422 0
0.276493 0.795422 0
0.502815 0.795422 0
0.795422 0.795422 0
1 0.795422 0
1 0.795422 0
1 0.795422 0
1 0.795422 0
0 1 0
0.0612192 1 0
0.276493 1 0
0.502815 1 0
0.795422 1 0
1 1 0
1 1 0
1 1 0
1 1 0
0 1 0
0.0612192 1 0
0.276493 1 0
0.502815 1 0
0.795422 1 0
1 1 0
1 1 0
1 1 0
1 1 0
0 1 0
0.0612192 1 0
0.276493 1 0
0.502815 1 0
0.795422 1 0
1 1 0
1 1 0
1 1 0
1 1 0
0 1 0
0.0612192 1 0
0.276493 1 0
0.502815 1 0
0.795422 1 0
1 1 0
1 1 0
1 1 0
1 1 0
0 0 0.0612192
0.0612192 0 0.0612192
0.276493 0 0.0612192
0.502815 0 0.0612192
0.795422 0 0.0612192
1 0 0.0612192
1 0 0.0612192
1 0 0.0612192
1 0 0.0612192
0 0.0612192 0.0612192
0.0612192 0.0612192 0.0612192
0.276493 0.0612192 0.0612192
0.502815 0.0612192 0.0612192
0.795422 0.0612192 0.0612192
1 0.0612192 0.0612192
1 0.0612192 0.0612192
1 0.0612192 0.0612192
1 0.0612192 0.0612192
0 0.276493 0.0612192
0.0612192 0.276493 0.0612192
0.276493 0.276493 0.0612192
0.502815 0.276493 0.0612192
0.795422 0.276493 0.0612192
1 0.276493 0.0612192
1 0.276493 0.0612192
1 0.276493 0.0612192
1 0.276493 0.0612192
0 0.502815 0.0612192
0.0612192 0.502815 0.0612192
0.276493 0.502815 0.0612192
0.502815 0.502815 0.0612192
0.795422 0.502815 0.0612192
1 0.502815 0.0612192
1 0.502815 0.0612192
1 0.502815 0.0612192
1 0.502815 0.0612192
0 0.795422 0.0612192
0.0612192 0.795422 0.0612192
0.276493 0.795422 0.0612192
0.502815 0.795422 0.0612192
0.795422 0.795422 0.0612192
1 0.795422 0.0612192
1 0.795422 0.0612192
1 0.795422 0.0612192
1 0.795422 0.0612192
0 1 0.0612192
0.0612192 1 0.0612192
0.276493 1 0.0612192
0.502815 1 0.0612192
0.795422 1 0.0612192
1 1 0.0612192
1 1 0.0612192
1 1 0.0612192
1 1 0.0612192
0 1 0.0612192
0.0612192 1 0.0612192
0.276493 1 0.0612192
0.502815 1 0.0612192
0.795422 1 0.0612192
1 1 0.0612192
1 1 0.0612192
1 1 0.0612192
1 1 0.0612192
0 1 0.0612192
0.0612192 1 0.0612192
0.276493 1 0.0612192
0.502815 1 0.0612192
0.795422 1 0.0612192
1 1 0.0612192
1 1 0.0612192
1 1 0.0612192
1 1 0.0612192
0 1 0.0612192
0.0612192 1 0.0612192
0.276493 1 0.0612192
0.502815 1 0.0612192
0.795422 1 0.0612192
1 1 0.0612192
1 1 0.0612192
1 1 0.0612192
1 1 0.0612192
0 0 0.276493
0.0612192 0 0.276493
0.276493 0 0.276493
0.502815 0 0.276493
0.795422 0 0.276493
1 0 0.276493
1 0 0.276493
1 0 0.276493
1 0 0.276493
0 0.0612192 0.276493
0.0612192 0.0612192 0.276493
0.276493 0.0612192 0.276493
0.502815 0.0612192 0.276493
0.795422 0.0612192 0.276493
1 0.0612192 0.276493
1 0.0612192 0.276493
1 0.0612192 0.276493
1 0.0612192 0.276493
0 0.276493 0.276493
0.0612192 0.276493 0.276493
0.276493 0.276493 0.276493
0.502815 0.276493 0.276493
0.795422 0.276493 0.276493
1 0.276493 0.276493
1 0.276493 0.276493
1 0.276493 0.276493
1 0.276493 0.276493
0 0.502815 0.276493
0.0612192 0.502815 0.276493
0.276493 0.502815 0.276493
0.502815 0.502815 0.276493
0.795422 0.502815 0.276493
1 0.502815 0.276493
1 0.502815 0.276493
1 0.502815 0.276493
1 0.502815 0.276493
0 0.795422 0.276493
0.0612192 0.795422 0.276493
0.276493 0.795422 0.276493
0.502815 0.795422 0.276493
0.795422 0.795422 0.276493
1 0.795422 0.276493
1 0.795422 0.276493
1 0.795422 0.276493
1 0.795422 0.276493
0 1 0.276493
0.0612192 1 0.276493
0.276493 1 0.276493
0.502815 1 0.276493
0.795422 1 0.276493
1 1 0.276493
1 1 0.276493
1 1 0.276493
1 1 0.276493
0 1 0.276493
0.0612192 1 0.276493
0.276493 1 0.276493
0.502815 1 0.276493
0.795422 1 0.276493
1 1 0.276493
1 1 0.276493
1 1 0.276493
1 1 0.276493
0 1 0.276493
0.0612192 1 0.276493
0.276493 1 0.276493
0.502815 1 0.276493
0.795422 1 0.276493
1 1 0.276493
1 1 0.276493
1 1 0.276493
1 1 0.276493
0 1 0.276493
0.0612192 1 0.276493
0.276493 1 0.276493
0.502815 1 0.276493
0.795422 1 0.276493
1 1 0.276493
1 1 0.276493
1 1 0.276493
1 1 0.276493
0 0 0.502815
0.0612192 0 0.502815
0.276493 0 0.502815
0.502815 0 0.502815
0.795422 0 0.502815
1 0 0.502815
1 0 0.502815
1 0 0.502815
1 0 0.502815
0 0.0612192 0.502815
0.0612192 0.0612192 0.502815
0.276493 0.0612192 0.502815
0.502815 0.0612192 0.502815
0.795422 0.0612192 0.502815
1 0.0612192 0.502815
1 0.0612192 0.502815
1 0.0612192 0.502815
1 0.0612192 0.502815
0 0.276493 0.502815
0.0612192 0.276493 0.502815
0.276493 0.276493 0.502815
0.502815 0.276493 0.502815
0.795422 0.276493 0.502815
1 0.276493 0.502815
1 0.276493 0.502815
1 0.276493 0.502815
1 0.276493 0.502815
0 0.502815 0.502815
0.0612192 0.502815 0.502815
0.276493 0.502815 0.502815
0.502815 0.502815 0.502815
0.795422 0.502815 0.502815
1 0.502815 0.502815
1 0.502815 0.502815
1 0.502815 0.502815
1 0.502815 0.502815
0 0.795422 0.502815
0.0612192 0.795422 0.502815
0.276493 0.795422 0.502815
0.502815 0.795422 0.502815
0.795422 0.795422 0.502815
1 0.795422 0.502815
1 0.795422 0.502815
1 0.795422 0.502815
1 0.795422 0.502815
0 1 0.502815
0.0612192 1 0.502815
0.276493 1 0.502815
0.502815 1 0.502815
0.795422 1 0.502815
1 1 0.502815
1 1 0.502815
1 1 0.502815
1 1 0.502815
0 1 0.502815
0.0612192 1 0.502815
0.276493 1 0.502815
0.502815 1 0.502815
0.795422 1 0.502815
1 1 0.502815
1 1 0.502815
1 1 0.502815
1 1 0.502815
0 1 0.502815
0.0612192 1 0.502815
0.276493 1 0.502815
0.502815 1 0.502815
0.795422 1 0.502815
1 1 0.502815
1 1 0.502815
1 1 0.502815
1 1 0.502815
0 1 0.502815
0.0612192 1 0.502815
0.276493 1 0.502815
0.502815 1 0.502815
0.795422 1 0.502815
1 1 0.502815
1 1 0.502815
1 1 0.502815
1 1 0.502815
0 0 0.795422
0.0612192 0 0.795422
0.276493 0 0.795422
0.502815 0 0.795422
0.795422 0 0.795422
1 0 0.795422
1 0 0.795422
1 0 0.795422
1 0 0.795422
0 0.0612192 0.795422
0.0612192 0.0612192 0.795422
0.276493 0.0612192 0.795422
0.502815 0.0612192 0.795422
0.795422 0.0612192 0.795422
1 0.0612192 0.795422
1 0.0612192 0.795422
1 0.0612192 0.795422
1 0.0612192 0.795422
0 0.276493 0.795422
0.0612192 0.276493 0.795422
0.276493 0.276493 0.795422
0.502815 0.276493 0.795422
0.795422 0.276493 0.795422
1 0.276493 0.795422
1 0.276493 0.795422
1 0.276493 0.795422
1 0.276493 0.795422
0 0.502815 0.795422
0.0612192 0.502815 0.795422
0.276493 0.502815 0.795422
0.502815 0.502815 0.795422
0.795422 0.502815 0.795422
1 0.502815 0.795422
1 0.502815 0.795422
1 0.502815 0.795422
1 0.502815 0.795422
0 0.795422 0.795422
0.0612192 0.795422 0.795422
0.276493 0.795422 0.795422
0.502815 0.795422 0.795422
0.795422 0.795422 0.795422
1 0.795422 0.795422
1 0.795422 0.795422
1 0.795422 0.795422
1 0.795422 0.795422
0 1 0.795422
0.0612192 1 0.795422
0.276493 1 0.795422
0.502815 1 0.795422
0.795422 1 0.795422
1 1 0.795422
1 1 0.795422
1 1 0.795422
1 1 0.795422
0 1 0.795422
0.0612192 1 0.795422
0.276493 1 0.795422
0.502815 1 0.795422
0.795422 1 0.795422
1 1 0.795422
1 1 0.795422
1 1 0.795422
1 1 0.795422
0 1 0.795422
0.0612192 1 0.795422
0.276493 1 0.795422
0.502815 1 0.795422
0.795422 1 0.795422
1 1 0.795422
1 1 0.795422
1 1 0.795422
1 1 0.795422
0 1 0.795422
0.0612192 1 0.795422
0.276493 1 0.795422
0.502815 1 0.795422
0.795422 1 0.795422
1 1 0.795422
1 1 0.795422
1 1 0.795422
1 1 0.795422
0 0 1
0.0612192 0 1
0.276493 0 1
0.502815 0 1
0.795422 0 1
1 0 1
1 0 1
1 0 1
1 0 1
0 0.0612192 1
0.0612192 0.0612192 1
0.276493 0.0612192 1
0.502815 0.0612192 1
0.795422 0.0612192 1
1 0.0612192 1
1 0.0612192 1
1 0.0612192 1
1 0.0612192 1
0 0.276493 1
0.0612192 0.276493 1
0.276493 0.276493 1
0.502815 0.276493 1
0.795422 0.276493 1
1 0.276493 1
1 0.276493 1
1 0.276493 1
1 0.276493 1
0 0.502815 1
0.0612192 0.502815 1
0.276493 0.502815 1
0.502815 0.502815 1
0.795422 0.502815 1
1 0.502815 1
1 0.502815 1
1 0.502815 1
1 0.502815 1
0 0.795422 1
0.0612192 0.795422 1
0.276493 0.795422 1
0.502815 0.795422 1
0.795422 0.795422 1
1 0.795422 1
1 0.795422 1
1 0.795422 1
1 0.795422 1
0 1 1
0.0612192 1 1
0.276493 1 1
0.502815 1 1
0.795422 1 1
1 1 1
1 1 1
1 1 1
1 1 1
0 1 1
0.0612192 1 1
0.276493 1 1
0.502815 1 1
0.795422 1 1
1 1 1
1 1 1
1 1 1
1 1 1
0 1 1
0.0612192 1 1
0.276493 1 1
0.502815 1 1
0.795422 1 1
1 1 1
1 1 1
1 1 1
1 1 1
0 1 1
0.0612192 1 1
0.276493 1 1
0.502815 1 1
0.795422 1 1
1 1 1
1 1 1
1 1 1
1 1 1
0 0 1
0.0612192 0 1
0.276493 0 1
0.502815 0 1
0.795422 0 1
1 0 1
1 0 1
1 0 1
1 0 1
0 0.0612192 1
0.0612192 0.0612192 1
0.276493 0.0612192 1
0.502815 0.0612192 1
0.795422 0.0612192 1
1 0.0612192 1
1 0.0612192 1
1 0.0612192 1
1 0.0612192 1
0 0.276493 1
0.0612192 0.276493 1
0.276493 0.276493 1
0.502815 0.276493 1
0.795422 0.276493 1
1 0.276493 1
1 0.276493 1
1 0.276493 1
1 0.276493 1
0 0.502815 1
0.0612192 0.502815 1
0.276493 0.502815 1
0.502815 0.502815 1
0.795422 0.502815 1
1 0.502815 1
1 0.502815 1
1 0.502815 1
1 0.502815 1
0 0.795422 1
0.0612192 0.795422 1
0.276493 0.795422 1
0.502815 0.795422 1
0.795422 0.795422 1
1 0.795422 1
1 0.795422 1
1 0.795422 1
1 0.795422 1
0 1 1
0.0612192 1 1
0.276493 1 1
0.502815 1 1
0.795422 1 1
1 1 1
1 1 1
1 1 1
1 1 1
0 1 1
0.0612192 1 1
0.276493 1 1
0.502815 1 1
0.795422 1 1
1 1 1
1 1 1
1 1 1
1 1 1
0 1 1
0.0612192 1 1
0.276493 1 1
0.502815 1 1
0.795422 1 1
1 1 1
1 1 1
1 1 1
1 1 1
0 1 1
0.0612192 1 1
0.276493 1 1
0.502815 1 1
0.795422 1 1
1 1 1
1 1 1
1 1 1
1 1 1
0 0 1
0.0612192 0 1
0.276493 0 1
0.502815 0 1
0.795422 0 1
1 0 1
1 0 1
1 0 1
1 0 1
0 0.0612192 1
0.0612192 0.0612192 1
0.276493 0.0612192 1
0.502815 0.0612192 1
0.795422 0.0612192 1
1 0.0612192 1
1 0.0612192 1
1 0.0612192 1
1 0.0612192 1
0 0.276493 1
0.0612192 0.276493 1
0.276493 0.276493 1
0.502815 0.276493 1
0.795422 0.276493 1
1 0.276493 1
1 0.276493 1
1 0.276493 1
1 0.276493 1
0 0.502815 1
0.0612192 0.502815 1
0.276493 0.502815 1
0.502815 0.502815 1
0.795422 0.502815 1
1 0.502815 1
1 0.502815 1
1 0.502815 1
1 0.502815 1
0 0.795422 1
0.0612192 0.795422 1
0.276493 0.795422 1
0.502815 0.795422 1
0.795422 0.795422 1
1 0.795422 1
1 0.795422 1
1 0.795422 1
1 0.795422 1
0 1 1
0.0612192 1 1
0.276493 1 1
0.502815 1 1
0.795422 1 1
1 1 1
1 1 1
1 1 1
1 1 1
0 1 1
0.0612192 1 1
0.276493 1 1
0.502815 1 1
0.795422 1 1
1 1 1
1 1 1
1 1 1
1 1 1
0 1 1
0.0612192 1 1
0.276493 1 1
0.502815 1 1
0.795422 1 1
1 1 1
1 1 1
1 1 1
1 1 1
0 1 1
0.0612192 1 1
0.276493 1 1
0.502815 1 1
0.795422 1 1
1 1 1
1 1 1
1 1 1
1 1 1
0 0 1
0.0612192 0 1
0.276493 0 1
0.502815 0 1
0.795422 0 1
1 0 1
1 0 1
1 0 1
1 0 1
0 0.0612192 1
0.0612192 0.0612192 1
0.276493 0.0612192 1
0.502815 0.0612192 1
0.795422 0.0612192 1
1 0.0612192 1
1 0.0612192 1
1 0.0612192 1
1 0.0612192 1
0 0.276493 1
0.0612192 0.276493 1
0.276493 0.276493 1
0.502815 0.276493 1
0.795422 0.276493 1
1 0.276493 1
1 0.276493 1
1 0.276493 1
1 0.276493 1
0 0.502815 1
0.0612192 0.502815 1
0.276493 0.502815 1
0.502815 0.502815 1
0.795422 0.502815 1
1 0.502815 1
1 0.502815 1
1 0.502815 1
1 0.502815 1
0 0.795422 1
0.0612192 0.795422 1
0.276493 0.795422 1
0.502815 0.795422 1
0.795422 0.795422 1
1 0.795422 1
1 0.795422 1
1 0.795422 1
1 0.795422 1
0 1 1
0.0612192 1 1
0.276493 1 1
0.502815 1 1
0.795422 1 1
1 1 1
1 1 1
1 1 1
1 1 1
0 1 1
0.0612192 1 1
0.276493 1 1
0.502815 1 1
0.795422 1 1
1 1 1
1 1 1
1 1 1
1 1 1
0 1 1
0.0612192 1 1
0.276493 1 1
0.502815 1 1
0.795422 1 1
1 1 1
1 1 1
1 1 1
1 1 1
0 1 1
0.0612192 1 1
0.276493 1 1
0.502815 1 1
0.795422 1 1
1 1 1
1 1 1
1 1 1
1 1 1
