luts/-UTILITY/LOG_to_Rec709/Sony_SLog2_to_Rec709.cube
LUT_3D_SIZE 33
0 0 0
0 0 0
0 0 0
0.00827039 0 0
0.0612192 0 0
0.120562 0 0
0.173953 0 0
0.225223 0 0
0.276493 0 0
0.329076 0 0
0.383841 0 0
0.44155 0 0
0.502815 0 0
0.568215 0 0
0.638392 0 0
0.713893 0 0
0.795422 0 0
0.883574 0 0
0.97908 0 0
1 0 0
1 0 0
1 0 0
1 0 0
1 0 0
1 0 0
1 0 0
1 0 0
1 0 0
1 0 0
1 0 0
1 0 0
1 0 0
1 0 0
0 0 0
0 0 0
0 0 0
0.00827039 0 0
0.0612192 0 0
0.120562 0 0
0.173953 0 0
0.225223 0 0
0.276493 0 0
0.329076 0 0
0.383841 0 0
0.44155 0 0
0.502815 0 0
0.568215 0 0
0.638392 0 0
0.713893 0 0
0.795422 0 0
0.883574 0 0
0.97908 0 0
1 0 0
1 0 0
1 0 0
1 0 0
1 0 0
1 0 0
1 0 0
1 0 0
1 0 0
1 0 0
1 0 0
1 0 0
1 0 0
1 0 0
0 0 0
0 0 0
0 0 0
0.00827039 0 0
0.0612192 0 0
0.120562 0 0
0.173953 0 0
0.225223 0 0
0.276493 0 0
0.329076 0 0
0.383841 0 0
0.44155 0 0
0.502815 0 0
0.568215 0 0
0.638392 0 0
0.713893 0 0
0.795422 0 0
0.883574 0 0
0.97908 0 0
1 0 0
1 0 0
1 0 0
1 0 0
1 0 0
1 0 0
1 0 0
1 0 0
1 0 0
1 0 0
1 0 0
1 0 0
1 0 0
1 0 0
0 0.00827039 0
0 0.00827039 0
0 0.00827039 0
0.00827039 0.00827039 0
0.0612192 0.00827039 0
0.120562 0.00827039 0
0.173953 0.00827039 0
0.225223 0.00827039 0
0.276493 0.00827039 0
0.329076 0.00827039 0
0.383841 0.00825513 0
0.44155 0.00827039 0
0.502815 0.00825513 0
0.568215 0.00827039 0
0.638392 0.00827039 0
0.713893 0.00825513 0
0.795422 0.00825513 0
0.883574 0.00827039 0
0.97908 0.00827039 0
1 0.00827039 0
1 0.00827039 0
1 0.00825513 0
1 0.00827039 0
1 0.00825513 0
1 0.00825513 0
1 0.00827039 0
1 0.00827039 0
1 0.00827039 0
1 0.00827039 0
1 0.00827039 0
1 0.00827039 0
1 0.00827039 0
1 0.00827039 0
0 0.0612192 0
0 0.0612192 0
0 0.0612192 0
0.00827039 0.0612192 0
0.0612192 0.0612192 0
0.120562 0.0612192 0
0.173953 0.0612192 0
0.225223 0.0612192 0
0.276493 0.0612192 0
0.329076 0.0612192 0
0.383841 0.0612192 0
0.44155 0.0612192 0
0.502815 0.0612192 0
0.568215 0.0612192 0
0.638392 0.0612192 0
0.713893 0.0612192 0
0.795422 0.0612192 0
0.883574 0.0612192 0
0.97908 0.0612192 0
1 0.0612192 0
1 0.0612192 0
1 0.0612192 0
1 0.0612192 0
1 0.0612192 0
1 0.0612192 0
1 0.0612192 0
1 0.0612192 0
1 0.0612192 0
1 0.0612192 0
1 0.0612192 0
1 0.0612192 0
1 0.0612192 0
1 0.0612192 0
0 0.120562 0
0 0.120562 0
0 0.120562 0
0.00827039 0.120562 0
0.0612192 0.120562 0
0.120562 0.120562 0
0.173953 0.120562 0
0.225223 0.120562 0
0.276493 0.120562 0
0.329076 0.120562 0
0.383841 0.120562 0
0.44155 0.120562 0
0.502815 0.120562 0
0.568215 0.120562 0
0.638392 0.120562 0
0.713893 0.120562 0
0.795422 0.120562 0
0.883574 0.120562 0
0.97908 0.120562 0
1 0.120562 0
1 0.120562 0
1 0.120562 0
1 0.120562 0
1 0.120562 0
1 0.120562 0
1 0.120562 0
1 0.120562 0
1 0.120562 0
1 0.120562 0
1 0.120562 0
1 0.120562 0
1 0.120562 0
1 0.120562 0
0 0.173953 0
0 0.173953 0
0 0.173953 0
0.00827039 0.173953 0
0.0612192 0.173953 0
0.120562 0.173953 0
0.173953 0.173953 0
0.225223 0.173953 0
0.276493 0.173953 0
0.329076 0.173953 0
0.383841 0.173953 0
0.44155 0.173953 0
0.502815 0.173953 0
0.568215 0.173953 0
0.638392 0.173953 0
0.713893 0.173953 0
0.795422 0.173953 0
0.883574 0.173953 0
0.97908 0.173953 0
1 0.173953 0
1 0.173953 0
1 0.173953 0
1 0.173953 0
1 0.173953 0
1 0.173953 0
1 0.173953 0
1 0.173953 0
1 0.173953 0
1 0.173953 0
1 0.173953 0
1 0.173953 0
1 0.173953 0
1 0.173953 0
0 0.225223 0
0 0.225223 0
0 0.225223 0
0.00827039 0.225223 0
0.0612192 0.225223 0
0.120562 0.225223 0
0.173953 0.225223 0
0.225223 0.225223 0
0.276493 0.225223 0
0.329076 0.225223 0
0.383841 0.225223 0
0.44155 0.225223 0
0.502815 0.225223 0
0.568215 0.225223 0
0.638392 0.225223 0
0.713893 0.225223 0
0.795422 0.225223 0
0.883574 0.225223 0
0.97908 0.225223 0
1 0.225223 0
1 0.225223 0
1 0.225223 0
1 0.225223 0
1 0.225223 0
1 0.225223 0
1 0.225223 0
1 0.225223 0
1 0.225223 0
1 0.225223 0
1 0.225223 0
1 0.225223 0
1 0.225223 0
1 0.225223 0
0 0.276493 0
0 0.276493 0
0 0.276493 0
0.00827039 0.276493 0
0.0612192 0.276493 0
0.120562 0.276493 0
0.173953 0.276493 0
0.225223 0.276493 0
0.276493 0.276493 0
0.329076 0.276493 0
0.383841 0.276493 0
0.44155 0.276493 0
0.502815 0.276493 0
0.568215 0.276493 0
0.638392 0.276493 0
0.713893 0.276493 0
0.795422 0.276493 0
0.883574 0.276493 0
0.97908 0.276493 0
1 0.276493 0
1 0.276493 0
1 0.276493 0
1 0.276493 0
1 0.276493 0
1 0.276493 0
1 0.276493 0
1 0.276493 0
1 0.276493 0
1 0.276493 0
1 0.276493 0
1 0.276493 0
1 0.276493 0
1 0.276493 0
0 0.329076 0
0 0.329076 0
0 0.329076 0
0.00827039 0.329076 0
0.0612192 0.329076 0
0.120562 0.329076 0
0.173953 0.329076 0
0.225223 0.329076 0
0.276493 0.329076 0
0.329076 0.329076 0
0.383841 0.329076 0
0.44155 0.329076 0
0.502815 0.329076 0
0.568215 0.329076 0
0.638392 0.329076 0
0.713893 0.329076 0
0.795422 0.329076 0
0.883574 0.329076 0
0.97908 0.329076 0
1 0.329076 0
1 0.329076 0
1 0.329076 0
1 0.329076 0
1 0.329076 0
1 0.329076 0
1 0.329076 0
1 0.329076 0
1 0.329076 0
1 0.329076 0
1 0.329076 0
1 0.329076 0
1 0.329076 0
1 0.329076 0
0 0.383841 0
0 0.383841 0
0 0.383841 0
0.00827039 0.383841 0
0.0612192 0.383841 0
0.120562 0.383841 0
0.173953 0.383841 0
0.225223 0.383841 0
0.276493 0.383841 0
0.329076 0.383841 0
0.383841 0.383841 0
0.44155 0.383841 0
0.502815 0.383841 0
0.568215 0.383841 0
0.638392 0.383841 0
0.713893 0.383841 0
0.795422 0.383841 0
0.883574 0.383841 0
0.97908 0.383841 0
1 0.383841 0
1 0.383841 0
1 0.383841 0
1 0.383841 0
1 0.383841 0
1 0.383841 0
1 0.383841 0
1 0.383841 0
1 0.383841 0
1 0.383841 0
1 0.383841 0
1 0.383841 0
1 0.383841 0
1 0.383841 0
0 0.44155 0
0 0.44155 0
0 0.44155 0
0.00827039 0.44155 0
0.0612192 0.44155 0
0.120562 0.44155 0
0.173953 0.44155 0
0.225223 0.44155 0
0.276493 0.44155 0
0.329076 0.44155 0
0.383841 0.44155 0
0.44155 0.44155 0
0.502815 0.44155 0
0.568215 0.44155 0
0.638392 0.44155 0
0.713893 0.44155 0
0.795422 0.44155 0
0.883574 0.44155 0
0.97908 0.44155 0
1 0.44155 0
1 0.44155 0
1 0.44155 0
1 0.44155 0
1 0.44155 0
1 0.44155 0
1 0.44155 0
1 0.44155 0
1 0.44155 0
1 0.44155 0
1 0.44155 0
1 0.44155 0
1 0.44155 0
1 0.44155 0
0 0.502815 0
0 0.502815 0
0 0.502815 0
0.00827039 0.502815 0
0.0612192 0.502815 0
0.120562 0.502815 0
0.173953 0.502815 0
0.225223 0.502815 0
0.276493 0.502815 0
0.329076 0.502815 0
0.383841 0.502815 0
0.44155 0.502815 0
0.502815 0.502815 0
0.568215 0.502815 0
0.638392 0.502815 0
0.713893 0.502815 0
0.795422 0.502815 0
0.883574 0.502815 0
0.97908 0.502815 0
1 0.502815 0
1 0.502815 0
1 0.502815 0
1 0.502815 0
1 0.502815 0
1 0.502815 0
1 0.502815 0
1 0.502815 0
1 0.502815 0
1 0.502815 0
1 0.502815 0
1 0.502815 0
1 0.502815 0
1 0.502815 0
0 0.568215 0
0 0.568215 0
0 0.568215 0
0.00827039 0.568215 0
0.0612192 0.568215 0
0.120562 0.568215 0
0.173953 0.568215 0
0.225223 0.568215 0
0.276493 0.568215 0
0.329076 0.568215 0
0.383841 0.568215 0
0.44155 0.568215 0
0.502815 0.568215 0
0.568215 0.568215 0
0.638392 0.568215 0
0.713893 0.568215 0
0.795422 0.568215 0
0.883574 0.568215 0
0.97908 0.568215 0
1 0.568215 0
1 0.568215 0
1 0.568215 0
1 0.568215 0
1 0.568215 0
1 0.568215 0
1 0.568215 0
1 0.568215 0
1 0.568215 0
1 0.568215 0
1 0.568215 0
1 0.568215 0
1 0.568215 0
1 0.568215 0
0 0.638392 0
0 0.638392 0
0 0.638392 0
0.00827039 0.638392 0
0.0612192 0.638392 0
0.120562 0.638392 0
0.173953 0.638392 0
0.225223 0.638392 0
0.276493 0.638392 0
0.329076 0.638392 0
0.383841 0.638392 0
0.44155 0.638392 0
0.502815 0.638392 0
0.568215 0.638392 0
0.638392 0.638392 0
0.713893 0.638392 0
0.795422 0.638392 0
0.883574 0.638392 0
0.97908 0.638392 0
1 0.638392 0
1 0.638392 0
1 0.638392 0
1 0.638392 0
1 0.638392 0
1 0.638392 0
1 0.638392 0
1 0.638392 0
1 0.638392 0
1 0.638392 0
1 0.638392 0
1 0.638392 0
1 0.638392 0
1 0.638392 0
0 0.713893 0
0 0.713893 0
0 0.713893 0
0.00827039 0.713893 0
0.0612192 0.713893 0
0.120562 0.713893 0
0.173953 0.713893 0
0.225223 0.713893 0
0.276493 0.713893 0
0.329076 0.713893 0
0.383841 0.713893 0
0.44155 0.713893 0
0.502815 0.713893 0
0.568215 0.713893 0
0.638392 0.713893 0
0.713893 0.713893 0
0.795422 0.713893 0
0.883574 0.713893 0
0.97908 0.713893 0
1 0.713893 0
1 0.713893 0
1 0.713893 0
1 0.713893 0
1 0.713893 0
1 0.713893 0
1 0.713893 0
1 0.713893 0
1 0.713893 0
1 0.713893 0
1 0.713893 0
1 0.713893 0
1 0.713893 0
1 0.713893 0
0 0.795422 0
0 0.795422 0
0 0.795422 0
0.00827039 0.795422 0
0.0612192 0.795422 0
0.120562 0.795422 0
0.173953 0.795422 0
0.225223 0.795422 0
0.276493 0.795422 0
0.329076 0.795422 0
0.383841 0.795422 0
0.44155 0.795422 0
0.502815 0.795422 0
0.568215 0.795422 0
0.638392 0.795422 0
0.713893 0.795422 0
0.795422 0.795422 0
0.883574 0.795422 0
0.97908 0.795422 0
1 0.795422 0
1 0.795422 0
1 0.795422 0
1 0.795422 0
1 0.795422 0
1 0.795422 0
1 0.795422 0
1 0.795422 0
1 0.795422 0
1 0.795422 0
1 0.795422 0
1 0.795422 0
1 0.795422 0
1 0.795422 0
0 0.883574 0
0 0.883574 0
0 0.883574 0
0.00827039 0.883574 0
0.0612192 0.883574 0
0.120562 0.883574 0
0.173953 0.883574 0
0.225223 0.883574 0
0.276493 0.883574 0
0.329076 0.883574 0
0.383841 0.883574 0
0.44155 0.883574 0
0.502815 0.883574 0
0.568215 0.883574 0
0.638392 0.883574 0
0.713893 0.883574 0
0.795422 0.883574 0
0.883574 0.883574 0
0.97908 0.883574 0
1 0.883574 0
1 0.883574 0
1 0.883574 0
1 0.883574 0
1 0.883574 0
1 0.883574 0
1 0.883574 0
1 0.883574 0
1 0.883574 0
1 0.883574 0
1 0.883574 0
1 0.883574 0
1 0.883574 0
1 0.883574 0
0 0.97908 0
0 0.97908 0
0 0.97908 0
0.00827039 0.97908 0
0.0612192 0.97908 0
0.120562 0.97908 0
0.173953 0.97908 0
0.225223 0.97908 0
0.276493 0.97908 0
0.329076 0.97908 0
0.383841 0.97908 0
0.44155 0.97908 0
0.502815 0.97908 0
0.568215 0.97908 0
0.638392 0.97908 0
0.713893 0.97908 0
0.795422 0.97908 0
0.883574 0.97908 0
0.97908 0.97908 0
1 0.97908 0
1 0.97908 0
1 0.97908 0
1 0.97908 0
1 0.97908 0
1 0.97908 0
1 0.97908 0
1 0.97908 0
1 0.97908 0
1 0.97908 0
1 0.97908 0
1 0.97908 0
1 0.97908 0
1 0.97908 0
0 1 0
0 1 0
0 1 0
0.00827039 1 0
0.0612192 1 0
0.120562 1 0
0.173953 1 0
0.225223 1 0
0.276493 1 0
0.329076 1 0
0.383841 1 0
0.44155 1 0
0.502815 1 0
0.568215 1 0
0.638392 1 0
0.713893 1 0
0.795422 1 0
0.883574 1 0
0.97908 1 0
1 1 0
1 1 0
1 1 0
1 1 0
1 1 0
1 1 0
1 1 0
1 1 0
1 1 0
1 1 0
1 1 0
1 1 0
1 1 0
1 1 0
0 1 0
0 1 0
0 1 0
0.00825513 1 0
0.0612192 1 0
0.120562 1 0
0.173953 1 0
0.225223 1 0
0.276493 1 0
0.329076 1 0
0.383841 1 0
0.44155 1 0
0.502815 1 0
0.568215 1 0
0.638392 1 0
0.713893 1 0
0.795422 1 0
0.883574 1 0
0.97908 1 0
1 1 0
1 1 0
1 1 0
1 1 0
1 1 0
1 1 0
1 1 0
1 1 0
1 1 0
1 1 0
1 1 0
1 1 0
1 1 0
1 1 0
0 1 0
0 1 0
0 1 0
0.00827039 1 0
0.0612192 1 0
0.120562 1 0
0.173953 1 0
0.225223 1 0
0.276493 1 0
0.329076 1 0
0.383841 1 0
0.44155 1 0
0.502815 1 0
0.568215 1 0
0.638392 1 0
0.713893 1 0
0.795422 1 0
0.883574 1 0
0.97908 1 0
1 1 0
1 1 0
1 1 0
1 1 0
1 1 0
1 1 0
1 1 0
1 1 0
1 1 0
1 1 0
1 1 0
1 1 0
1 1 0
1 1 0
0 1 0
0 1 0
0 1 0
0.00827039 1 0
0.0612192 1 0
0.120562 1 0
0.173953 1 0
0.225223 1 0
0.276493 1 0
0.329076 1 0
0.383841 1 0
0.44155 1 0
0.502815 1 0
0.568215 1 0
0.638392 1 0
0.713893 1 0
0.795422 1 0
0.883574 1 0
0.97908 1 0
1 1 0
1 1 0
1 1 0
1 1 0
1 1 0
1 1 0
1 1 0
1 1 0
1 1 0
1 1 0
1 1 0
1 1 0
1 1 0
1 1 0
0 1 0
0 1 0
0 1 0
0.00827039 1 0
0.0612192 1 0
0.120562 1 0
0.173953 1 0
0.225223 1 0
0.276493 1 0
0.329076 1 0
0.383841 1 0
0.44155 1 0
0.502815 1 0
0.568215 1 0
0.638392 1 0
0.713893 1 0
0.795422 1 0
0.883574 1 0
0.97908 1 0
1 1 0
1 1 0
1 1 0
1 1 0
1 1 0
1 1 0
1 1 0
1 1 0
1 1 0
1 1 0
1 1 0
1 1 0
1 1 0
1 1 0
0 1 0
0 1 0
0 1 0
0.00825513 1 0
0.0612192 1 0
0.120562 1 0
0.173953 1 0
0.225223 1 0
0.276493 1 0
0.329076 1 0
0.383841 1 0
0.44155 1 0
0.502815 1 0
0.568215 1 0
0.638392 1 0
0.713893 1 0
0.795422 1 0
0.883574 1 0
0.97908 1 0
1 1 0
1 1 0
1 1 0
1 1 0
1 1 0
1 1 0
1 1 0
1 1 0
1 1 0
1 1 0
1 1 0
1 1 0
1 1 0
1 1 0
0 1 0
0 1 0
0 1 0
0.00827039 1 0
0.0612192 1 0
0.120562 1 0
0.173953 1 0
0.225223 1 0
0.276493 1 0
0.329076 1 0
0.383841 1 0
0.44155 1 0
0.502815 1 0
0.568215 1 0
0.638392 1 0
0.713893 1 0
0.795422 1 0
0.883574 1 0
0.97908 1 0
1 1 0
1 1 0
1 1 0
1 1 0
1 1 0
1 1 0
1 1 0
1 1 0
1 1 0
1 1 0
1 1 0
1 1 0
1 1 0
1 1 0
0 1 0
0 1 0
0 1 0
0.00827039 1 0
0.0612192 1 0
0.120562 1 0
0.173953 1 0
0.225223 1 0
0.276493 1 0
0.329076 1 0
0.383841 1 0
0.44155 1 0
0.502815 1 0
0.568215 1 0
0.638392 1 0
0.713893 1 0
0.795422 1 0
0.883574 1 0
0.97908 1 0
1 1 0
1 1 0
1 1 0
1 1 0
1 1 0
1 1 0
1 1 0
1 1 0
1 1 0
1 1 0
1 1 0
1 1 0
1 1 0
1 1 0
0 1 0
0 1 0
0 1 0
0.00827039 1 0
0.0612192 1 0
0.120562 1 0
0.173953 1 0
0.225223 1 0
0.276493 1 0
