luts/bonus/VisualLUT.cube
LUT_3D_SIZE 6
-0.047747 -0.021342 0.023940
0.149381 0.066250 0.035054
0.365480 0.109402 0.031239
0.580204 0.146355 0.071257
0.776261 0.181436 0.114790
0.943509 0.229947 0.135859
-0.047747 0.137708 0.023842
0.170386 0.140797 0.032082
0.423239 0.161522 -0.027238
0.635074 0.201808 0.052264
0.822996 0.251246 0.079897
0.977978 0.296049 0.099636
-0.047747 0.254702 0.016848
0.199036 0.288911 -0.034538
0.488721 0.269818 -0.033233
0.745125 0.277790 0.033717
0.910900 0.342889 0.046248
1.027022 0.414043 0.026429
-0.047747 0.363226 0.017843
0.268099 0.407437 -0.039136
0.561756 0.457264 -0.039779
0.787936 0.472574 -0.034462
0.954014 0.448650 -0.040492
1.031768 0.496187 -0.040492
0.069618 0.466489 0.049695
0.317134 0.502929 0.050197
0.585597 0.573273 -0.026610
0.797484 0.682923 -0.039405
0.956121 0.712703 -0.039101
1.024562 0.633142 -0.031425
-0.047530 0.765749 -0.040492
0.266340 0.806122 -0.040492
0.589605 0.835042 -0.040492
0.787816 0.853906 -0.039122
0.935966 0.874011 -0.039122
1.030161 0.870960 -0.038933
-0.047747 0.086511 0.087416
0.213987 0.096018 0.102967
0.431431 0.112987 0.087201
0.623266 0.143718 0.089302
0.792199 0.182991 0.121217
0.943766 0.224385 0.142590
-0.047559 0.140133 0.114381
0.145594 0.159468 0.133775
0.423806 0.176923 0.102361
0.648003 0.170575 0.076292
0.809478 0.211344 0.101188
0.969950 0.266435 0.116179
-0.047747 0.284983 0.120300
0.047453 0.320262 0.073832
0.487994 0.303612 0.090162
0.737339 0.304561 -0.036044
0.886419 0.363492 -0.009168
1.009927 0.439538 -0.040492
-0.047747 0.345537 0.110354
0.170011 0.427513 0.042119
0.542229 0.472210 0.080348
0.787334 0.502391 -0.035696
0.954074 0.466575 -0.040492
1.031768 0.523678 -0.040492
-0.047747 0.395081 0.147104
0.245495 0.509768 0.080375
0.561906 0.567835 0.101910
0.794813 0.696547 -0.039405
0.955433 0.711596 -0.039122
1.022802 0.638024 -0.028418
-0.047524 0.783570 -0.040492
0.179555 0.814378 -0.040492
0.551455 0.845720 -0.040492
0.775000 0.870220 -0.039122
0.935371 0.886347 -0.039122
1.030161 0.881764 -0.038933
-0.047436 0.164079 0.165156
0.140678 0.164171 0.175304
0.504111 0.186882 0.166023
0.718838 0.194654 0.149436
0.866227 0.228862 0.160198
0.991629 0.261422 0.162768
-0.047436 0.180288 0.173552
0.066218 0.216387 0.213631
0.496059 0.225208 0.201330
0.718743 0.222431 0.176199
0.866810 0.247976 0.179155
0.990169 0.282118 0.180309
-0.047317 0.288175 0.238342
-0.047219 0.334194 0.272131
0.400153 0.363575 0.305130
0.695978 0.372056 0.282456
0.867630 0.372164 0.252272
1.008315 0.408607 0.235434
-0.046837 0.504784 0.339389
-0.047747 0.471030 0.282369
0.395673 0.509407 0.219880
0.757059 0.547620 0.218069
0.925234 0.530005 0.210545
1.031730 0.580196 0.213187
-0.047747 0.525642 0.309655
-0.047747 0.482645 0.269107
0.470365 0.600276 0.197900
0.759778 0.697794 0.232362
0.947838 0.722001 0.094193
1.029834 0.657302 0.166876
-0.047747 0.810111 0.262128
-0.047747 0.818368 0.163417
0.403177 0.948790 0.050408
0.737117 0.915066 0.157801
0.922995 0.903881 0.213439
1.030623 0.896375 0.218589
-0.047332 0.241410 0.245297
0.109955 0.233617 0.238329
0.445740 0.264190 0.243510
0.772344 0.260046 0.179996
0.892511 0.279005 0.183519
0.981241 0.340558 0.253382
-0.047251 0.251414 0.253221
-0.041072 0.276805 0.285822
0.415793 0.271320 0.297233
0.763949 0.284078 0.215279
0.888236 0.306090 0.224492
0.974493 0.371138 0.300749
-0.047207 0.309958 0.298156
-0.047010 0.356854 0.346410
0.304902 0.389971 0.405698
0.733027 0.396466 0.352755
0.876488 0.419961 0.367194
0.975990 0.451987 0.383403
-0.046928 0.449993 0.397609
-0.046853 0.495245 0.429286
0.176534 0.555181 0.494429
0.698614 0.587371 0.503854
0.885336 0.607031 0.500110
1.007631 0.611937 0.478923
-0.046533 0.665727 0.525378
-0.046461 0.703090 0.550478
-0.042953 0.666585 0.481338
0.694942 0.711831 0.426550
0.925899 0.756995 0.393319
1.031768 0.732889 0.428246
-0.047730 0.873017 0.569992
-0.047747 0.871292 0.454430
-0.047747 0.882060 0.377162
0.646879 0.948957 0.324134
0.895558 0.919131 0.410566
1.030630 0.911413 0.400280
-0.047124 0.311375 0.323601
0.059130 0.306746 0.309472
0.362817 0.315706 0.319601
0.714114 0.339350 0.273000
0.908623 0.364046 0.309865
0.966663 0.416464 0.380434
-0.047073 0.322137 0.337838
-0.047010 0.338925 0.364319
0.288422 0.329755 0.351936
0.690464 0.369421 0.340092
0.900496 0.391277 0.373733
0.969100 0.443081 0.432987
-0.047001 0.370142 0.382069
-0.046898 0.404940 0.425765
0.202888 0.426187 0.488542
0.678949 0.415449 0.506891
0.906112 0.455822 0.497380
0.982235 0.517243 0.533108
-0.046698 0.462047 0.476114
-0.046613 0.510882 0.527886
0.110108 0.543491 0.575208
0.607565 0.583110 0.635308
0.910424 0.596857 0.618651
0.992672 0.646257 0.627778
-0.046461 0.614284 0.597787
-0.046461 0.645526 0.617517
-0.046356 0.686802 0.657045
0.529470 0.736522 0.692079
0.892989 0.784544 0.685438
1.016715 0.792134 0.684692
-0.046242 0.801702 0.726646
-0.046129 0.853436 0.737027
-0.045945 0.906691 0.745127
0.346220 0.936418 0.642017
0.860162 0.948867 0.594565
1.031131 0.929439 0.619844
-0.046804 0.401903 0.430999
-0.046904 0.397143 0.407519
0.288608 0.390458 0.376609
0.683768 0.426877 0.444879
0.882388 0.452408 0.503853
1.006518 0.501783 0.615370
-0.046801 0.413187 0.460761
-0.047326 0.424683 0.483637
0.231398 0.416046 0.453654
0.638387 0.408772 0.527017
0.894520 0.445390 0.565381
1.015993 0.508997 0.656177
-0.046691 0.444712 0.494674
-0.046577 0.468044 0.531279
0.028285 0.486653 0.588001
0.489762 0.445818 0.617511
0.878944 0.479431 0.684812
1.025762 0.546711 0.719222
-0.046464 0.526744 0.587829
-0.046461 0.565957 0.632981
-0.046356 0.578033 0.656652
0.481089 0.599998 0.726881
0.839471 0.594199 0.742613
1.029337 0.635548 0.768572
-0.046356 0.617646 0.676852
-0.046242 0.651019 0.708435
-0.046242 0.668860 0.727397
0.451034 0.691283 0.751152
0.853240 0.766662 0.776194
1.028570 0.770377 0.799220
-0.046131 0.740072 0.768318
-0.046131 0.772547 0.785424
-0.046131 0.803145 0.800244
0.319427 0.836683 0.815815
0.802194 0.890637 0.821307
1.027957 0.944541 0.821746
