luts/bonus/VisualLUT.cube
LUT_3D_SIZE 16
-0.047747 -0.021342 0.023940
-0.036528 0.027914 0.028595
0.081386 0.045540 0.032449
0.149381 0.066250 0.035054
0.218890 0.083637 0.034408
0.291532 0.096694 0.031517
0.365480 0.109402 0.031239
0.430818 0.127318 0.039181
0.505126 0.136930 0.054898
0.580204 0.146355 0.071257
0.652087 0.156340 0.088066
0.716146 0.167827 0.102568
0.776261 0.181436 0.114790
0.834740 0.197057 0.123860
0.890561 0.213238 0.130971
0.943509 0.229947 0.135859
-0.047747 0.053825 0.024449
-0.037681 0.054634 0.031610
0.088117 0.059628 0.028212
0.152543 0.078007 0.032753
0.224075 0.090312 0.033355
0.299488 0.098592 0.031105
0.371686 0.110080 0.032689
0.438702 0.124714 0.043293
0.512037 0.136683 0.057123
0.586070 0.148451 0.071630
0.656711 0.159822 0.086768
0.720815 0.173576 0.098849
0.781477 0.188370 0.109182
0.839822 0.203769 0.118532
0.895426 0.220507 0.125383
0.948296 0.237850 0.130329
-0.047747 0.095738 0.026847
-0.042415 0.106291 0.026836
0.078352 0.100691 0.030167
0.171710 0.093925 0.020736
0.245765 0.110858 0.015364
0.317852 0.127645 0.009294
0.392720 0.140850 0.014021
0.460535 0.153749 0.029026
0.534607 0.162313 0.047271
0.607351 0.171356 0.063279
0.675511 0.181848 0.077306
0.737796 0.194355 0.088979
0.796903 0.208409 0.098875
0.853705 0.223670 0.107534
0.907373 0.239787 0.114237
0.958949 0.256939 0.119303
-0.047747 0.137708 0.023842
-0.046088 0.154032 -0.022273
0.088265 0.151161 0.018838
0.170386 0.140797 0.032082
0.263278 0.131068 -0.012867
0.351771 0.144508 -0.039204
0.423239 0.161522 -0.027238
0.495646 0.176114 0.021807
0.565863 0.189190 0.038354
0.635074 0.201808 0.052264
0.701197 0.218294 0.062275
0.763664 0.235211 0.071214
0.822996 0.251246 0.079897
0.878271 0.265771 0.088193
0.929651 0.280419 0.094804
0.977978 0.296049 0.099636
-0.047747 0.179851 0.021633
-0.047733 0.195418 -0.030060
0.086004 0.201148 -0.027588
0.180845 0.187161 0.042432
0.271008 0.182163 0.020178
0.364771 0.168527 -0.037142
0.453468 0.179046 -0.034562
0.540412 0.193208 0.024467
0.614116 0.208242 0.040632
0.680946 0.225471 0.051024
0.741336 0.243672 0.058688
0.798503 0.263265 0.064297
0.854107 0.286048 0.067565
0.906263 0.311548 0.067680
0.954888 0.336702 0.066212
0.992153 0.352772 0.066725
-0.047747 0.216592 0.021737
-0.047747 0.231054 -0.031888
0.081524 0.246151 -0.040492
0.189240 0.235670 0.026779
0.292545 0.231403 0.024635
0.372110 0.215445 0.028780
0.468497 0.205945 -0.040492
0.563726 0.214717 -0.005409
0.652009 0.231340 0.036166
0.723636 0.251491 0.047103
0.780121 0.270204 0.053603
0.832239 0.290233 0.057401
0.883149 0.313408 0.058679
0.934580 0.339822 0.057192
0.982779 0.369692 0.051020
1.007592 0.385226 0.047358
-0.047747 0.254702 0.016848
-0.047747 0.264194 -0.031917
0.086383 0.279212 -0.040492
0.199036 0.288911 -0.034538
0.297493 0.278200 0.034605
0.400971 0.290908 -0.040046
0.488721 0.269818 -0.033233
0.587561 0.259462 -0.040492
0.674028 0.263561 0.004208
0.745125 0.277790 0.033717
0.806953 0.297261 0.042683
0.862919 0.318931 0.047133
0.910900 0.342889 0.046248
0.958652 0.370608 0.040963
1.006091 0.400448 0.032331
1.027022 0.414043 0.026429
-0.047747 0.289923 0.021827
-0.047747 0.297046 -0.027071
0.105100 0.314523 -0.040492
0.218313 0.332352 -0.040154
0.318052 0.325353 0.030027
0.430646 0.344571 -0.040046
0.523133 0.362237 -0.039868
0.611551 0.329981 -0.039321
0.695028 0.319456 -0.040492
0.763472 0.317657 -0.035850
0.824091 0.331336 0.012488
0.879071 0.348211 0.026530
0.931499 0.373429 0.025465
0.981202 0.401709 0.015462
1.025678 0.432012 -0.031943
1.031768 0.445207 -0.040492
-0.047747 0.320836 0.035968
-0.045984 0.337755 -0.035614
0.132714 0.352670 -0.040492
0.242500 0.371840 -0.040462
0.343817 0.370232 0.022407
0.442396 0.386660 -0.030061
0.548566 0.408616 -0.039855
0.634260 0.434439 -0.039663
0.712491 0.396451 -0.038630
0.779620 0.384936 -0.040492
0.838121 0.378944 -0.040492
0.892482 0.388057 -0.040492
0.944401 0.405884 -0.039034
0.994692 0.431632 -0.040492
1.031730 0.464076 -0.040492
1.031768 0.472479 -0.040492
-0.047747 0.363226 0.017843
0.043001 0.377342 -0.040492
0.161105 0.390125 -0.040492
0.268099 0.407437 -0.039136
0.366105 0.409677 0.017825
0.455059 0.423608 0.021392
0.561756 0.457264 -0.039779
0.641815 0.479159 -0.039652
0.718271 0.511631 -0.039500
0.787936 0.472574 -0.034462
0.850536 0.456382 -0.040492
0.903211 0.446361 -0.040492
0.954014 0.448650 -0.040492
1.003360 0.467164 -0.040492
1.031768 0.492572 -0.040492
1.031768 0.496187 -0.040492
-0.047747 0.409702 -0.019740
0.062901 0.421773 -0.040492
0.172993 0.436642 -0.040492
0.283834 0.444019 -0.022178
0.382088 0.449255 0.028649
0.468360 0.462706 0.027832
0.562188 0.495630 -0.039779
0.657354 0.530979 -0.039595
0.716934 0.555031 -0.039500
0.785702 0.592855 -0.039405
0.852649 0.556852 -0.036288
0.908096 0.530263 -0.036288
0.961435 0.514337 -0.040492
1.010074 0.509796 -0.040492
1.031768 0.527933 -0.040492
1.031768 0.527051 -0.040492
-0.031319 0.445942 0.027574
0.087319 0.452052 0.007620
0.189334 0.468567 -0.011000
0.299187 0.475504 0.029211
0.397385 0.485899 0.040963
0.481941 0.498805 0.041318
0.570413 0.532079 -0.035837
0.659478 0.572071 -0.039595
0.734127 0.605219 -0.039500
0.781604 0.630742 -0.039405
0.843402 0.673068 -0.039318
0.905352 0.638625 -0.038972
0.961106 0.600981 -0.031711
1.013326 0.578757 -0.037886
1.031505 0.572319 -0.040176
1.031505 0.569657 -0.040176
0.069618 0.466489 0.049695
0.120613 0.473703 0.044194
0.212626 0.492572 0.040464
0.317134 0.502929 0.050197
0.414851 0.517945 0.057671
0.500569 0.537172 0.054826
0.585597 0.573273 -0.026610
0.662496 0.609806 -0.039536
0.734609 0.648442 -0.039500
0.797484 0.682923 -0.039405
0.836319 0.704983 -0.039318
0.894313 0.748851 -0.039219
0.956121 0.712703 -0.039101
1.015478 0.666501 -0.032597
1.023641 0.642897 -0.029650
1.024562 0.633142 -0.031425
0.073244 0.529247 0.041028
0.123279 0.543559 0.033110
0.206277 0.576646 -0.021183
0.310386 0.596693 -0.033155
0.410592 0.607617 -0.040128
0.499004 0.630268 -0.040492
0.587822 0.667075 -0.040417
0.665037 0.694526 -0.039405
0.729884 0.717135 -0.039378
0.787715 0.738348 -0.039318
0.845108 0.764004 -0.039261
0.885599 0.779895 -0.039219
0.943040 0.815265 -0.039122
1.008309 0.775455 -0.038933
1.030161 0.726612 -0.038933
1.029607 0.713556 -0.038211
-0.040465 0.619726 -0.040492
0.109408 0.627749 -0.040492
0.208075 0.648895 -0.040492
0.301566 0.675588 -0.040492
0.395823 0.706433 -0.040492
0.494723 0.739518 -0.040492
0.587332 0.768049 -0.040492
0.665977 0.789623 -0.040492
0.730449 0.803204 -0.039219
0.787497 0.815857 -0.039219
0.839013 0.826867 -0.039219
0.889035 0.835560 -0.039145
0.931454 0.846515 -0.039122
0.991035 0.873720 -0.038966
1.030161 0.821220 -0.038933
1.030161 0.790776 -0.038933
-0.047530 0.765749 -0.040492
-0.047524 0.773522 -0.040492
0.103889 0.788742 -0.040492
0.266340 0.806122 -0.040492
0.383304 0.818333 -0.040492
0.491987 0.826699 -0.040492
0.589605 0.835042 -0.040492
0.668832 0.842624 -0.040492
0.732910 0.848189 -0.039690
0.787816 0.853906 -0.039122
0.839095 0.860141 -0.039122
0.888402 0.866361 -0.039122
0.935966 0.874011 -0.039122
0.985697 0.900498 -0.038966
1.030120 0.903066 -0.038933
1.030161 0.870960 -0.038933
-0.047747 0.035074 0.042158
-0.013023 0.043660 0.049247
0.104084 0.047109 0.050300
0.166253 0.054770 0.050265
0.228452 0.056284 0.042987
0.295027 0.083180 0.038476
0.365480 0.098869 0.038563
0.431659 0.113463 0.048590
0.505536 0.125094 0.063071
0.580140 0.137026 0.078849
0.649260 0.147979 0.096356
0.712615 0.161798 0.109925
0.774072 0.177520 0.119644
0.832574 0.193196 0.128353
0.888247 0.208948 0.135212
0.941348 0.225333 0.140043
-0.047747 0.055109 0.050599
-0.038055 0.057470 0.052227
0.081441 0.068669 0.055190
0.152379 0.083784 0.055953
0.226497 0.099367 0.052680
0.302439 0.111518 0.042884
0.378819 0.123955 0.034107
0.445594 0.136993 0.037084
0.517176 0.144636 0.053542
0.590688 0.152416 0.070451
0.660418 0.161068 0.086973
0.722547 0.171665 0.101313
0.782588 0.186266 0.111917
0.840290 0.201663 0.120904
0.895846 0.218255 0.127665
0.948561 0.235297 0.132550
-0.047730 0.100100 0.051573
-0.039332 0.102687 0.053352
0.074594 0.102302 0.056129
0.166225 0.101897 0.051065
0.238817 0.118334 0.049991
0.317169 0.127566 0.039660
0.396780 0.137100 0.030848
0.464743 0.149235 0.034201
0.536731 0.158424 0.050525
0.608613 0.167283 0.066229
0.676057 0.178266 0.079776
0.737538 0.190817 0.091235
0.795880 0.204634 0.101253
0.852220 0.219863 0.109689
0.906071 0.236165 0.116561
0.958331 0.253611 0.121368
-0.047747 0.138919 0.041216
-0.047257 0.153665 0.046662
0.065087 0.154226 0.046952
0.169456 0.145633 0.053379
0.268878 0.136284 0.031974
0.347798 0.150090 0.011984
0.424788 0.165998 -0.020514
0.492669 0.181243 0.012310
0.563395 0.192599 0.034709
0.634452 0.202894 0.051301
0.700404 0.217481 0.062452
0.761100 0.231793 0.072584
0.818723 0.244676 0.082601
0.873213 0.258435 0.091239
0.925059 0.273508 0.097751
0.974691 0.289883 0.102459
-0.047747 0.177761 0.030954
-0.047747 0.193135 0.039274
0.054743 0.203730 0.025183
0.175323 0.195056 0.052794
0.275278 0.187142 0.039139
0.375233 0.172583 -0.027608
0.457891 0.184139 -0.038181
0.535917 0.197673 0.016109
0.610437 0.212972 0.035494
0.676830 0.229412 0.046785
0.735115 0.247374 0.054041
0.791473 0.266146 0.060122
0.846172 0.287420 0.063958
0.898814 0.309328 0.066646
0.949298 0.331147 0.068236
0.991218 0.349583 0.068810
-0.047747 0.217080 0.029836
-0.047747 0.228182 0.031883
0.048652 0.250774 -0.033987
0.181036 0.242659 0.034115
0.293703 0.236442 0.039826
0.382396 0.222631 0.040140
0.482869 0.211005 -0.040425
0.582108 0.220696 0.010676
0.658342 0.236740 0.033970
0.721135 0.255156 0.043393
0.776436 0.273921 0.049386
0.827350 0.294076 0.052983
0.879597 0.316828 0.054916
0.929151 0.342992 0.052852
0.976995 0.371834 0.047070
1.003724 0.389609 0.041894
-0.047747 0.254994 0.029708
-0.047747 0.261769 0.028131
0.053402 0.287165 -0.040492
0.189181 0.294905 -0.027370
0.294589 0.281899 0.046728
0.401065 0.294085 -0.033183
0.500208 0.278197 -0.026136
0.601973 0.265770 -0.040492
0.690639 0.270260 0.008001
0.760395 0.284694 0.034013
0.811447 0.303261 0.039500
0.859700 0.323188 0.042311
0.907784 0.346779 0.041597
0.955923 0.374988 0.035931
1.002720 0.406179 0.023495
1.023488 0.419925 0.014916
-0.047747 0.290174 0.035481
-0.047747 0.295234 0.030699
0.080050 0.321572 -0.040492
0.206780 0.339208 -0.037577
0.315472 0.331102 0.038603
0.429280 0.348345 -0.034700
0.523529 0.365384 -0.039151
0.622167 0.338908 -0.038962
0.707185 0.327316 -0.040492
0.774871 0.325058 -0.037185
0.835497 0.338725 0.005430
0.888014 0.356381 0.021206
0.932761 0.379328 0.017333
0.978516 0.406721 -0.019441
1.023880 0.437282 -0.038544
1.031768 0.449975 -0.040492
-0.047747 0.321168 0.049005
-0.047747 0.336345 0.022001
0.113575 0.359051 -0.040492
0.229834 0.377860 -0.037575
0.338991 0.375246 0.032825
0.440662 0.389532 0.024955
0.551391 0.413423 -0.039856
0.634920 0.438284 -0.039663
0.719098 0.405634 -0.038045
0.788370 0.393508 -0.040492
0.844861 0.386287 -0.040492
0.900311 0.395770 -0.040492
0.953255 0.414134 -0.040492
0.997976 0.439458 -0.040492
1.031567 0.468847 -0.040492
1.031768 0.477904 -0.040492
-0.047747 0.360458 0.043717
-0.040819 0.383049 -0.038908
0.143798 0.396320 -0.040492
0.254542 0.411438 -0.033980
0.360222 0.413981 0.030848
0.453495 0.426923 0.039309
0.562590 0.461725 -0.039779
0.645003 0.484422 -0.039652
0.719353 0.516378 -0.039500
0.790804 0.479775 -0.034360
0.856248 0.465643 -0.040492
0.907863 0.453548 -0.040492
0.959805 0.456043 -0.040492
1.011680 0.474692 -0.040492
1.031768 0.499571 -0.040492
1.031768 0.502707 -0.040492
-0.047747 0.408787 0.039531
-0.021818 0.427365 -0.039744
0.155395 0.440804 -0.039720
0.269170 0.445467 0.010372
0.374112 0.452236 0.038125
0.465201 0.464857 0.045887
0.562150 0.499089 -0.036836
0.659559 0.536285 -0.039595
0.717814 0.558486 -0.039500
0.786147 0.596491 -0.039405
0.851990 0.561400 -0.036288
0.912671 0.538947 -0.036183
0.965769 0.520785 -0.040492
1.015722 0.516733 -0.040492
1.031768 0.531915 -0.040492
1.031768 0.530364 -0.040492
-0.030705 0.447890 0.046606
0.069996 0.451948 0.021754
0.177283 0.467678 0.017669
0.285989 0.475804 0.034046
0.388528 0.486386 0.048340
0.479011 0.500712 0.055030
0.570421 0.535172 0.021989
0.660551 0.576102 -0.039595
0.735889 0.609970 -0.039500
0.781488 0.632924 -0.039405
0.842474 0.674837 -0.039318
0.904777 0.641786 -0.038972
0.964308 0.607904 -0.029816
1.018848 0.584238 -0.037886
1.031505 0.576229 -0.040176
1.031505 0.572499 -0.040176
0.072909 0.468673 0.063977
0.112078 0.473937 0.050314
0.203195 0.491407 0.046167
0.306017 0.502926 0.053677
0.406117 0.517020 0.062678
0.496211 0.536928 0.065279
0.583487 0.574556 0.032413
0.662580 0.615170 -0.039536
0.734174 0.652834 -0.039500
0.797844 0.686582 -0.039405
0.837039 0.707493 -0.039318
0.892579 0.747698 -0.039219
0.955251 0.712798 -0.039101
1.021335 0.674125 -0.033144
1.023407 0.645390 -0.029372
1.023845 0.633877 -0.030329
0.059923 0.541676 0.049235
0.109372 0.550234 0.035009
0.197881 0.576794 0.014391
0.300063 0.598524 -0.024533
0.402734 0.612690 -0.032104
0.494149 0.625848 -0.040455
0.583444 0.664033 -0.040417
0.663356 0.697496 -0.039405
0.730260 0.722230 -0.039349
0.787982 0.742100 -0.039318
0.845444 0.765418 -0.039261
0.885481 0.779908 -0.039219
0.940667 0.812605 -0.039122
1.008811 0.775261 -0.038933
1.030161 0.730661 -0.038933
1.029607 0.714192 -0.038211
-0.046334 0.630975 -0.040186
0.085403 0.634830 -0.040492
0.200553 0.650997 -0.040492
0.296136 0.672393 -0.040492
0.389951 0.697299 -0.040492
0.486352 0.727267 -0.040492
0.580015 0.760378 -0.040492
0.662439 0.788675 -0.040492
0.729634 0.806249 -0.039219
0.786881 0.818317 -0.039219
0.838639 0.827075 -0.039219
0.888572 0.834584 -0.039145
0.930489 0.844999 -0.039122
0.989551 0.871861 -0.038966
1.030161 0.820884 -0.038933
1.030161 0.791573 -0.038933
-0.047524 0.776122 -0.040492
-0.047524 0.778507 -0.040492
0.083723 0.791243 -0.040492
0.259174 0.804485 -0.040492
0.374321 0.818795 -0.040492
0.479817 0.829471 -0.040492
0.578305 0.838280 -0.040492
0.661687 0.846195 -0.040492
0.729488 0.852683 -0.039856
0.786686 0.858135 -0.039122
0.837879 0.863717 -0.039122
0.887144 0.869980 -0.039122
0.935388 0.876297 -0.039122
0.983073 0.899683 -0.038966
1.029977 0.905428 -0.038933
1.030161 0.873553 -0.038933
-0.047747 0.061808 0.063955
-0.033293 0.062947 0.065196
0.121471 0.067105 0.077091
0.187318 0.075119 0.073957
0.258354 0.082775 0.074173
0.331043 0.083539 0.065213
0.404065 0.091320 0.061874
0.458262 0.105661 0.063130
0.524315 0.119710 0.074612
0.592664 0.133621 0.088386
0.658862 0.148128 0.101786
0.719326 0.162657 0.112994
0.776906 0.176943 0.123249
0.832964 0.191444 0.132404
0.886062 0.205750 0.139969
0.937550 0.220238 0.145761
-0.047644 0.067411 0.066037
-0.036221 0.076509 0.072835
0.098882 0.080014 0.082511
0.178278 0.087839 0.080108
0.251641 0.089463 0.074838
0.324664 0.085359 0.060278
0.398272 0.092943 0.057065
0.457746 0.107811 0.060970
0.526005 0.121640 0.073176
0.595386 0.135276 0.087139
0.660250 0.149180 0.100396
0.720522 0.163683 0.111453
0.778985 0.178404 0.121247
0.835729 0.193780 0.129561
0.890572 0.209482 0.136142
0.943434 0.225674 0.140784
-0.047644 0.095274 0.080695
-0.042737 0.100598 0.084037
0.075228 0.103943 0.088086
0.157000 0.115704 0.089044
0.237916 0.129275 0.083617
0.322502 0.137948 0.068759
0.404236 0.144894 0.054684
0.483927 0.149150 0.046268
0.545071 0.154849 0.055349
0.613503 0.159195 0.073146
0.677354 0.167741 0.087838
0.737479 0.181728 0.098170
0.794959 0.196623 0.107230
0.850898 0.212424 0.115181
0.904822 0.228973 0.121636
0.956989 0.246660 0.126153
-0.047636 0.151195 0.095971
-0.047598 0.151158 0.084443
0.058110 0.154591 0.085463
0.158167 0.153522 0.085156
0.256777 0.150295 0.078320
0.337707 0.161879 0.065822
0.418655 0.171260 0.053751
0.498943 0.178063 0.042086
0.566509 0.183849 0.042566
0.631991 0.189502 0.059286
0.695570 0.200667 0.071705
0.755292 0.215231 0.081035
0.812171 0.230514 0.089362
0.866967 0.245834 0.097173
0.920077 0.262176 0.103443
0.971362 0.279859 0.107817
-0.047747 0.192288 0.082593
-0.047747 0.187676 0.070359
-0.025192 0.211119 0.071546
0.148271 0.209274 0.070311
0.271771 0.195003 0.067770
0.371556 0.179612 0.043514
0.454223 0.192122 0.026385
0.531870 0.205395 0.015818
0.598833 0.220844 0.023067
0.661306 0.234677 0.036965
0.721744 0.249394 0.047896
0.778775 0.265065 0.056534
0.834425 0.282527 0.063452
0.888428 0.301975 0.068177
0.939870 0.319825 0.072818
0.989767 0.336534 0.077102
-0.047747 0.227127 0.070822
-0.047747 0.222818 0.052564
-0.045074 0.254303 0.053859
0.144892 0.258620 0.045831
0.283094 0.245472 0.068724
0.378981 0.232238 0.065374
0.483121 0.218657 0.010623
0.570960 0.228955 -0.035266
0.646701 0.244549 0.019678
0.710171 0.261866 0.033241
0.765355 0.279717 0.040661
0.816688 0.299727 0.044544
0.867594 0.321443 0.046846
0.915691 0.346065 0.045372
0.963499 0.373590 0.040341
1.000778 0.392920 0.037840
-0.047747 0.257556 0.054777
-0.047747 0.258139 0.048192
-0.047747 0.290823 0.041890
0.152458 0.308931 0.017701
0.286081 0.294071 0.061841
0.404320 0.303466 0.034034
0.496237 0.286933 0.041584
0.597328 0.273352 -0.040492
0.685780 0.276080 -0.029220
0.751412 0.292101 0.021068
0.804205 0.310255 0.029464
0.852229 0.330775 0.032046
0.900642 0.353806 0.031661
0.947591 0.381486 0.024154
0.994065 0.412093 -0.014839
1.017673 0.428600 -0.032138
-0.047747 0.286628 0.051061
-0.047747 0.292891 0.055812
-0.046490 0.331208 0.026203
0.173544 0.351996 -0.020216
0.304567 0.343302 0.053123
0.421663 0.355044 0.046407
0.519253 0.369930 -0.025759
0.617076 0.348034 -0.037605
0.703085 0.335830 -0.040492
0.771874 0.332608 -0.040492
0.833271 0.344310 -0.028647
0.881436 0.363543 -0.020977
0.926606 0.387199 -0.028210
0.972427 0.414660 -0.037992
1.018118 0.445412 -0.040492
1.031768 0.457849 -0.040492
-0.047747 0.316265 0.064602
-0.047747 0.324010 0.066604
-0.019539 0.376423 -0.035632
0.199445 0.388144 -0.019525
0.324989 0.385355 0.049272
0.430274 0.393044 0.066052
0.551224 0.421776 -0.039856
0.634086 0.445197 -0.039663
0.715815 0.415429 -0.036985
0.785955 0.402758 -0.040492
0.842849 0.394249 -0.040492
0.897859 0.400851 -0.040492
0.948348 0.419928 -0.040492
0.992952 0.446618 -0.040492
1.030934 0.476608 -0.040492
1.031768 0.486278 -0.040492
-0.047747 0.342563 0.076478
-0.047747 0.362382 0.064255
0.089117 0.410473 -0.036291
0.227205 0.418608 0.010599
0.344082 0.421801 0.048386
0.444783 0.431552 0.066996
0.557608 0.467863 -0.033387
0.649543 0.493636 -0.039603
0.719486 0.524255 -0.039500
0.789699 0.489879 -0.033672
0.853286 0.473059 -0.039482
0.905011 0.459446 -0.040492
0.957472 0.460494 -0.040492
1.008782 0.478796 -0.040492
1.031768 0.507141 -0.040492
1.031768 0.512139 -0.040492
-0.047747 0.370820 0.088806
-0.047260 0.413835 0.060254
0.119511 0.439213 0.013323
0.243684 0.450351 0.028031
0.357016 0.456850 0.052688
0.455774 0.467973 0.070806
0.555802 0.502174 0.052418
0.658453 0.543266 -0.039595
0.722539 0.567576 -0.039500
0.785918 0.602431 -0.039405
0.852198 0.567720 -0.037932
0.907867 0.542723 -0.034320
0.962347 0.523808 -0.040492
1.013598 0.519998 -0.040492
1.031768 0.535821 -0.040492
1.031768 0.537499 -0.040492
-0.047747 0.420087 0.093461
-0.009265 0.451761 0.066606
0.146214 0.465845 0.039583
0.263277 0.479534 0.043636
0.372118 0.488252 0.059851
0.469257 0.503834 0.072814
0.564407 0.537035 0.063478
0.657905 0.579705 -0.037543
0.736787 0.616688 -0.039500
0.785406 0.640006 -0.039405
0.841550 0.677458 -0.039318
0.904149 0.643346 -0.038972
0.961323 0.609363 -0.030368
1.015527 0.585070 -0.037676
1.030284 0.578957 -0.038808
1.031050 0.577192 -0.039657
-0.016092 0.463351 0.098362
0.083279 0.472576 0.080924
0.178456 0.489323 0.061790
0.286135 0.505730 0.061779
0.390776 0.517161 0.071705
0.484914 0.535024 0.080148
0.575700 0.572423 0.068590
0.659368 0.619711 0.015079
0.731705 0.658085 -0.039480
0.797491 0.691739 -0.039405
0.838892 0.711448 -0.039318
0.890651 0.746510 -0.039219
0.954694 0.711783 -0.039101
1.018992 0.673712 -0.033186
1.023641 0.646574 -0.029654
1.023830 0.635121 -0.030338
-0.042369 0.540233 0.088919
0.051104 0.561130 0.059561
0.166943 0.582234 0.033397
0.277501 0.602514 0.022904
0.386795 0.613466 0.026412
0.486827 0.633467 -0.013647
0.573983 0.655778 -0.039002
0.657651 0.697330 -0.039405
0.727640 0.727218 -0.039349
0.787041 0.746858 -0.039318
0.843958 0.766888 -0.039261
0.885554 0.780703 -0.039219
0.938816 0.810197 -0.039122
1.008965 0.773867 -0.038933
1.030161 0.732156 -0.038933
1.029607 0.715691 -0.038211
-0.047747 0.633800 0.024581
-0.046865 0.647267 -0.036922
0.170567 0.660014 -0.040492
0.280890 0.673634 -0.040492
0.378050 0.691517 -0.040492
0.474508 0.715383 -0.040492
0.569220 0.748548 -0.040492
0.654710 0.783867 -0.040492
0.724622 0.807474 -0.039219
0.784269 0.820418 -0.039219
0.836899 0.827380 -0.039219
0.887489 0.833787 -0.039145
0.929198 0.843180 -0.039122
0.987904 0.869779 -0.038966
1.030161 0.820706 -0.038933
1.030161 0.791872 -0.038933
-0.047524 0.783862 -0.040492
-0.047525 0.790289 -0.040492
-0.037072 0.797784 -0.040492
0.238120 0.806830 -0.040492
0.360011 0.815698 -0.040492
0.467300 0.828078 -0.040492
0.566306 0.842850 -0.040492
0.651203 0.851474 -0.040492
0.722414 0.859167 -0.040492
0.781516 0.863857 -0.039122
0.834304 0.869334 -0.039122
0.884598 0.874612 -0.039122
0.935762 0.881133 -0.039122
0.980584 0.899832 -0.038996
1.029669 0.908339 -0.038933
1.030161 0.877503 -0.038933
-0.047747 0.086511 0.087416
-0.030968 0.085837 0.086934
0.090026 0.090871 0.099162
0.213987 0.096018 0.102967
0.279048 0.100622 0.095688
0.355114 0.105937 0.091043
0.431431 0.112987 0.087201
0.505239 0.120633 0.083651
0.569692 0.130301 0.081826
0.623266 0.143718 0.089302
0.684482 0.156693 0.101683
0.739768 0.169858 0.111811
0.792199 0.182991 0.121217
0.843657 0.196288 0.129701
0.894278 0.210273 0.136946
0.943766 0.224385 0.142590
-0.047644 0.090155 0.088993
-0.036338 0.098515 0.095973
0.078835 0.100994 0.101782
0.206147 0.106134 0.110156
0.274381 0.111090 0.101651
0.356249 0.113472 0.095068
0.433300 0.116386 0.087246
0.509813 0.124394 0.084557
0.578231 0.133207 0.082309
0.628406 0.146509 0.088311
0.688104 0.158949 0.100327
0.741939 0.171488 0.110524
0.793216 0.183973 0.120224
0.844577 0.197219 0.128917
0.895261 0.211084 0.136235
0.945059 0.225341 0.142005
-0.047644 0.102638 0.096012
-0.044205 0.112125 0.102940
0.066436 0.121855 0.111806
0.181520 0.126244 0.122860
0.265665 0.132480 0.113779
0.352380 0.125165 0.098357
0.435344 0.126742 0.089051
0.515761 0.133401 0.085954
0.590417 0.140103 0.083455
0.636452 0.152601 0.085506
0.691976 0.163451 0.096914
0.743974 0.174734 0.107376
0.794829 0.186460 0.117413
0.846423 0.199501 0.126429
0.898365 0.214005 0.133589
0.949751 0.230128 0.138537
-0.047559 0.140133 0.114381
-0.047383 0.148117 0.119060
0.043799 0.155252 0.126628
0.145594 0.159468 0.133775
0.243783 0.171172 0.131008
0.335000 0.175519 0.116387
0.423806 0.176923 0.102361
0.508103 0.174018 0.091229
0.588230 0.169576 0.082522
0.648003 0.170575 0.076292
0.699156 0.181523 0.085134
0.754084 0.194552 0.094345
0.809478 0.211344 0.101188
0.864435 0.229800 0.106955
0.918132 0.248243 0.112105
0.969950 0.266435 0.116179
-0.047453 0.196519 0.133321
-0.047543 0.209143 0.133607
-0.046119 0.212531 0.124067
0.111376 0.216970 0.122002
0.257782 0.210408 0.117248
0.356218 0.202901 0.111096
0.439018 0.213508 0.104949
0.520607 0.222836 0.097344
0.599346 0.227702 0.086826
0.670236 0.231188 0.075978
0.731897 0.234946 0.067041
0.773113 0.246832 0.066869
0.826004 0.260387 0.075117
0.881668 0.279393 0.080655
0.935532 0.299671 0.084601
0.987084 0.319255 0.087662
-0.047747 0.257457 0.136708
-0.047747 0.248487 0.116241
-0.047747 0.243368 0.104124
0.062871 0.272844 0.096382
0.245760 0.266726 0.099837
0.371961 0.249759 0.101079
0.476148 0.231554 0.079519
0.562602 0.243748 0.064463
0.639942 0.258389 0.049482
0.705129 0.273592 0.040500
0.754917 0.290878 0.036749
0.805129 0.305758 0.034495
0.849904 0.322535 0.038898
0.902623 0.343417 0.042524
0.955110 0.367877 0.042016
1.000020 0.391460 0.038836
-0.047747 0.284983 0.120300
-0.047747 0.278030 0.106168
-0.047747 0.273109 0.089142
0.047453 0.320262 0.073832
0.249457 0.318922 0.078375
0.397669 0.318849 0.084470
0.487994 0.303612 0.090162
