luts/bonus/VitalLUT.cube
LUT_3D_SIZE 6
0.035019 0.028823 0.018709
0.230954 0.016633 0.009283
0.475121 0.008849 0.003323
0.689119 0.000000 0.000000
0.899938 0.000000 0.000000
1.016115 0.022487 0.020953
0.022254 0.264773 0.030189
0.333453 0.277038 0.039068
0.574919 0.218969 0.031979
0.755371 0.159257 0.029675
0.927777 0.151539 0.027717
1.026607 0.235009 0.038996
0.014076 0.523782 0.062112
0.201492 0.497791 0.093664
0.631115 0.560905 0.063177
0.828324 0.543117 0.059409
0.960468 0.521711 0.057260
1.033573 0.529983 0.064658
0.021560 0.744130 0.126292
0.147835 0.726758 0.141475
0.414767 0.692166 0.174633
0.831998 0.767899 0.112986
0.982288 0.759685 0.084795
1.035912 0.737533 0.088692
0.178667 0.923366 0.229649
0.255817 0.912660 0.248484
0.406235 0.907993 0.266803
0.667338 0.897089 0.313771
0.970982 0.914552 0.266269
1.038044 0.888878 0.129427
0.280767 0.980535 0.302240
0.348011 0.977710 0.325724
0.463059 0.977956 0.354279
0.651371 0.974305 0.405142
0.915530 0.980348 0.436441
1.029120 0.981351 0.410672
0.019308 0.017687 0.225228
0.241380 0.014853 0.217758
0.486861 0.007675 0.177463
0.690301 0.000000 0.137859
0.894450 0.000000 0.118967
1.013503 0.022399 0.131092
0.014456 0.228666 0.296827
0.257148 0.228072 0.218429
0.507129 0.151135 0.171501
0.712571 0.121152 0.122897
0.911381 0.111925 0.106227
1.020238 0.166148 0.128078
0.024394 0.511953 0.245022
0.165209 0.488040 0.183855
0.579957 0.524296 0.242462
0.792184 0.496497 0.147239
0.944950 0.468322 0.123886
1.031665 0.489347 0.141211
0.053467 0.718395 0.235879
0.110830 0.707708 0.184094
0.382191 0.682830 0.243623
0.800322 0.747057 0.283914
0.970981 0.739323 0.158464
1.035811 0.722089 0.165098
0.163554 0.903465 0.283012
0.205952 0.903062 0.250660
0.358358 0.897315 0.289591
0.622295 0.885232 0.356684
0.957454 0.908014 0.369520
1.036363 0.882808 0.307452
0.270502 0.975509 0.349973
0.315916 0.978749 0.331136
0.442220 0.979551 0.382528
0.626847 0.975106 0.443089
0.905061 0.978775 0.502734
1.023102 0.981351 0.500944
0.011093 0.011765 0.508675
0.165017 0.007675 0.512793
0.527048 0.007367 0.500002
0.735107 0.000000 0.456075
0.902566 0.000000 0.401825
1.016710 0.022399 0.393865
0.008303 0.185307 0.549833
0.166472 0.177770 0.496879
0.534973 0.139436 0.496452
0.740846 0.123975 0.447601
0.911356 0.112127 0.383329
1.023998 0.144295 0.392794
0.005607 0.474770 0.578631
0.127394 0.489225 0.535342
0.555678 0.511040 0.503392
0.747040 0.456312 0.440516
0.918565 0.410119 0.367748
1.028664 0.450466 0.375885
0.053650 0.738557 0.475056
0.183532 0.724368 0.426020
0.389149 0.694495 0.378169
0.768801 0.728971 0.491967
0.950504 0.709224 0.418759
1.035430 0.700616 0.393482
0.205580 0.908366 0.446971
0.237032 0.900790 0.398979
0.330836 0.887150 0.351156
0.577205 0.872553 0.426542
0.937717 0.897552 0.518287
1.036679 0.881022 0.505319
0.301572 0.980911 0.474224
0.328781 0.979583 0.438126
0.422127 0.978814 0.423709
0.602878 0.976251 0.493397
0.892263 0.977877 0.585064
1.025936 0.980875 0.618105
0.002725 0.006482 0.734086
0.145165 0.000000 0.730459
0.502109 0.000000 0.725845
0.752246 0.000000 0.722381
0.922487 0.000000 0.700436
1.022009 0.023970 0.686511
0.002008 0.136928 0.752470
0.135400 0.126336 0.717743
0.501679 0.119666 0.727212
0.760815 0.120514 0.725850
0.933444 0.131151 0.701377
1.027331 0.237798 0.688100
0.001477 0.412651 0.755660
0.099287 0.409863 0.732293
0.499685 0.435887 0.716702
0.762056 0.465233 0.720180
0.924884 0.455288 0.687940
1.024782 0.474084 0.672255
0.000000 0.715471 0.777403
0.072007 0.714325 0.754278
0.425762 0.713395 0.728920
0.766919 0.731070 0.718555
0.916508 0.682602 0.665570
1.027116 0.682071 0.652913
0.069407 0.924660 0.664014
0.139314 0.917573 0.632195
0.353806 0.900627 0.596104
0.583928 0.875909 0.566924
0.920149 0.888551 0.694417
1.032272 0.875565 0.695125
0.238783 0.983340 0.605006
0.300644 0.983487 0.594785
0.460840 0.980857 0.591734
0.606404 0.979329 0.587931
0.882962 0.977355 0.682289
1.026704 0.981351 0.745658
0.031355 0.004018 0.882908
0.249379 0.000000 0.884787
0.510581 0.000000 0.876622
0.734080 0.000000 0.876992
0.928444 0.000000 0.882523
1.023118 0.022399 0.860843
0.006850 0.125118 0.889668
0.218561 0.117410 0.890266
0.507240 0.112089 0.890683
0.748408 0.112089 0.891402
0.938888 0.112058 0.890547
1.026785 0.221667 0.863475
0.000000 0.365558 0.884955
0.101009 0.361384 0.893952
0.485541 0.348122 0.882006
0.737157 0.369586 0.881853
0.930615 0.429907 0.879738
1.026306 0.509748 0.861760
0.000000 0.682595 0.901867
0.065597 0.670512 0.896210
0.260893 0.640307 0.881052
0.715508 0.657988 0.869526
0.921643 0.700173 0.869982
1.023859 0.726738 0.860866
0.000000 0.917821 0.904320
0.042625 0.909706 0.895408
0.298235 0.898453 0.884644
0.679436 0.884163 0.870795
0.919666 0.882845 0.861330
1.025858 0.877430 0.856936
0.007067 0.988765 0.854213
0.052602 0.989068 0.849377
0.329393 0.988949 0.844632
0.629980 0.987858 0.839626
0.885907 0.980476 0.840008
1.029774 0.979581 0.859843
0.128331 0.031277 0.936797
0.316510 0.022399 0.934219
0.531538 0.022399 0.932368
0.723044 0.022399 0.931130
0.897631 0.022399 0.932790
1.017586 0.022428 0.934820
0.089375 0.139502 0.933556
0.318141 0.139799 0.938318
0.531088 0.134008 0.937468
0.733318 0.134008 0.937465
0.905850 0.134324 0.936979
1.021836 0.181468 0.936979
0.017163 0.365220 0.929129
0.184073 0.370924 0.938318
0.528422 0.365037 0.936979
0.734560 0.376631 0.937340
0.904818 0.437632 0.936979
1.022058 0.494112 0.935948
0.009997 0.633863 0.927300
0.085642 0.638181 0.935850
0.351637 0.623936 0.935475
0.725627 0.656191 0.936979
0.905972 0.692748 0.936916
1.024683 0.720577 0.937246
0.004822 0.872930 0.933968
0.058313 0.878417 0.938796
0.283886 0.869810 0.937318
0.668809 0.858910 0.936942
0.904331 0.867296 0.935607
1.027604 0.883397 0.935243
0.001477 0.983495 0.936979
0.039766 0.986861 0.937068
0.278245 0.985189 0.936979
0.673218 0.981857 0.937355
0.899129 0.981333 0.936325
1.029889 0.979557 0.935173
