luts/bonus/VitalLUT.cube
LUT_3D_SIZE 16
0.035019 0.028823 0.018709
0.093297 0.026806 0.015524
0.158397 0.020908 0.011942
0.230954 0.016633 0.009283
0.309855 0.014080 0.006985
0.392511 0.011444 0.005142
0.475121 0.008849 0.003323
0.548023 0.006218 0.001551
0.621204 0.003378 0.000000
0.689119 0.000000 0.000000
0.759815 0.000000 0.000000
0.834937 0.000000 0.000000
0.899938 0.000000 0.000000
0.961740 0.000000 0.000000
1.010893 0.001803 0.001336
1.016115 0.022487 0.020953
0.031567 0.099274 0.022031
0.115801 0.098116 0.028564
0.187047 0.089327 0.020750
0.262014 0.074150 0.017130
0.341961 0.062691 0.014693
0.421449 0.058120 0.012347
0.501688 0.054499 0.011249
0.575031 0.050744 0.010474
0.648066 0.046998 0.009706
0.717232 0.043232 0.008921
0.784641 0.039445 0.008112
0.851016 0.036225 0.007466
0.914262 0.034809 0.007157
0.970738 0.033610 0.006916
1.017612 0.038550 0.007950
1.020691 0.058198 0.021157
0.026601 0.179650 0.025696
0.102023 0.170799 0.037505
0.215264 0.180990 0.035365
0.307826 0.169561 0.027422
0.387086 0.144386 0.025047
0.461325 0.118474 0.022738
0.533517 0.105639 0.021669
0.603075 0.099964 0.020901
0.668574 0.096157 0.020102
0.732001 0.092526 0.019321
0.797004 0.088838 0.018533
0.861440 0.085641 0.017841
0.918457 0.084330 0.017448
0.973647 0.084251 0.017143
1.019623 0.089256 0.017921
1.022654 0.113634 0.030123
0.022254 0.264773 0.030189
0.086371 0.256672 0.042964
0.182533 0.255603 0.051673
0.333453 0.277038 0.039068
0.434076 0.268906 0.035280
0.506168 0.243989 0.033051
0.574919 0.218969 0.031979
0.635204 0.191446 0.031209
0.696048 0.170491 0.030447
0.755371 0.159257 0.029675
0.817013 0.155476 0.028902
0.874400 0.149408 0.028167
0.927777 0.151539 0.027717
0.980374 0.165949 0.027342
1.024578 0.195938 0.027768
1.026607 0.235009 0.038996
0.019330 0.355925 0.035961
0.072304 0.350698 0.046894
0.153247 0.334914 0.060921
0.272871 0.350038 0.059076
0.449933 0.382444 0.045883
0.547787 0.376392 0.043121
0.608779 0.354852 0.042106
0.668248 0.336137 0.041350
0.725857 0.318521 0.040598
0.780522 0.302783 0.039838
0.837021 0.295933 0.039061
0.891523 0.295598 0.038371
0.940262 0.299705 0.037811
0.988058 0.313268 0.037345
1.028223 0.333677 0.037528
1.030292 0.353946 0.047759
0.016411 0.441922 0.044509
0.062610 0.437790 0.053021
0.127858 0.426034 0.064800
0.230165 0.412283 0.081811
0.368050 0.442967 0.066307
0.547757 0.477530 0.053657
0.640086 0.475378 0.051949
0.700313 0.460857 0.051221
0.751922 0.444566 0.050489
0.805458 0.434650 0.049750
0.857768 0.427241 0.048998
0.904369 0.419974 0.048298
0.950490 0.418949 0.047663
0.994584 0.423684 0.047117
1.030732 0.434896 0.047033
1.032239 0.446053 0.056292
0.014076 0.523782 0.062112
0.058081 0.521595 0.071613
0.109027 0.512587 0.076189
0.201492 0.497791 0.093664
0.308601 0.490497 0.103231
0.459869 0.528474 0.081379
0.631115 0.560905 0.063177
0.723678 0.566825 0.060843
0.778277 0.554296 0.060113
0.828324 0.543117 0.059409
0.874307 0.533394 0.058671
0.919325 0.526588 0.057954
0.960468 0.521711 0.057260
1.000034 0.520808 0.056653
1.032837 0.526220 0.056330
1.033573 0.529983 0.064658
0.011566 0.598395 0.080090
0.052950 0.596385 0.089773
0.096669 0.588976 0.094046
0.168968 0.578387 0.103101
0.276483 0.563859 0.120539
0.386284 0.568069 0.124829
0.543153 0.605529 0.098334
0.706034 0.637718 0.075870
0.791924 0.644805 0.069743
0.845762 0.636762 0.068823
0.888304 0.626018 0.068132
0.930815 0.618142 0.067388
0.969618 0.611648 0.066625
1.004820 0.608379 0.065971
1.033286 0.606791 0.065418
1.033927 0.604515 0.072817
0.010603 0.670433 0.100344
0.050302 0.668806 0.110641
0.091819 0.661287 0.114663
0.152750 0.654134 0.118948
0.250597 0.641954 0.131560
0.345402 0.625906 0.145630
0.462430 0.641312 0.148961
0.622621 0.679873 0.124579
0.772624 0.706230 0.090202
0.849663 0.710935 0.078562
0.902001 0.707497 0.077369
0.942743 0.699565 0.076640
0.976038 0.689884 0.075797
1.010343 0.686904 0.075063
1.034199 0.682311 0.074299
1.035183 0.674827 0.080831
0.021560 0.744130 0.126292
0.056137 0.739186 0.133118
0.099349 0.734005 0.139753
0.147835 0.726758 0.141475
0.229880 0.719486 0.147784
0.326418 0.707167 0.162546
0.414767 0.692166 0.174633
0.539195 0.713975 0.176827
0.693432 0.748096 0.157888
0.831998 0.767899 0.112986
0.900708 0.772112 0.088411
0.952254 0.771989 0.085775
0.982288 0.759685 0.084795
1.011736 0.753457 0.084000
1.035278 0.747949 0.082993
1.035912 0.737533 0.088692
0.057202 0.810659 0.153635
0.083163 0.804811 0.161064
0.122681 0.801320 0.168236
0.167223 0.796215 0.171906
0.228739 0.791860 0.174890
0.311357 0.784007 0.182839
0.398800 0.771874 0.196816
0.490357 0.764111 0.209308
0.615668 0.786404 0.213670
0.769477 0.814074 0.198628
0.884556 0.822899 0.150554
0.944604 0.825476 0.108581
0.986070 0.821128 0.094897
1.014296 0.813173 0.092856
1.036279 0.805896 0.091581
1.036421 0.792240 0.096459
0.113863 0.869999 0.187348
0.138992 0.865665 0.195272
0.170431 0.862297 0.202639
0.209553 0.860074 0.208339
0.255754 0.856692 0.210612
0.314805 0.852168 0.214200
0.395060 0.846613 0.226769
0.476675 0.836172 0.240501
0.569384 0.834171 0.255906
0.709134 0.856679 0.260429
0.846442 0.873375 0.248505
0.932626 0.872633 0.205933
0.979298 0.869923 0.159366
1.014323 0.866415 0.117504
1.037440 0.858959 0.105272
1.038047 0.842500 0.106793
0.178667 0.923366 0.229649
0.194339 0.916896 0.233347
0.221153 0.913789 0.240516
0.255817 0.912660 0.248484
0.297376 0.912494 0.255663
0.342969 0.908417 0.257575
0.406235 0.907993 0.266803
0.480676 0.902657 0.281043
0.559078 0.895605 0.297720
0.667338 0.897089 0.313771
0.803660 0.912378 0.315225
0.907121 0.919192 0.304461
0.970982 0.914552 0.266269
1.009429 0.909909 0.216574
1.036122 0.904379 0.163456
1.038044 0.888878 0.129427
0.242099 0.962277 0.275200
0.256777 0.959581 0.281364
0.278348 0.956578 0.287475
0.310046 0.955951 0.296530
0.348666 0.956378 0.306958
0.391188 0.956132 0.315400
0.439126 0.954637 0.320749
0.503452 0.953199 0.335123
0.576788 0.950952 0.353855
0.667875 0.946390 0.377109
0.785035 0.950739 0.388361
0.883813 0.957484 0.387231
0.959577 0.960453 0.375760
1.004273 0.953566 0.342420
1.032541 0.943772 0.291654
1.034784 0.925763 0.245393
0.276948 0.980957 0.300275
0.291143 0.979141 0.306913
0.312196 0.977821 0.314007
0.341304 0.977846 0.322767
0.378566 0.978776 0.334542
0.419031 0.979304 0.344848
0.462416 0.977941 0.351790
0.517771 0.978293 0.364118
0.585376 0.975818 0.382966
0.669098 0.973448 0.406899
0.776365 0.972609 0.427919
0.869982 0.976919 0.432218
0.943250 0.980842 0.425285
1.000023 0.981315 0.411778
1.029270 0.980297 0.399388
1.031127 0.962788 0.357186
0.280767 0.980535 0.302240
0.295673 0.978489 0.308504
0.318345 0.977825 0.316174
0.348011 0.977710 0.325724
0.383889 0.978891 0.337274
0.422167 0.979206 0.347297
0.463059 0.977956 0.354279
0.514452 0.978608 0.366064
0.576865 0.975818 0.383860
0.651371 0.974305 0.405142
0.751992 0.972227 0.431159
0.841106 0.975393 0.436701
0.915530 0.980348 0.436441
0.977294 0.981258 0.426695
1.018401 0.981351 0.413696
1.029120 0.981351 0.410672
0.026411 0.024395 0.070790
0.088867 0.023289 0.070413
0.156522 0.018346 0.065984
0.227082 0.015047 0.060655
0.307333 0.012589 0.052744
0.392123 0.010115 0.046501
0.474084 0.007675 0.042963
0.550940 0.005217 0.041130
0.619918 0.002765 0.039382
0.692301 0.000000 0.037636
0.759929 0.000000 0.035921
0.834472 0.000000 0.034573
0.899141 0.000000 0.034698
0.958234 0.000000 0.034906
1.012090 0.001788 0.039802
1.018391 0.022399 0.057395
0.025503 0.087902 0.086141
0.092937 0.083830 0.070787
0.161423 0.076353 0.064670
0.235338 0.063445 0.057249
0.315978 0.055114 0.051174
0.397814 0.051237 0.043834
0.481672 0.048541 0.041156
0.557890 0.045898 0.039224
0.633015 0.043260 0.037302
0.703178 0.040595 0.035397
0.773249 0.037957 0.033459
0.845216 0.035358 0.031572
0.913781 0.032655 0.029614
0.972403 0.030081 0.027736
1.017620 0.038121 0.035948
1.019773 0.059540 0.056540
0.025509 0.170399 0.083192
0.087155 0.162450 0.074946
0.188902 0.163098 0.080743
0.276322 0.149637 0.065448
0.358340 0.124983 0.056196
0.434029 0.102398 0.050019
0.512629 0.095214 0.047294
0.585725 0.091590 0.044779
0.653636 0.088242 0.042247
0.721751 0.084972 0.039702
0.786450 0.081780 0.037243
0.854352 0.078543 0.034731
0.918120 0.075255 0.032187
0.976700 0.072389 0.029728
1.021705 0.079155 0.037043
1.023716 0.100790 0.056857
0.022926 0.261188 0.086101
0.071977 0.249160 0.073457
0.164626 0.243841 0.089625
0.300277 0.257258 0.081321
0.405941 0.248093 0.063977
0.480881 0.220963 0.059590
0.552980 0.191381 0.056888
0.617846 0.165386 0.054405
0.681652 0.151138 0.051919
0.742384 0.141493 0.049456
0.804194 0.135548 0.047018
0.866583 0.133671 0.044579
0.925866 0.136507 0.042100
0.982901 0.148976 0.039676
1.024723 0.174151 0.046460
1.026711 0.211748 0.065041
0.015444 0.349658 0.084487
0.056827 0.339164 0.072391
0.136289 0.328931 0.090079
0.249750 0.332036 0.098967
0.422489 0.363152 0.081032
0.527124 0.358786 0.069564
0.589588 0.334937 0.066217
0.650429 0.312966 0.063818
0.711921 0.294843 0.061390
0.769703 0.278866 0.059015
0.826693 0.268531 0.056654
0.883894 0.267923 0.054262
0.938218 0.275198 0.051880
0.990770 0.291040 0.049497
1.028179 0.312758 0.055707
1.030299 0.335491 0.073078
0.009278 0.431893 0.085003
0.047890 0.428729 0.076476
0.109847 0.419670 0.090085
0.212164 0.404393 0.109935
0.346319 0.427584 0.112246
0.525626 0.462505 0.085803
0.623573 0.461311 0.075681
0.683296 0.443828 0.072980
0.740400 0.429513 0.070656
0.793760 0.416747 0.068328
0.847694 0.409184 0.066047
0.898712 0.403872 0.063726
0.949603 0.403341 0.061395
0.997140 0.408148 0.059102
1.031142 0.420191 0.064756
1.030696 0.430100 0.080972
0.006241 0.509112 0.091414
0.041771 0.510222 0.086047
0.095659 0.504344 0.096166
0.182898 0.493123 0.114365
0.291735 0.479933 0.132160
0.436870 0.512944 0.123705
0.614341 0.549224 0.096247
0.709080 0.554300 0.082204
0.766398 0.541819 0.079692
0.818195 0.529947 0.077410
0.866228 0.520529 0.075202
0.914146 0.514003 0.072940
0.958956 0.509135 0.070692
1.001710 0.509039 0.068446
1.032165 0.513278 0.073597
1.031804 0.515518 0.088668
0.005527 0.585987 0.102982
0.038283 0.585957 0.098478
0.086038 0.582248 0.110669
0.154130 0.572703 0.119583
0.261828 0.559008 0.138249
0.368612 0.555843 0.152337
0.523815 0.591988 0.139834
0.690659 0.626083 0.104097
0.778852 0.633699 0.089934
0.836157 0.627477 0.086338
0.881933 0.616497 0.084116
0.925646 0.608486 0.081937
0.968153 0.602449 0.079731
1.006362 0.599930 0.077577
1.032627 0.598155 0.082203
1.032661 0.595992 0.096195
0.006383 0.657652 0.117188
0.035181 0.658887 0.114914
0.080859 0.653496 0.124957
0.139573 0.647469 0.132084
0.232763 0.636929 0.145016
0.333546 0.622813 0.164148
0.443782 0.627912 0.172449
0.603179 0.666781 0.158280
0.758514 0.697030 0.123082
0.841609 0.704987 0.099012
0.895173 0.699589 0.092857
0.937410 0.692018 0.090747
0.974767 0.683400 0.088596
1.011443 0.680293 0.086497
1.035547 0.675084 0.090665
1.035874 0.668164 0.103604
0.014325 0.732482 0.138549
0.040563 0.731287 0.135113
0.085715 0.726325 0.143863
0.133274 0.719409 0.149427
0.212802 0.713247 0.157232
0.310813 0.702387 0.173115
0.402249 0.686701 0.189943
0.522187 0.702461 0.197012
0.677975 0.737445 0.185376
0.822603 0.761811 0.149961
0.894239 0.766048 0.115626
0.946832 0.765036 0.099572
0.981643 0.756203 0.097289
1.012894 0.750383 0.095238
1.036116 0.744290 0.098900
1.037426 0.735056 0.110868
0.047707 0.801738 0.162775
0.068600 0.799361 0.159800
0.106581 0.794937 0.169006
0.152560 0.790158 0.175801
0.215282 0.786329 0.181148
0.294517 0.778622 0.188765
0.385142 0.767508 0.205067
0.475672 0.755947 0.219245
0.600633 0.776246 0.228600
0.756879 0.807238 0.221979
0.878290 0.818950 0.188766
0.941458 0.821192 0.149560
0.985435 0.819711 0.110536
1.015854 0.812191 0.104118
1.036774 0.802896 0.107049
1.037908 0.791627 0.118102
0.105945 0.863888 0.193867
0.122976 0.861945 0.191483
0.154461 0.857700 0.200533
0.194744 0.855740 0.209092
0.242628 0.853284 0.214151
0.300220 0.848721 0.218650
0.380155 0.843043 0.230734
0.464327 0.833448 0.246271
0.557796 0.829601 0.264288
0.693517 0.849887 0.272951
0.834535 0.867704 0.264952
0.928309 0.870300 0.233984
0.978688 0.870317 0.187598
1.015990 0.867814 0.138258
1.037590 0.856223 0.122076
1.037808 0.839974 0.136316
0.171196 0.918837 0.234415
0.186050 0.919175 0.232739
0.209811 0.913927 0.239275
0.244602 0.912308 0.248893
0.286763 0.912051 0.258240
0.333183 0.909107 0.262546
0.394029 0.907629 0.271070
0.469410 0.902915 0.285934
0.550194 0.896525 0.304263
0.657177 0.896521 0.323802
0.795586 0.911114 0.328766
0.903436 0.918949 0.322464
0.970121 0.915700 0.293433
1.010749 0.913190 0.250295
1.036142 0.903689 0.185906
1.037121 0.888234 0.178778
0.236672 0.960066 0.279404
0.253594 0.963856 0.282204
0.272166 0.959984 0.288460
0.302799 0.958983 0.297944
0.342330 0.959275 0.310461
0.385894 0.959315 0.321458
0.433330 0.957519 0.327852
0.496662 0.957508 0.342426
0.571474 0.954382 0.361932
0.662546 0.950250 0.387339
0.780910 0.952673 0.402858
0.882643 0.959990 0.404087
0.960382 0.963467 0.395893
1.005177 0.956412 0.363993
1.032011 0.944106 0.315533
1.033607 0.926405 0.283055
0.270467 0.979518 0.303409
0.282707 0.980230 0.303516
0.301367 0.978087 0.310966
0.330340 0.977759 0.320959
0.367788 0.978259 0.333908
0.409738 0.979292 0.346932
0.453916 0.978285 0.355950
0.508376 0.978681 0.368448
0.576342 0.975767 0.388186
0.660542 0.974060 0.412914
0.769748 0.972384 0.439184
0.864629 0.975742 0.445161
0.940148 0.981230 0.441796
0.997996 0.981351 0.430161
1.028111 0.980425 0.419363
1.029783 0.963465 0.388682
0.271659 0.979555 0.304356
0.286623 0.979897 0.306537
0.307209 0.978324 0.314821
0.336371 0.977799 0.325121
0.373378 0.978201 0.338906
0.413408 0.979281 0.352078
0.455620 0.978352 0.361838
0.505746 0.978817 0.373741
0.568609 0.975985 0.392517
0.643815 0.974530 0.415871
0.746476 0.972764 0.445351
0.834768 0.973567 0.453634
0.911363 0.979315 0.456299
0.973658 0.981336 0.449183
1.015893 0.981351 0.439669
1.028015 0.981351 0.437404
0.022035 0.022112 0.139543
0.081336 0.018307 0.139450
0.159006 0.017319 0.136268
0.235769 0.015047 0.129225
0.314206 0.012589 0.118955
0.393807 0.010115 0.108116
0.472790 0.007675 0.097668
0.551294 0.005217 0.089592
0.621800 0.002765 0.082710
0.692043 0.000000 0.079598
0.762696 0.000000 0.077616
0.832480 0.000000 0.076067
0.898969 0.000000 0.075761
0.963098 0.000000 0.075726
1.013587 0.001788 0.079513
1.018495 0.022399 0.094055
0.020269 0.078462 0.166792
0.080167 0.075278 0.136184
0.159290 0.072601 0.133714
0.235832 0.061124 0.126672
0.316068 0.053800 0.119790
0.395890 0.049991 0.106235
0.479326 0.047441 0.095357
0.557183 0.044950 0.085047
0.632222 0.042466 0.079767
0.703850 0.039960 0.076396
0.774830 0.037473 0.074428
0.843943 0.035043 0.072650
0.910511 0.032524 0.070842
0.973458 0.030080 0.069128
1.019619 0.038279 0.075962
1.019890 0.059779 0.093429
0.018409 0.153361 0.184306
0.074945 0.153122 0.152971
0.168434 0.150063 0.138422
0.249301 0.136184 0.127426
0.329722 0.110341 0.115076
0.410494 0.095379 0.102089
0.489643 0.088480 0.088572
0.568347 0.085720 0.082885
0.636766 0.083001 0.076496
0.708066 0.080352 0.073714
0.776829 0.077649 0.071726
0.843959 0.075042 0.069793
0.908009 0.072340 0.067837
0.971738 0.069762 0.065892
1.020518 0.075636 0.072032
1.023292 0.098229 0.092437
0.016804 0.255126 0.171915
0.074097 0.250413 0.148017
0.151317 0.237047 0.135627
0.276611 0.240702 0.144098
0.377105 0.227426 0.120755
0.454503 0.195614 0.104123
0.528281 0.160725 0.091674
0.599683 0.143089 0.086498
0.664310 0.132899 0.081210
0.726102 0.127269 0.077761
0.791689 0.123386 0.075255
0.855800 0.120551 0.072744
0.917713 0.119743 0.070214
0.977757 0.125033 0.067731
1.024254 0.141956 0.073001
1.025579 0.176719 0.092706
0.016820 0.346516 0.164856
0.062107 0.340649 0.141694
0.126975 0.326238 0.129075
0.235523 0.321189 0.149143
0.395070 0.344382 0.145786
0.504208 0.339618 0.117155
0.571017 0.315455 0.100258
0.635302 0.291326 0.093889
0.694005 0.262861 0.089830
0.754318 0.242546 0.086540
0.812876 0.228539 0.084084
0.870742 0.223589 0.081619
0.927809 0.233224 0.079151
0.985411 0.253554 0.076728
1.027496 0.281220 0.081560
1.026761 0.310073 0.100060
0.019685 0.432231 0.164385
0.048592 0.427365 0.137017
0.098069 0.414727 0.125226
0.199697 0.403209 0.145786
0.327738 0.411775 0.163917
0.502725 0.445182 0.148274
0.606906 0.445717 0.119438
0.665903 0.425416 0.103329
0.726349 0.410209 0.097904
0.780759 0.394474 0.095038
0.833749 0.382722 0.092676
0.887498 0.378059 0.090297
0.941500 0.377913 0.087888
0.992104 0.383704 0.085541
1.030083 0.397743 0.089937
1.030171 0.413135 0.107262
0.017475 0.506165 0.161122
0.039272 0.505712 0.135638
0.081645 0.497881 0.126249
0.167168 0.488700 0.142734
0.278601 0.474470 0.167537
0.417690 0.498814 0.176955
0.595537 0.535784 0.159511
0.695028 0.542133 0.126154
0.752004 0.527484 0.107784
0.805622 0.513667 0.103406
0.853738 0.500792 0.101029
0.904386 0.494155 0.098730
0.952671 0.489345 0.096366
0.998186 0.488862 0.094108
1.030863 0.493551 0.098122
1.031858 0.502439 0.114291
0.013570 0.580039 0.161920
0.033911 0.579234 0.138375
0.072986 0.573189 0.130839
0.140818 0.567222 0.144719
0.247615 0.556409 0.165952
0.353126 0.544307 0.187056
0.503725 0.578926 0.192598
0.678006 0.617927 0.173826
0.769881 0.625178 0.133331
0.825791 0.616038 0.113962
0.872900 0.604438 0.109350
0.919801 0.596234 0.106952
0.962359 0.588631 0.104659
1.003072 0.583699 0.102470
1.032283 0.583327 0.106100
1.033841 0.584251 0.121214
0.015405 0.650376 0.166702
0.032004 0.649204 0.143391
0.067604 0.645423 0.139687
0.126763 0.640146 0.152069
0.214666 0.632836 0.166386
0.320540 0.618667 0.189193
0.427478 0.616497 0.206551
0.586907 0.656984 0.211476
0.747761 0.689083 0.189106
0.834011 0.698316 0.148832
0.889283 0.693802 0.121238
0.930520 0.682917 0.115265
0.970337 0.674498 0.112816
1.008111 0.668781 0.110636
1.034150 0.663961 0.113892
1.034593 0.659445 0.127981
0.026220 0.721482 0.178050
0.035700 0.719822 0.156366
0.067881 0.718077 0.153515
0.122410 0.713110 0.164726
0.195742 0.707088 0.175103
0.293316 0.698084 0.191988
0.391202 0.684999 0.215539
0.502660 0.689218 0.228386
0.662233 0.728722 0.232691
0.811605 0.754868 0.214819
0.888515 0.761696 0.169576
0.939922 0.757414 0.131833
0.976411 0.748751 0.121271
1.010822 0.743362 0.118652
1.037266 0.738840 0.121549
1.037027 0.728494 0.134616
0.046761 0.787723 0.192819
0.055468 0.788341 0.173814
0.085989 0.787791 0.172838
0.135866 0.783088 0.184381
0.198642 0.779885 0.193574
0.276239 0.773952 0.204061
0.369719 0.764736 0.222836
0.460655 0.750087 0.240584
0.581424 0.765415 0.256742
0.740035 0.797586 0.260550
0.870411 0.814428 0.242981
0.934722 0.815688 0.201768
0.980879 0.813117 0.152762
1.013263 0.807478 0.131257
1.037351 0.800406 0.130892
1.037866 0.786423 0.143016
0.099270 0.850987 0.216558
0.107749 0.853730 0.201283
0.131347 0.851377 0.199353
0.174334 0.849113 0.212600
0.224393 0.847064 0.221784
0.283516 0.844516 0.229558
0.360589 0.838484 0.242616
0.448107 0.829404 0.259951
0.539970 0.821361 0.280302
0.673921 0.839753 0.295992
0.820967 0.860610 0.297807
0.918896 0.864452 0.279669
0.974925 0.865309 0.241475
1.013146 0.864513 0.187495
1.036710 0.854322 0.166558
1.037920 0.840181 0.165220
0.160865 0.906472 0.250824
0.172412 0.913686 0.240050
0.190155 0.910451 0.236776
0.225022 0.907289 0.248686
0.268272 0.906999 0.261533
0.317322 0.905596 0.270002
0.374271 0.902081 0.278033
0.451478 0.898239 0.294074
0.535793 0.893548 0.316326
0.639538 0.890580 0.339172
0.779646 0.903701 0.348668
0.891328 0.913370 0.347736
0.964191 0.911964 0.329285
1.007807 0.910933 0.292989
1.034807 0.903513 0.245130
1.036191 0.887629 0.244892
0.228408 0.952625 0.294450
0.242359 0.961095 0.287582
0.256690 0.959330 0.284974
0.284353 0.956101 0.294499
0.324037 0.955528 0.308724
0.369314 0.956405 0.323036
0.418238 0.955004 0.333147
0.479105 0.954222 0.346711
0.554115 0.950953 0.367314
0.644623 0.946995 0.394145
0.764321 0.947448 0.416519
0.872108 0.956125 0.422154
0.952249 0.959771 0.416420
1.001404 0.954133 0.392883
1.030694 0.944458 0.353974
1.033553 0.926879 0.333591
0.264409 0.974885 0.318860
0.272697 0.978637 0.308392
0.290527 0.979665 0.309746
0.317313 0.978482 0.320579
0.354284 0.977756 0.334495
0.397855 0.978700 0.350529
0.444419 0.978701 0.364028
0.496731 0.978952 0.376220
0.564618 0.976051 0.397020
0.649521 0.974445 0.423946
0.762345 0.973016 0.455361
0.856995 0.974920 0.463797
0.934332 0.980286 0.463558
0.994445 0.981332 0.454962
1.026368 0.980480 0.447970
1.027707 0.964166 0.423243
0.265541 0.974654 0.320394
0.276781 0.978358 0.311994
0.297104 0.979214 0.315516
0.326176 0.978225 0.327412
0.363226 0.977729 0.342237
0.404552 0.978743 0.357946
0.449239 0.979107 0.372049
0.497844 0.979106 0.383968
0.559090 0.976363 0.403355
0.635565 0.974953 0.428763
0.739904 0.972852 0.459712
0.830670 0.974509 0.473657
0.906962 0.978149 0.477677
0.969590 0.981106 0.473792
1.012846 0.981351 0.468516
1.025410 0.981351 0.467509
0.019308 0.017687 0.225228
0.064664 0.015047 0.227128
0.147500 0.015047 0.227722
0.241380 0.014853 0.217758
0.333499 0.012589 0.210255
0.413326 0.010115 0.195277
0.486861 0.007675 0.177463
0.556504 0.005217 0.160217
0.622349 0.002765 0.150451
0.690301 0.000000 0.137859
0.759864 0.000000 0.129512
0.830129 0.000000 0.122132
0.894450 0.000000 0.118967
0.956719 0.000000 0.116826
1.005795 0.001788 0.119172
1.013503 0.022399 0.131092
0.017740 0.072593 0.253792
0.064219 0.070500 0.222468
0.143862 0.063263 0.221679
0.241523 0.056575 0.214612
0.331090 0.052637 0.205271
0.410878 0.049953 0.189773
0.485754 0.047441 0.172336
0.560736 0.044950 0.160113
0.633982 0.042466 0.149077
0.703049 0.039960 0.135223
0.774185 0.037473 0.125763
0.843018 0.035043 0.116935
0.911304 0.032524 0.113647
0.972647 0.030080 0.110703
1.015629 0.038279 0.115943
1.017500 0.059779 0.130466
0.016125 0.138742 0.282117
0.058946 0.137193 0.247516
0.147709 0.137222 0.219889
0.246742 0.128262 0.213362
0.332876 0.109920 0.203389
0.413344 0.094019 0.189759
0.490395 0.087694 0.174756
0.564973 0.084867 0.159831
0.636819 0.082330 0.143682
0.705454 0.079862 0.130119
0.775084 0.077345 0.120545
0.842963 0.074906 0.112935
0.907828 0.072399 0.109649
0.970332 0.069942 0.107547
1.016823 0.075837 0.112389
1.018929 0.098158 0.129216
0.014456 0.228666 0.296827
0.052813 0.230641 0.266534
0.134765 0.232164 0.236602
0.257148 0.228072 0.218429
0.349963 0.212892 0.204946
0.430582 0.184687 0.187959
0.507129 0.151135 0.171501
0.579186 0.133103 0.153820
0.648619 0.125793 0.138106
0.712571 0.121152 0.122897
0.779477 0.117920 0.113770
0.846196 0.114944 0.109299
0.911381 0.111925 0.106227
0.970693 0.112964 0.104181
1.019361 0.124359 0.108199
1.020238 0.166148 0.128078
0.011219 0.347461 0.273772
0.051148 0.343772 0.246168
0.131693 0.335674 0.220178
0.231539 0.320723 0.209733
0.374239 0.329694 0.226185
0.479057 0.320094 0.204619
0.547013 0.291832 0.176926
0.614277 0.265831 0.154770
0.676791 0.236297 0.137012
0.737457 0.207925 0.122641
0.799392 0.195792 0.115791
0.860475 0.192342 0.111022
0.921714 0.199090 0.108238
0.977547 0.209653 0.105767
1.022422 0.236127 0.108834
1.022960 0.280831 0.128240
0.011623 0.435092 0.252621
0.054482 0.433394 0.232218
0.122492 0.422983 0.208237
0.198787 0.407146 0.194815
0.315768 0.403197 0.220962
0.483359 0.432192 0.233325
0.587420 0.429039 0.205033
0.648627 0.407012 0.169816
0.708580 0.387991 0.144480
0.766899 0.371399 0.129893
0.823277 0.358500 0.122812
0.879819 0.352738 0.118929
0.934310 0.350539 0.116181
0.984734 0.353861 0.113741
1.024613 0.365650 0.116545
1.027756 0.393509 0.134760
0.024394 0.511953 0.245022
0.064595 0.511706 0.225398
0.108171 0.501998 0.198078
0.165209 0.488040 0.183855
0.270972 0.475695 0.207939
0.402528 0.486139 0.234580
0.579957 0.524296 0.242462
0.679988 0.528479 0.210033
0.737289 0.511900 0.174638
0.792184 0.496497 0.147239
0.843698 0.482769 0.131862
0.896239 0.475084 0.126595
0.944950 0.468322 0.123886
0.992489 0.466962 0.121540
1.030297 0.473405 0.124076
1.031665 0.489347 0.141211
0.047180 0.582262 0.240581
0.065326 0.580313 0.217587
0.090610 0.573376 0.189950
0.140982 0.563570 0.178762
0.238234 0.556330 0.199683
0.344822 0.541180 0.226935
0.488422 0.567548 0.249736
0.661823 0.607058 0.253434
