luts/film_looks/2Strip.cube
TITLE "2Strip"
LUT_3D_SIZE 5
DOMAIN_MIN 0.000000 0.000000 0.000000
DOMAIN_MAX 0.903226 0.903226 0.903226
0.0000 0.0000 0.0000
0.2784 0.0000 0.0000
0.5137 0.0000 0.0000
0.7333 0.0000 0.0000
0.9451 0.0000 0.0000
0.0000 0.2235 0.2235
0.2784 0.2235 0.2235
0.5137 0.2235 0.2235
0.7333 0.2235 0.2235
0.9451 0.2235 0.2235
0.0000 0.4118 0.4118
0.2784 0.4118 0.4118
0.5137 0.4118 0.4118
0.7333 0.4118 0.4118
0.9451 0.4118 0.4118
0.0000 0.5882 0.5882
0.2784 0.5882 0.5882
0.5137 0.5882 0.5882
0.7333 0.5882 0.5882
0.9451 0.5882 0.5882
0.0000 0.7569 0.7569
0.2784 0.7569 0.7569
0.5137 0.7569 0.7569
0.7333 0.7569 0.7569
0.9451 0.7569 0.7569
0.0000 0.0549 0.0549
0.2784 0.0549 0.0549
0.5137 0.0549 0.0549
0.7333 0.0549 0.0549
0.9451 0.0549 0.0549
0.0000 0.2784 0.2784
0.2784 0.2784 0.2784
0.5137 0.2784 0.2784
0.7333 0.2784 0.2784
0.9451 0.2784 0.2784
0.0000 0.4667 0.4667
0.2784 0.4667 0.4667
0.5137 0.4667 0.4667
0.7333 0.4667 0.4667
0.9451 0.4667 0.4667
0.0000 0.6431 0.6431
0.2784 0.6431 0.6431
0.5137 0.6431 0.6431
0.7333 0.6431 0.6431
0.9451 0.6431 0.6431
0.0000 0.8118 0.8118
0.2784 0.8118 0.8118
0.5137 0.8118 0.8118
0.7333 0.8118 0.8118
0.9451 0.8118 0.8118
0.0000 0.1020 0.1020
0.2784 0.1020 0.1020
0.5137 0.1020 0.1020
0.7333 0.1020 0.1020
0.9451 0.1020 0.1020
0.0000 0.3255 0.3255
0.2784 0.3255 0.3255
0.5137 0.3255 0.3255
0.7333 0.3255 0.3255
0.9451 0.3255 0.3255
0.0000 0.5137 0.5137
0.2784 0.5137 0.5137
0.5137 0.5137 0.5137
0.7333 0.5137 0.5137
0.9451 0.5137 0.5137
0.0000 0.6902 0.6902
0.2784 0.6902 0.6902
0.5137 0.6902 0.6902
0.7333 0.6902 0.6902
0.9451 0.6902 0.6902
0.0000 0.8588 0.8588
0.2784 0.8588 0.8588
0.5137 0.8588 0.8588
0.7333 0.8588 0.8588
0.9451 0.8588 0.8588
0.0000 0.1451 0.1451
0.2784 0.1451 0.1451
0.5137 0.1451 0.1451
0.7333 0.1451 0.1451
0.9451 0.1451 0.1451
0.0000 0.3686 0.3686
0.2784 0.3686 0.3686
0.5137 0.3686 0.3686
0.7333 0.3686 0.3686
0.9451 0.3686 0.3686
0.0000 0.5569 0.5569
0.2784 0.5569 0.5569
0.5137 0.5569 0.5569
0.7333 0.5569 0.5569
0.9451 0.5569 0.5569
0.0000 0.7333 0.7333
0.2784 0.7333 0.7333
0.5137 0.7333 0.7333
0.7333 0.7333 0.7333
0.9451 0.7333 0.7333
0.0000 0.9020 0.9020
0.2784 0.9020 0.9020
0.5137 0.9020 0.9020
0.7333 0.9020 0.9020
0.9451 0.9020 0.9020
0.0000 0.1882 0.1882
0.2784 0.1882 0.1882
0.5137 0.1882 0.1882
0.7333 0.1882 0.1882
0.9451 0.1882 0.1882
0.0000 0.4118 0.4118
0.2784 0.4118 0.4118
0.5137 0.4118 0.4118
0.7333 0.4118 0.4118
0.9451 0.4118 0.4118
0.0000 0.6000 0.6000
0.2784 0.6000 0.6000
0.5137 0.6000 0.6000
0.7333 0.6000 0.6000
0.9451 0.6000 0.6000
0.0000 0.7765 0.7765
0.2784 0.7765 0.7765
0.5137 0.7765 0.7765
0.7333 0.7765 0.7765
0.9451 0.7765 0.7765
0.0000 0.9451 0.9451
0.2784 0.9451 0.9451
0.5137 0.9451 0.9451
0.7333 0.9451 0.9451
0.9451 0.9451 0.9451
