luts/film_looks/2Strip.cube
TITLE "2Strip"
LUT_3D_SIZE 32
0.0000 0.0000 0.0000
0.0392 0.0000 0.0000
0.0824 0.0000 0.0000
0.1294 0.0000 0.0000
0.1686 0.0000 0.0000
0.2078 0.0000 0.0000
0.2392 0.0000 0.0000
0.2784 0.0000 0.0000
0.3137 0.0000 0.0000
0.3490 0.0000 0.0000
0.3804 0.0000 0.0000
0.4118 0.0000 0.0000
0.4471 0.0000 0.0000
0.4824 0.0000 0.0000
0.5137 0.0000 0.0000
0.5451 0.0000 0.0000
0.5804 0.0000 0.0000
0.6078 0.0000 0.0000
0.6392 0.0000 0.0000
0.6706 0.0000 0.0000
0.7059 0.0000 0.0000
0.7333 0.0000 0.0000
0.7647 0.0000 0.0000
0.7961 0.0000 0.0000
0.8235 0.0000 0.0000
0.8549 0.0000 0.0000
0.8863 0.0000 0.0000
0.9137 0.0000 0.0000
0.9451 0.0000 0.0000
0.9765 0.0000 0.0000
1.0000 0.0000 0.0000
1.0000 0.0000 0.0000
0.0000 0.0314 0.0314
0.0392 0.0314 0.0314
0.0824 0.0314 0.0314
0.1294 0.0314 0.0314
0.1686 0.0314 0.0314
0.2078 0.0314 0.0314
0.2392 0.0314 0.0314
0.2784 0.0314 0.0314
0.3137 0.0314 0.0314
0.3490 0.0314 0.0314
0.3804 0.0314 0.0314
0.4118 0.0314 0.0314
0.4471 0.0314 0.0314
0.4824 0.0314 0.0314
0.5137 0.0314 0.0314
0.5451 0.0314 0.0314
0.5804 0.0314 0.0314
0.6078 0.0314 0.0314
0.6392 0.0314 0.0314
0.6706 0.0314 0.0314
0.7059 0.0314 0.0314
0.7333 0.0314 0.0314
0.7647 0.0314 0.0314
0.7961 0.0314 0.0314
0.8235 0.0314 0.0314
0.8549 0.0314 0.0314
0.8863 0.0314 0.0314
0.9137 0.0314 0.0314
0.9451 0.0314 0.0314
0.9765 0.0314 0.0314
1.0000 0.0314 0.0314
1.0000 0.0314 0.0314
0.0000 0.0667 0.0667
0.0392 0.0667 0.0667
0.0824 0.0667 0.0667
0.1294 0.0667 0.0667
0.1686 0.0667 0.0667
0.2078 0.0667 0.0667
0.2392 0.0667 0.0667
0.2784 0.0667 0.0667
0.3137 0.0667 0.0667
0.3490 0.0667 0.0667
0.3804 0.0667 0.0667
0.4118 0.0667 0.0667
0.4471 0.0667 0.0667
0.4824 0.0667 0.0667
0.5137 0.0667 0.0667
0.5451 0.0667 0.0667
0.5804 0.0667 0.0667
0.6078 0.0667 0.0667
0.6392 0.0667 0.0667
0.6706 0.0667 0.0667
0.7059 0.0667 0.0667
0.7333 0.0667 0.0667
0.7647 0.0667 0.0667
0.7961 0.0667 0.0667
0.8235 0.0667 0.0667
0.8549 0.0667 0.0667
0.8863 0.0667 0.0667
0.9137 0.0667 0.0667
0.9451 0.0667 0.0667
0.9765 0.0667 0.0667
1.0000 0.0667 0.0667
1.0000 0.0667 0.0667
0.0000 0.1020 0.1020
0.0392 0.1020 0.1020
0.0824 0.1020 0.1020
0.1294 0.1020 0.1020
0.1686 0.1020 0.1020
0.2078 0.1020 0.1020
0.2392 0.1020 0.1020
0.2784 0.1020 0.1020
0.3137 0.1020 0.1020
0.3490 0.1020 0.1020
0.3804 0.1020 0.1020
0.4118 0.1020 0.1020
0.4471 0.1020 0.1020
0.4824 0.1020 0.1020
0.5137 0.1020 0.1020
0.5451 0.1020 0.1020
0.5804 0.1020 0.1020
0.6078 0.1020 0.1020
0.6392 0.1020 0.1020
0.6706 0.1020 0.1020
0.7059 0.1020 0.1020
0.7333 0.1020 0.1020
0.7647 0.1020 0.1020
0.7961 0.1020 0.1020
0.8235 0.1020 0.1020
0.8549 0.1020 0.1020
0.8863 0.1020 0.1020
0.9137 0.1020 0.1020
0.9451 0.1020 0.1020
0.9765 0.1020 0.1020
1.0000 0.1020 0.1020
1.0000 0.1020 0.1020
0.0000 0.1333 0.1333
0.0392 0.1333 0.1333
0.0824 0.1333 0.1333
0.1294 0.1333 0.1333
0.1686 0.1333 0.1333
0.2078 0.1333 0.1333
0.2392 0.1333 0.1333
0.2784 0.1333 0.1333
0.3137 0.1333 0.1333
0.3490 0.1333 0.1333
0.3804 0.1333 0.1333
0.4118 0.1333 0.1333
0.4471 0.1333 0.1333
0.4824 0.1333 0.1333
0.5137 0.1333 0.1333
0.5451 0.1333 0.1333
0.5804 0.1333 0.1333
0.6078 0.1333 0.1333
0.6392 0.1333 0.1333
0.6706 0.1333 0.1333
0.7059 0.1333 0.1333
0.7333 0.1333 0.1333
0.7647 0.1333 0.1333
0.7961 0.1333 0.1333
0.8235 0.1333 0.1333
0.8549 0.1333 0.1333
0.8863 0.1333 0.1333
0.9137 0.1333 0.1333
0.9451 0.1333 0.1333
0.9765 0.1333 0.1333
1.0000 0.1333 0.1333
1.0000 0.1333 0.1333
0.0000 0.1647 0.1647
0.0392 0.1647 0.1647
0.0824 0.1647 0.1647
0.1294 0.1647 0.1647
0.1686 0.1647 0.1647
0.2078 0.1647 0.1647
0.2392 0.1647 0.1647
0.2784 0.1647 0.1647
0.3137 0.1647 0.1647
0.3490 0.1647 0.1647
0.3804 0.1647 0.1647
0.4118 0.1647 0.1647
0.4471 0.1647 0.1647
0.4824 0.1647 0.1647
0.5137 0.1647 0.1647
0.5451 0.1647 0.1647
0.5804 0.1647 0.1647
0.6078 0.1647 0.1647
0.6392 0.1647 0.1647
0.6706 0.1647 0.1647
0.7059 0.1647 0.1647
0.7333 0.1647 0.1647
0.7647 0.1647 0.1647
0.7961 0.1647 0.1647
0.8235 0.1647 0.1647
0.8549 0.1647 0.1647
0.8863 0.1647 0.1647
0.9137 0.1647 0.1647
0.9451 0.1647 0.1647
0.9765 0.1647 0.1647
1.0000 0.1647 0.1647
1.0000 0.1647 0.1647
0.0000 0.1922 0.1922
0.0392 0.1922 0.1922
0.0824 0.1922 0.1922
0.1294 0.1922 0.1922
0.1686 0.1922 0.1922
0.2078 0.1922 0.1922
0.2392 0.1922 0.1922
0.2784 0.1922 0.1922
0.3137 0.1922 0.1922
0.3490 0.1922 0.1922
0.3804 0.1922 0.1922
0.4118 0.1922 0.1922
0.4471 0.1922 0.1922
0.4824 0.1922 0.1922
0.5137 0.1922 0.1922
0.5451 0.1922 0.1922
0.5804 0.1922 0.1922
0.6078 0.1922 0.1922
0.6392 0.1922 0.1922
0.6706 0.1922 0.1922
0.7059 0.1922 0.1922
0.7333 0.1922 0.1922
0.7647 0.1922 0.1922
0.7961 0.1922 0.1922
0.8235 0.1922 0.1922
0.8549 0.1922 0.1922
0.8863 0.1922 0.1922
0.9137 0.1922 0.1922
0.9451 0.1922 0.1922
0.9765 0.1922 0.1922
1.0000 0.1922 0.1922
1.0000 0.1922 0.1922
0.0000 0.2235 0.2235
0.0392 0.2235 0.2235
0.0824 0.2235 0.2235
0.1294 0.2235 0.2235
0.1686 0.2235 0.2235
0.2078 0.2235 0.2235
0.2392 0.2235 0.2235
0.2784 0.2235 0.2235
0.3137 0.2235 0.2235
0.3490 0.2235 0.2235
0.3804 0.2235 0.2235
0.4118 0.2235 0.2235
0.4471 0.2235 0.2235
0.4824 0.2235 0.2235
0.5137 0.2235 0.2235
0.5451 0.2235 0.2235
0.5804 0.2235 0.2235
0.6078 0.2235 0.2235
0.6392 0.2235 0.2235
0.6706 0.2235 0.2235
0.7059 0.2235 0.2235
0.7333 0.2235 0.2235
0.7647 0.2235 0.2235
0.7961 0.2235 0.2235
0.8235 0.2235 0.2235
0.8549 0.2235 0.2235
0.8863 0.2235 0.2235
0.9137 0.2235 0.2235
0.9451 0.2235 0.2235
0.9765 0.2235 0.2235
1.0000 0.2235 0.2235
1.0000 0.2235 0.2235
0.0000 0.2510 0.2510
0.0392 0.2510 0.2510
0.0824 0.2510 0.2510
0.1294 0.2510 0.2510
0.1686 0.2510 0.2510
0.2078 0.2510 0.2510
0.2392 0.2510 0.2510
0.2784 0.2510 0.2510
0.3137 0.2510 0.2510
0.3490 0.2510 0.2510
0.3804 0.2510 0.2510
0.4118 0.2510 0.2510
0.4471 0.2510 0.2510
0.4824 0.2510 0.2510
0.5137 0.2510 0.2510
0.5451 0.2510 0.2510
0.5804 0.2510 0.2510
0.6078 0.2510 0.2510
0.6392 0.2510 0.2510
0.6706 0.2510 0.2510
0.7059 0.2510 0.2510
0.7333 0.2510 0.2510
0.7647 0.2510 0.2510
0.7961 0.2510 0.2510
0.8235 0.2510 0.2510
0.8549 0.2510 0.2510
0.8863 0.2510 0.2510
0.9137 0.2510 0.2510
0.9451 0.2510 0.2510
0.9765 0.2510 0.2510
1.0000 0.2510 0.2510
1.0000 0.2510 0.2510
0.0000 0.2784 0.2784
0.0392 0.2784 0.2784
0.0824 0.2784 0.2784
0.1294 0.2784 0.2784
0.1686 0.2784 0.2784
0.2078 0.2784 0.2784
0.2392 0.2784 0.2784
0.2784 0.2784 0.2784
0.3137 0.2784 0.2784
0.3490 0.2784 0.2784
0.3804 0.2784 0.2784
0.4118 0.2784 0.2784
0.4471 0.2784 0.2784
0.4824 0.2784 0.2784
0.5137 0.2784 0.2784
0.5451 0.2784 0.2784
0.5804 0.2784 0.2784
0.6078 0.2784 0.2784
0.6392 0.2784 0.2784
0.6706 0.2784 0.2784
0.7059 0.2784 0.2784
0.7333 0.2784 0.2784
0.7647 0.2784 0.2784
0.7961 0.2784 0.2784
0.8235 0.2784 0.2784
0.8549 0.2784 0.2784
0.8863 0.2784 0.2784
0.9137 0.2784 0.2784
0.9451 0.2784 0.2784
0.9765 0.2784 0.2784
1.0000 0.2784 0.2784
1.0000 0.2784 0.2784
0.0000 0.3059 0.3059
0.0392 0.3059 0.3059
0.0824 0.3059 0.3059
0.1294 0.3059 0.3059
0.1686 0.3059 0.3059
0.2078 0.3059 0.3059
0.2392 0.3059 0.3059
0.2784 0.3059 0.3059
0.3137 0.3059 0.3059
0.3490 0.3059 0.3059
0.3804 0.3059 0.3059
0.4118 0.3059 0.3059
0.4471 0.3059 0.3059
0.4824 0.3059 0.3059
0.5137 0.3059 0.3059
0.5451 0.3059 0.3059
0.5804 0.3059 0.3059
0.6078 0.3059 0.3059
0.6392 0.3059 0.3059
0.6706 0.3059 0.3059
0.7059 0.3059 0.3059
0.7333 0.3059 0.3059
0.7647 0.3059 0.3059
0.7961 0.3059 0.3059
0.8235 0.3059 0.3059
0.8549 0.3059 0.3059
0.8863 0.3059 0.3059
0.9137 0.3059 0.3059
0.9451 0.3059 0.3059
0.9765 0.3059 0.3059
1.0000 0.3059 0.3059
1.0000 0.3059 0.3059
0.0000 0.3294 0.3294
0.0392 0.3294 0.3294
0.0824 0.3294 0.3294
0.1294 0.3294 0.3294
0.1686 0.3294 0.3294
0.2078 0.3294 0.3294
0.2392 0.3294 0.3294
0.2784 0.3294 0.3294
0.3137 0.3294 0.3294
0.3490 0.3294 0.3294
0.3804 0.3294 0.3294
0.4118 0.3294 0.3294
0.4471 0.3294 0.3294
0.4824 0.3294 0.3294
0.5137 0.3294 0.3294
0.5451 0.3294 0.3294
0.5804 0.3294 0.3294
0.6078 0.3294 0.3294
0.6392 0.3294 0.3294
0.6706 0.3294 0.3294
0.7059 0.3294 0.3294
0.7333 0.3294 0.3294
0.7647 0.3294 0.3294
0.7961 0.3294 0.3294
0.8235 0.3294 0.3294
0.8549 0.3294 0.3294
0.8863 0.3294 0.3294
0.9137 0.3294 0.3294
0.9451 0.3294 0.3294
0.9765 0.3294 0.3294
1.0000 0.3294 0.3294
1.0000 0.3294 0.3294
0.0000 0.3608 0.3608
0.0392 0.3608 0.3608
0.0824 0.3608 0.3608
0.1294 0.3608 0.3608
0.1686 0.3608 0.3608
0.2078 0.3608 0.3608
0.2392 0.3608 0.3608
0.2784 0.3608 0.3608
0.3137 0.3608 0.3608
0.3490 0.3608 0.3608
0.3804 0.3608 0.3608
0.4118 0.3608 0.3608
0.4471 0.3608 0.3608
0.4824 0.3608 0.3608
0.5137 0.3608 0.3608
0.5451 0.3608 0.3608
0.5804 0.3608 0.3608
0.6078 0.3608 0.3608
0.6392 0.3608 0.3608
0.6706 0.3608 0.3608
0.7059 0.3608 0.3608
0.7333 0.3608 0.3608
0.7647 0.3608 0.3608
0.7961 0.3608 0.3608
0.8235 0.3608 0.3608
0.8549 0.3608 0.3608
0.8863 0.3608 0.3608
0.9137 0.3608 0.3608
0.9451 0.3608 0.3608
0.9765 0.3608 0.3608
1.0000 0.3608 0.3608
1.0000 0.3608 0.3608
0.0000 0.3843 0.3843
0.0392 0.3843 0.3843
0.0824 0.3843 0.3843
0.1294 0.3843 0.3843
0.1686 0.3843 0.3843
0.2078 0.3843 0.3843
0.2392 0.3843 0.3843
0.2784 0.3843 0.3843
0.3137 0.3843 0.3843
0.3490 0.3843 0.3843
0.3804 0.3843 0.3843
0.4118 0.3843 0.3843
0.4471 0.3843 0.3843
0.4824 0.3843 0.3843
0.5137 0.3843 0.3843
0.5451 0.3843 0.3843
0.5804 0.3843 0.3843
0.6078 0.3843 0.3843
0.6392 0.3843 0.3843
0.6706 0.3843 0.3843
0.7059 0.3843 0.3843
0.7333 0.3843 0.3843
0.7647 0.3843 0.3843
0.7961 0.3843 0.3843
0.8235 0.3843 0.3843
0.8549 0.3843 0.3843
0.8863 0.3843 0.3843
0.9137 0.3843 0.3843
0.9451 0.3843 0.3843
0.9765 0.3843 0.3843
1.0000 0.3843 0.3843
1.0000 0.3843 0.3843
0.0000 0.4118 0.4118
0.0392 0.4118 0.4118
0.0824 0.4118 0.4118
0.1294 0.4118 0.4118
0.1686 0.4118 0.4118
0.2078 0.4118 0.4118
0.2392 0.4118 0.4118
0.2784 0.4118 0.4118
0.3137 0.4118 0.4118
0.3490 0.4118 0.4118
0.3804 0.4118 0.4118
0.4118 0.4118 0.4118
0.4471 0.4118 0.4118
0.4824 0.4118 0.4118
0.5137 0.4118 0.4118
0.5451 0.4118 0.4118
0.5804 0.4118 0.4118
0.6078 0.4118 0.4118
0.6392 0.4118 0.4118
0.6706 0.4118 0.4118
0.7059 0.4118 0.4118
0.7333 0.4118 0.4118
0.7647 0.4118 0.4118
0.7961 0.4118 0.4118
0.8235 0.4118 0.4118
0.8549 0.4118 0.4118
0.8863 0.4118 0.4118
0.9137 0.4118 0.4118
0.9451 0.4118 0.4118
0.9765 0.4118 0.4118
1.0000 0.4118 0.4118
1.0000 0.4118 0.4118
0.0000 0.4353 0.4353
0.0392 0.4353 0.4353
0.0824 0.4353 0.4353
0.1294 0.4353 0.4353
0.1686 0.4353 0.4353
0.2078 0.4353 0.4353
0.2392 0.4353 0.4353
0.2784 0.4353 0.4353
0.3137 0.4353 0.4353
0.3490 0.4353 0.4353
0.3804 0.4353 0.4353
0.4118 0.4353 0.4353
0.4471 0.4353 0.4353
0.4824 0.4353 0.4353
0.5137 0.4353 0.4353
0.5451 0.4353 0.4353
0.5804 0.4353 0.4353
0.6078 0.4353 0.4353
0.6392 0.4353 0.4353
0.6706 0.4353 0.4353
0.7059 0.4353 0.4353
0.7333 0.4353 0.4353
0.7647 0.4353 0.4353
0.7961 0.4353 0.4353
0.8235 0.4353 0.4353
0.8549 0.4353 0.4353
0.8863 0.4353 0.4353
0.9137 0.4353 0.4353
0.9451 0.4353 0.4353
0.9765 0.4353 0.4353
1.0000 0.4353 0.4353
1.0000 0.4353 0.4353
0.0000 0.4627 0.4627
0.0392 0.4627 0.4627
0.0824 0.4627 0.4627
0.1294 0.4627 0.4627
0.1686 0.4627 0.4627
0.2078 0.4627 0.4627
0.2392 0.4627 0.4627
0.2784 0.4627 0.4627
0.3137 0.4627 0.4627
0.3490 0.4627 0.4627
0.3804 0.4627 0.4627
0.4118 0.4627 0.4627
0.4471 0.4627 0.4627
0.4824 0.4627 0.4627
0.5137 0.4627 0.4627
0.5451 0.4627 0.4627
0.5804 0.4627 0.4627
0.6078 0.4627 0.4627
0.6392 0.4627 0.4627
0.6706 0.4627 0.4627
0.7059 0.4627 0.4627
0.7333 0.4627 0.4627
0.7647 0.4627 0.4627
0.7961 0.4627 0.4627
0.8235 0.4627 0.4627
0.8549 0.4627 0.4627
0.8863 0.4627 0.4627
0.9137 0.4627 0.4627
0.9451 0.4627 0.4627
0.9765 0.4627 0.4627
1.0000 0.4627 0.4627
1.0000 0.4627 0.4627
0.0000 0.4863 0.4863
0.0392 0.4863 0.4863
0.0824 0.4863 0.4863
0.1294 0.4863 0.4863
0.1686 0.4863 0.4863
0.2078 0.4863 0.4863
0.2392 0.4863 0.4863
0.2784 0.4863 0.4863
0.3137 0.4863 0.4863
0.3490 0.4863 0.4863
0.3804 0.4863 0.4863
0.4118 0.4863 0.4863
0.4471 0.4863 0.4863
0.4824 0.4863 0.4863
0.5137 0.4863 0.4863
0.5451 0.4863 0.4863
0.5804 0.4863 0.4863
0.6078 0.4863 0.4863
0.6392 0.4863 0.4863
0.6706 0.4863 0.4863
0.7059 0.4863 0.4863
0.7333 0.4863 0.4863
0.7647 0.4863 0.4863
0.7961 0.4863 0.4863
0.8235 0.4863 0.4863
0.8549 0.4863 0.4863
0.8863 0.4863 0.4863
0.9137 0.4863 0.4863
0.9451 0.4863 0.4863
0.9765 0.4863 0.4863
1.0000 0.4863 0.4863
1.0000 0.4863 0.4863
0.0000 0.5137 0.5137
0.0392 0.5137 0.5137
0.0824 0.5137 0.5137
0.1294 0.5137 0.5137
0.1686 0.5137 0.5137
0.2078 0.5137 0.5137
0.2392 0.5137 0.5137
0.2784 0.5137 0.5137
0.3137 0.5137 0.5137
0.3490 0.5137 0.5137
0.3804 0.5137 0.5137
0.4118 0.5137 0.5137
0.4471 0.5137 0.5137
0.4824 0.5137 0.5137
0.5137 0.5137 0.5137
0.5451 0.5137 0.5137
0.5804 0.5137 0.5137
0.6078 0.5137 0.5137
0.6392 0.5137 0.5137
0.6706 0.5137 0.5137
0.7059 0.5137 0.5137
0.7333 0.5137 0.5137
0.7647 0.5137 0.5137
0.7961 0.5137 0.5137
0.8235 0.5137 0.5137
0.8549 0.5137 0.5137
0.8863 0.5137 0.5137
0.9137 0.5137 0.5137
0.9451 0.5137 0.5137
0.9765 0.5137 0.5137
1.0000 0.5137 0.5137
1.0000 0.5137 0.5137
0.0000 0.5373 0.5373
0.0392 0.5373 0.5373
0.0824 0.5373 0.5373
0.1294 0.5373 0.5373
0.1686 0.5373 0.5373
0.2078 0.5373 0.5373
0.2392 0.5373 0.5373
0.2784 0.5373 0.5373
0.3137 0.5373 0.5373
0.3490 0.5373 0.5373
0.3804 0.5373 0.5373
0.4118 0.5373 0.5373
0.4471 0.5373 0.5373
0.4824 0.5373 0.5373
0.5137 0.5373 0.5373
0.5451 0.5373 0.5373
0.5804 0.5373 0.5373
0.6078 0.5373 0.5373
0.6392 0.5373 0.5373
0.6706 0.5373 0.5373
0.7059 0.5373 0.5373
0.7333 0.5373 0.5373
0.7647 0.5373 0.5373
0.7961 0.5373 0.5373
0.8235 0.5373 0.5373
0.8549 0.5373 0.5373
0.8863 0.5373 0.5373
0.9137 0.5373 0.5373
0.9451 0.5373 0.5373
0.9765 0.5373 0.5373
1.0000 0.5373 0.5373
1.0000 0.5373 0.5373
0.0000 0.5647 0.5647
0.0392 0.5647 0.5647
0.0824 0.5647 0.5647
0.1294 0.5647 0.5647
0.1686 0.5647 0.5647
0.2078 0.5647 0.5647
0.2392 0.5647 0.5647
0.2784 0.5647 0.5647
0.3137 0.5647 0.5647
0.3490 0.5647 0.5647
0.3804 0.5647 0.5647
0.4118 0.5647 0.5647
0.4471 0.5647 0.5647
0.4824 0.5647 0.5647
0.5137 0.5647 0.5647
0.5451 0.5647 0.5647
0.5804 0.5647 0.5647
0.6078 0.5647 0.5647
0.6392 0.5647 0.5647
0.6706 0.5647 0.5647
0.7059 0.5647 0.5647
0.7333 0.5647 0.5647
0.7647 0.5647 0.5647
0.7961 0.5647 0.5647
0.8235 0.5647 0.5647
0.8549 0.5647 0.5647
0.8863 0.5647 0.5647
0.9137 0.5647 0.5647
0.9451 0.5647 0.5647
0.9765 0.5647 0.5647
1.0000 0.5647 0.5647
1.0000 0.5647 0.5647
0.0000 0.5882 0.5882
0.0392 0.5882 0.5882
0.0824 0.5882 0.5882
0.1294 0.5882 0.5882
0.1686 0.5882 0.5882
0.2078 0.5882 0.5882
0.2392 0.5882 0.5882
0.2784 0.5882 0.5882
0.3137 0.5882 0.5882
0.3490 0.5882 0.5882
0.3804 0.5882 0.5882
0.4118 0.5882 0.5882
0.4471 0.5882 0.5882
0.4824 0.5882 0.5882
0.5137 0.5882 0.5882
0.5451 0.5882 0.5882
0.5804 0.5882 0.5882
0.6078 0.5882 0.5882
0.6392 0.5882 0.5882
0.6706 0.5882 0.5882
0.7059 0.5882 0.5882
0.7333 0.5882 0.5882
0.7647 0.5882 0.5882
0.7961 0.5882 0.5882
0.8235 0.5882 0.5882
0.8549 0.5882 0.5882
0.8863 0.5882 0.5882
0.9137 0.5882 0.5882
0.9451 0.5882 0.5882
0.9765 0.5882 0.5882
1.0000 0.5882 0.5882
1.0000 0.5882 0.5882
0.0000 0.6118 0.6118
0.0392 0.6118 0.6118
0.0824 0.6118 0.6118
0.1294 0.6118 0.6118
0.1686 0.6118 0.6118
0.2078 0.6118 0.6118
0.2392 0.6118 0.6118
0.2784 0.6118 0.6118
0.3137 0.6118 0.6118
0.3490 0.6118 0.6118
0.3804 0.6118 0.6118
0.4118 0.6118 0.6118
0.4471 0.6118 0.6118
0.4824 0.6118 0.6118
0.5137 0.6118 0.6118
0.5451 0.6118 0.6118
0.5804 0.6118 0.6118
0.6078 0.6118 0.6118
0.6392 0.6118 0.6118
0.6706 0.6118 0.6118
0.7059 0.6118 0.6118
0.7333 0.6118 0.6118
0.7647 0.6118 0.6118
0.7961 0.6118 0.6118
0.8235 0.6118 0.6118
0.8549 0.6118 0.6118
0.8863 0.6118 0.6118
0.9137 0.6118 0.6118
0.9451 0.6118 0.6118
0.9765 0.6118 0.6118
1.0000 0.6118 0.6118
1.0000 0.6118 0.6118
0.0000 0.6353 0.6353
0.0392 0.6353 0.6353
0.0824 0.6353 0.6353
0.1294 0.6353 0.6353
0.1686 0.6353 0.6353
0.2078 0.6353 0.6353
0.2392 0.6353 0.6353
0.2784 0.6353 0.6353
0.3137 0.6353 0.6353
0.3490 0.6353 0.6353
0.3804 0.6353 0.6353
0.4118 0.6353 0.6353
0.4471 0.6353 0.6353
0.4824 0.6353 0.6353
0.5137 0.6353 0.6353
0.5451 0.6353 0.6353
0.5804 0.6353 0.6353
0.6078 0.6353 0.6353
0.6392 0.6353 0.6353
0.6706 0.6353 0.6353
0.7059 0.6353 0.6353
0.7333 0.6353 0.6353
0.7647 0.6353 0.6353
0.7961 0.6353 0.6353
0.8235 0.6353 0.6353
0.8549 0.6353 0.6353
0.8863 0.6353 0.6353
0.9137 0.6353 0.6353
0.9451 0.6353 0.6353
0.9765 0.6353 0.6353
1.0000 0.6353 0.6353
1.0000 0.6353 0.6353
0.0000 0.6588 0.6588
0.0392 0.6588 0.6588
0.0824 0.6588 0.6588
0.1294 0.6588 0.6588
0.1686 0.6588 0.6588
0.2078 0.6588 0.6588
0.2392 0.6588 0.6588
0.2784 0.6588 0.6588
0.3137 0.6588 0.6588
0.3490 0.6588 0.6588
0.3804 0.6588 0.6588
0.4118 0.6588 0.6588
0.4471 0.6588 0.6588
0.4824 0.6588 0.6588
0.5137 0.6588 0.6588
0.5451 0.6588 0.6588
0.5804 0.6588 0.6588
0.6078 0.6588 0.6588
0.6392 0.6588 0.6588
0.6706 0.6588 0.6588
0.7059 0.6588 0.6588
0.7333 0.6588 0.6588
0.7647 0.6588 0.6588
0.7961 0.6588 0.6588
0.8235 0.6588 0.6588
0.8549 0.6588 0.6588
0.8863 0.6588 0.6588
0.9137 0.6588 0.6588
0.9451 0.6588 0.6588
0.9765 0.6588 0.6588
1.0000 0.6588 0.6588
1.0000 0.6588 0.6588
0.0000 0.6863 0.6863
0.0392 0.6863 0.6863
0.0824 0.6863 0.6863
0.1294 0.6863 0.6863
0.1686 0.6863 0.6863
0.2078 0.6863 0.6863
0.2392 0.6863 0.6863
0.2784 0.6863 0.6863
0.3137 0.6863 0.6863
0.3490 0.6863 0.6863
0.3804 0.6863 0.6863
0.4118 0.6863 0.6863
0.4471 0.6863 0.6863
0.4824 0.6863 0.6863
0.5137 0.6863 0.6863
0.5451 0.6863 0.6863
0.5804 0.6863 0.6863
0.6078 0.6863 0.6863
0.6392 0.6863 0.6863
0.6706 0.6863 0.6863
0.7059 0.6863 0.6863
0.7333 0.6863 0.6863
0.7647 0.6863 0.6863
0.7961 0.6863 0.6863
0.8235 0.6863 0.6863
0.8549 0.6863 0.6863
0.8863 0.6863 0.6863
0.9137 0.6863 0.6863
0.9451 0.6863 0.6863
0.9765 0.6863 0.6863
1.0000 0.6863 0.6863
1.0000 0.6863 0.6863
0.0000 0.7098 0.7098
0.0392 0.7098 0.7098
0.0824 0.7098 0.7098
0.1294 0.7098 0.7098
0.1686 0.7098 0.7098
0.2078 0.7098 0.7098
0.2392 0.7098 0.7098
0.2784 0.7098 0.7098
0.3137 0.7098 0.7098
0.3490 0.7098 0.7098
0.3804 0.7098 0.7098
0.4118 0.7098 0.7098
0.4471 0.7098 0.7098
0.4824 0.7098 0.7098
0.5137 0.7098 0.7098
0.5451 0.7098 0.7098
0.5804 0.7098 0.7098
0.6078 0.7098 0.7098
0.6392 0.7098 0.7098
0.6706 0.7098 0.7098
0.7059 0.7098 0.7098
0.7333 0.7098 0.7098
0.7647 0.7098 0.7098
0.7961 0.7098 0.7098
0.8235 0.7098 0.7098
0.8549 0.7098 0.7098
0.8863 0.7098 0.7098
0.9137 0.7098 0.7098
0.9451 0.7098 0.7098
0.9765 0.7098 0.7098
1.0000 0.7098 0.7098
1.0000 0.7098 0.7098
0.0000 0.7333 0.7333
0.0392 0.7333 0.7333
0.0824 0.7333 0.7333
0.1294 0.7333 0.7333
0.1686 0.7333 0.7333
0.2078 0.7333 0.7333
0.2392 0.7333 0.7333
0.2784 0.7333 0.7333
0.3137 0.7333 0.7333
0.3490 0.7333 0.7333
0.3804 0.7333 0.7333
0.4118 0.7333 0.7333
0.4471 0.7333 0.7333
0.4824 0.7333 0.7333
0.5137 0.7333 0.7333
0.5451 0.7333 0.7333
0.5804 0.7333 0.7333
0.6078 0.7333 0.7333
0.6392 0.7333 0.7333
0.6706 0.7333 0.7333
0.7059 0.7333 0.7333
0.7333 0.7333 0.7333
0.7647 0.7333 0.7333
0.7961 0.7333 0.7333
0.8235 0.7333 0.7333
0.8549 0.7333 0.7333
0.8863 0.7333 0.7333
0.9137 0.7333 0.7333
0.9451 0.7333 0.7333
0.9765 0.7333 0.7333
1.0000 0.7333 0.7333
1.0000 0.7333 0.7333
0.0000 0.7569 0.7569
0.0392 0.7569 0.7569
0.0824 0.7569 0.7569
0.1294 0.7569 0.7569
