luts/film_looks/2Strip.cube
TITLE "2Strip"
LUT_3D_SIZE 8
DOMAIN_MIN 0.000000 0.000000 0.000000
DOMAIN_MAX 0.903226 0.903226 0.903226
0.0000 0.0000 0.0000
0.1686 0.0000 0.0000
0.3137 0.0000 0.0000
0.4471 0.0000 0.0000
0.5804 0.0000 0.0000
0.7059 0.0000 0.0000
0.8235 0.0000 0.0000
0.9451 0.0000 0.0000
0.0000 0.1333 0.1333
0.1686 0.1333 0.1333
0.3137 0.1333 0.1333
0.4471 0.1333 0.1333
0.5804 0.1333 0.1333
0.7059 0.1333 0.1333
0.8235 0.1333 0.1333
0.9451 0.1333 0.1333
0.0000 0.2510 0.2510
0.1686 0.2510 0.2510
0.3137 0.2510 0.2510
0.4471 0.2510 0.2510
0.5804 0.2510 0.2510
0.7059 0.2510 0.2510
0.8235 0.2510 0.2510
0.9451 0.2510 0.2510
0.0000 0.3608 0.3608
0.1686 0.3608 0.3608
0.3137 0.3608 0.3608
0.4471 0.3608 0.3608
0.5804 0.3608 0.3608
0.7059 0.3608 0.3608
0.8235 0.3608 0.3608
0.9451 0.3608 0.3608
0.0000 0.4627 0.4627
0.1686 0.4627 0.4627
0.3137 0.4627 0.4627
0.4471 0.4627 0.4627
0.5804 0.4627 0.4627
0.7059 0.4627 0.4627
0.8235 0.4627 0.4627
0.9451 0.4627 0.4627
0.0000 0.5647 0.5647
0.1686 0.5647 0.5647
0.3137 0.5647 0.5647
0.4471 0.5647 0.5647
0.5804 0.5647 0.5647
0.7059 0.5647 0.5647
0.8235 0.5647 0.5647
0.9451 0.5647 0.5647
0.0000 0.6588 0.6588
0.1686 0.6588 0.6588
0.3137 0.6588 0.6588
0.4471 0.6588 0.6588
0.5804 0.6588 0.6588
0.7059 0.6588 0.6588
0.8235 0.6588 0.6588
0.9451 0.6588 0.6588
0.0000 0.7569 0.7569
0.1686 0.7569 0.7569
0.3137 0.7569 0.7569
0.4471 0.7569 0.7569
0.5804 0.7569 0.7569
0.7059 0.7569 0.7569
0.8235 0.7569 0.7569
0.9451 0.7569 0.7569
0.0000 0.0353 0.0353
0.1686 0.0353 0.0353
0.3137 0.0353 0.0353
0.4471 0.0353 0.0353
0.5804 0.0353 0.0353
0.7059 0.0353 0.0353
0.8235 0.0353 0.0353
0.9451 0.0353 0.0353
0.0000 0.1686 0.1686
0.1686 0.1686 0.1686
0.3137 0.1686 0.1686
0.4471 0.1686 0.1686
0.5804 0.1686 0.1686
0.7059 0.1686 0.1686
0.8235 0.1686 0.1686
0.9451 0.1686 0.1686
0.0000 0.2863 0.2863
0.1686 0.2863 0.2863
0.3137 0.2863 0.2863
0.4471 0.2863 0.2863
0.5804 0.2863 0.2863
0.7059 0.2863 0.2863
0.8235 0.2863 0.2863
0.9451 0.2863 0.2863
0.0000 0.3922 0.3922
0.1686 0.3922 0.3922
0.3137 0.3922 0.3922
0.4471 0.3922 0.3922
0.5804 0.3922 0.3922
0.7059 0.3922 0.3922
0.8235 0.3922 0.3922
0.9451 0.3922 0.3922
0.0000 0.4980 0.4980
0.1686 0.4980 0.4980
0.3137 0.4980 0.4980
0.4471 0.4980 0.4980
0.5804 0.4980 0.4980
0.7059 0.4980 0.4980
0.8235 0.4980 0.4980
0.9451 0.4980 0.4980
0.0000 0.5961 0.5961
0.1686 0.5961 0.5961
0.3137 0.5961 0.5961
0.4471 0.5961 0.5961
0.5804 0.5961 0.5961
0.7059 0.5961 0.5961
0.8235 0.5961 0.5961
0.9451 0.5961 0.5961
0.0000 0.6941 0.6941
0.1686 0.6941 0.6941
0.3137 0.6941 0.6941
0.4471 0.6941 0.6941
0.5804 0.6941 0.6941
0.7059 0.6941 0.6941
0.8235 0.6941 0.6941
0.9451 0.6941 0.6941
0.0000 0.7882 0.7882
0.1686 0.7882 0.7882
0.3137 0.7882 0.7882
0.4471 0.7882 0.7882
0.5804 0.7882 0.7882
0.7059 0.7882 0.7882
0.8235 0.7882 0.7882
0.9451 0.7882 0.7882
0.0000 0.0627 0.0627
0.1686 0.0627 0.0627
0.3137 0.0627 0.0627
0.4471 0.0627 0.0627
0.5804 0.0627 0.0627
0.7059 0.0627 0.0627
0.8235 0.0627 0.0627
0.9451 0.0627 0.0627
0.0000 0.1961 0.1961
0.1686 0.1961 0.1961
0.3137 0.1961 0.1961
0.4471 0.1961 0.1961
0.5804 0.1961 0.1961
0.7059 0.1961 0.1961
0.8235 0.1961 0.1961
0.9451 0.1961 0.1961
0.0000 0.3137 0.3137
0.1686 0.3137 0.3137
0.3137 0.3137 0.3137
0.4471 0.3137 0.3137
0.5804 0.3137 0.3137
0.7059 0.3137 0.3137
0.8235 0.3137 0.3137
0.9451 0.3137 0.3137
0.0000 0.4235 0.4235
0.1686 0.4235 0.4235
0.3137 0.4235 0.4235
0.4471 0.4235 0.4235
0.5804 0.4235 0.4235
0.7059 0.4235 0.4235
0.8235 0.4235 0.4235
0.9451 0.4235 0.4235
0.0000 0.5255 0.5255
0.1686 0.5255 0.5255
0.3137 0.5255 0.5255
0.4471 0.5255 0.5255
0.5804 0.5255 0.5255
0.7059 0.5255 0.5255
0.8235 0.5255 0.5255
0.9451 0.5255 0.5255
0.0000 0.6275 0.6275
0.1686 0.6275 0.6275
0.3137 0.6275 0.6275
0.4471 0.6275 0.6275
0.5804 0.6275 0.6275
0.7059 0.6275 0.6275
0.8235 0.6275 0.6275
0.9451 0.6275 0.6275
0.0000 0.7216 0.7216
0.1686 0.7216 0.7216
0.3137 0.7216 0.7216
0.4471 0.7216 0.7216
0.5804 0.7216 0.7216
0.7059 0.7216 0.7216
0.8235 0.7216 0.7216
0.9451 0.7216 0.7216
0.0000 0.8196 0.8196
0.1686 0.8196 0.8196
0.3137 0.8196 0.8196
0.4471 0.8196 0.8196
0.5804 0.8196 0.8196
0.7059 0.8196 0.8196
0.8235 0.8196 0.8196
0.9451 0.8196 0.8196
0.0000 0.0902 0.0902
0.1686 0.0902 0.0902
0.3137 0.0902 0.0902
0.4471 0.0902 0.0902
0.5804 0.0902 0.0902
0.7059 0.0902 0.0902
0.8235 0.0902 0.0902
0.9451 0.0902 0.0902
0.0000 0.2235 0.2235
0.1686 0.2235 0.2235
0.3137 0.2235 0.2235
0.4471 0.2235 0.2235
0.5804 0.2235 0.2235
0.7059 0.2235 0.2235
0.8235 0.2235 0.2235
0.9451 0.2235 0.2235
0.0000 0.3412 0.3412
0.1686 0.3412 0.3412
0.3137 0.3412 0.3412
0.4471 0.3412 0.3412
0.5804 0.3412 0.3412
0.7059 0.3412 0.3412
0.8235 0.3412 0.3412
0.9451 0.3412 0.3412
0.0000 0.4471 0.4471
0.1686 0.4471 0.4471
0.3137 0.4471 0.4471
0.4471 0.4471 0.4471
0.5804 0.4471 0.4471
0.7059 0.4471 0.4471
0.8235 0.4471 0.4471
0.9451 0.4471 0.4471
0.0000 0.5529 0.5529
0.1686 0.5529 0.5529
0.3137 0.5529 0.5529
0.4471 0.5529 0.5529
0.5804 0.5529 0.5529
0.7059 0.5529 0.5529
0.8235 0.5529 0.5529
0.9451 0.5529 0.5529
0.0000 0.6549 0.6549
0.1686 0.6549 0.6549
0.3137 0.6549 0.6549
0.4471 0.6549 0.6549
0.5804 0.6549 0.6549
0.7059 0.6549 0.6549
0.8235 0.6549 0.6549
0.9451 0.6549 0.6549
0.0000 0.7490 0.7490
0.1686 0.7490 0.7490
0.3137 0.7490 0.7490
0.4471 0.7490 0.7490
0.5804 0.7490 0.7490
0.7059 0.7490 0.7490
0.8235 0.7490 0.7490
0.9451 0.7490 0.7490
0.0000 0.8431 0.8431
0.1686 0.8431 0.8431
0.3137 0.8431 0.8431
0.4471 0.8431 0.8431
0.5804 0.8431 0.8431
0.7059 0.8431 0.8431
0.8235 0.8431 0.8431
0.9451 0.8431 0.8431
0.0000 0.1176 0.1176
0.1686 0.1176 0.1176
0.3137 0.1176 0.1176
0.4471 0.1176 0.1176
0.5804 0.1176 0.1176
0.7059 0.1176 0.1176
0.8235 0.1176 0.1176
0.9451 0.1176 0.1176
0.0000 0.2510 0.2510
0.1686 0.2510 0.2510
0.3137 0.2510 0.2510
0.4471 0.2510 0.2510
0.5804 0.2510 0.2510
0.7059 0.2510 0.2510
0.8235 0.2510 0.2510
0.9451 0.2510 0.2510
0.0000 0.3686 0.3686
0.1686 0.3686 0.3686
0.3137 0.3686 0.3686
0.4471 0.3686 0.3686
0.5804 0.3686 0.3686
0.7059 0.3686 0.3686
0.8235 0.3686 0.3686
0.9451 0.3686 0.3686
0.0000 0.4745 0.4745
0.1686 0.4745 0.4745
0.3137 0.4745 0.4745
0.4471 0.4745 0.4745
0.5804 0.4745 0.4745
0.7059 0.4745 0.4745
0.8235 0.4745 0.4745
0.9451 0.4745 0.4745
0.0000 0.5804 0.5804
0.1686 0.5804 0.5804
0.3137 0.5804 0.5804
0.4471 0.5804 0.5804
0.5804 0.5804 0.5804
0.7059 0.5804 0.5804
0.8235 0.5804 0.5804
0.9451 0.5804 0.5804
0.0000 0.6784 0.6784
0.1686 0.6784 0.6784
0.3137 0.6784 0.6784
0.4471 0.6784 0.6784
0.5804 0.6784 0.6784
0.7059 0.6784 0.6784
0.8235 0.6784 0.6784
0.9451 0.6784 0.6784
0.0000 0.7765 0.7765
0.1686 0.7765 0.7765
0.3137 0.7765 0.7765
0.4471 0.7765 0.7765
0.5804 0.7765 0.7765
0.7059 0.7765 0.7765
0.8235 0.7765 0.7765
0.9451 0.7765 0.7765
0.0000 0.8706 0.8706
0.1686 0.8706 0.8706
0.3137 0.8706 0.8706
0.4471 0.8706 0.8706
0.5804 0.8706 0.8706
0.7059 0.8706 0.8706
0.8235 0.8706 0.8706
0.9451 0.8706 0.8706
0.0000 0.1412 0.1412
0.1686 0.1412 0.1412
0.3137 0.1412 0.1412
0.4471 0.1412 0.1412
0.5804 0.1412 0.1412
0.7059 0.1412 0.1412
0.8235 0.1412 0.1412
0.9451 0.1412 0.1412
0.0000 0.2745 0.2745
0.1686 0.2745 0.2745
0.3137 0.2745 0.2745
0.4471 0.2745 0.2745
0.5804 0.2745 0.2745
0.7059 0.2745 0.2745
0.8235 0.2745 0.2745
0.9451 0.2745 0.2745
0.0000 0.3922 0.3922
0.1686 0.3922 0.3922
0.3137 0.3922 0.3922
0.4471 0.3922 0.3922
0.5804 0.3922 0.3922
0.7059 0.3922 0.3922
0.8235 0.3922 0.3922
0.9451 0.3922 0.3922
0.0000 0.5020 0.5020
0.1686 0.5020 0.5020
0.3137 0.5020 0.5020
0.4471 0.5020 0.5020
0.5804 0.5020 0.5020
0.7059 0.5020 0.5020
0.8235 0.5020 0.5020
0.9451 0.5020 0.5020
0.0000 0.6039 0.6039
0.1686 0.6039 0.6039
0.3137 0.6039 0.6039
0.4471 0.6039 0.6039
0.5804 0.6039 0.6039
0.7059 0.6039 0.6039
0.8235 0.6039 0.6039
0.9451 0.6039 0.6039
0.0000 0.7059 0.7059
0.1686 0.7059 0.7059
0.3137 0.7059 0.7059
0.4471 0.7059 0.7059
0.5804 0.7059 0.7059
0.7059 0.7059 0.7059
0.8235 0.7059 0.7059
0.9451 0.7059 0.7059
0.0000 0.8000 0.8000
0.1686 0.8000 0.8000
0.3137 0.8000 0.8000
0.4471 0.8000 0.8000
0.5804 0.8000 0.8000
0.7059 0.8000 0.8000
0.8235 0.8000 0.8000
0.9451 0.8000 0.8000
0.0000 0.8941 0.8941
0.1686 0.8941 0.8941
0.3137 0.8941 0.8941
0.4471 0.8941 0.8941
0.5804 0.8941 0.8941
0.7059 0.8941 0.8941
0.8235 0.8941 0.8941
0.9451 0.8941 0.8941
0.0000 0.1647 0.1647
0.1686 0.1647 0.1647
0.3137 0.1647 0.1647
0.4471 0.1647 0.1647
0.5804 0.1647 0.1647
0.7059 0.1647 0.1647
0.8235 0.1647 0.1647
0.9451 0.1647 0.1647
0.0000 0.2980 0.2980
0.1686 0.2980 0.2980
0.3137 0.2980 0.2980
0.4471 0.2980 0.2980
0.5804 0.2980 0.2980
0.7059 0.2980 0.2980
0.8235 0.2980 0.2980
0.9451 0.2980 0.2980
0.0000 0.4157 0.4157
0.1686 0.4157 0.4157
0.3137 0.4157 0.4157
0.4471 0.4157 0.4157
0.5804 0.4157 0.4157
0.7059 0.4157 0.4157
0.8235 0.4157 0.4157
0.9451 0.4157 0.4157
0.0000 0.5255 0.5255
0.1686 0.5255 0.5255
0.3137 0.5255 0.5255
0.4471 0.5255 0.5255
0.5804 0.5255 0.5255
0.7059 0.5255 0.5255
0.8235 0.5255 0.5255
0.9451 0.5255 0.5255
0.0000 0.6275 0.6275
0.1686 0.6275 0.6275
0.3137 0.6275 0.6275
0.4471 0.6275 0.6275
0.5804 0.6275 0.6275
0.7059 0.6275 0.6275
0.8235 0.6275 0.6275
0.9451 0.6275 0.6275
0.0000 0.7294 0.7294
0.1686 0.7294 0.7294
0.3137 0.7294 0.7294
0.4471 0.7294 0.7294
0.5804 0.7294 0.7294
0.7059 0.7294 0.7294
0.8235 0.7294 0.7294
0.9451 0.7294 0.7294
0.0000 0.8235 0.8235
0.1686 0.8235 0.8235
0.3137 0.8235 0.8235
0.4471 0.8235 0.8235
0.5804 0.8235 0.8235
0.7059 0.8235 0.8235
0.8235 0.8235 0.8235
0.9451 0.8235 0.8235
0.0000 0.9216 0.9216
0.1686 0.9216 0.9216
0.3137 0.9216 0.9216
0.4471 0.9216 0.9216
0.5804 0.9216 0.9216
0.7059 0.9216 0.9216
0.8235 0.9216 0.9216
0.9451 0.9216 0.9216
0.0000 0.1882 0.1882
0.1686 0.1882 0.1882
0.3137 0.1882 0.1882
0.4471 0.1882 0.1882
0.5804 0.1882 0.1882
0.7059 0.1882 0.1882
0.8235 0.1882 0.1882
0.9451 0.1882 0.1882
0.0000 0.3255 0.3255
0.1686 0.3255 0.3255
0.3137 0.3255 0.3255
0.4471 0.3255 0.3255
0.5804 0.3255 0.3255
0.7059 0.3255 0.3255
0.8235 0.3255 0.3255
0.9451 0.3255 0.3255
0.0000 0.4392 0.4392
0.1686 0.4392 0.4392
0.3137 0.4392 0.4392
0.4471 0.4392 0.4392
0.5804 0.4392 0.4392
0.7059 0.4392 0.4392
0.8235 0.4392 0.4392
0.9451 0.4392 0.4392
0.0000 0.5490 0.5490
0.1686 0.5490 0.5490
0.3137 0.5490 0.5490
0.4471 0.5490 0.5490
0.5804 0.5490 0.5490
0.7059 0.5490 0.5490
0.8235 0.5490 0.5490
0.9451 0.5490 0.5490
0.0000 0.6510 0.6510
0.1686 0.6510 0.6510
0.3137 0.6510 0.6510
0.4471 0.6510 0.6510
0.5804 0.6510 0.6510
0.7059 0.6510 0.6510
0.8235 0.6510 0.6510
0.9451 0.6510 0.6510
0.0000 0.7529 0.7529
0.1686 0.7529 0.7529
0.3137 0.7529 0.7529
0.4471 0.7529 0.7529
0.5804 0.7529 0.7529
0.7059 0.7529 0.7529
0.8235 0.7529 0.7529
0.9451 0.7529 0.7529
0.0000 0.8471 0.8471
0.1686 0.8471 0.8471
0.3137 0.8471 0.8471
0.4471 0.8471 0.8471
0.5804 0.8471 0.8471
0.7059 0.8471 0.8471
0.8235 0.8471 0.8471
0.9451 0.8471 0.8471
0.0000 0.9451 0.9451
0.1686 0.9451 0.9451
0.3137 0.9451 0.9451
0.4471 0.9451 0.9451
0.5804 0.9451 0.9451
0.7059 0.9451 0.9451
0.8235 0.9451 0.9451
0.9451 0.9451 0.9451
