luts/film_looks/3Strip.cube
TITLE "3 Strip Technicolor"
LUT_3D_SIZE 5
DOMAIN_MIN 0.000000 0.000000 0.000000
DOMAIN_MAX 0.903226 0.903226 0.903226
0.0000 0.0000 0.0000
0.2784 0.0000 0.0000
0.5137 0.0000 0.0000
0.7333 0.0000 0.0000
0.9333 0.0000 0.0000
0.0000 0.2784 0.0000
0.2000 0.2275 0.0000
0.4667 0.1804 0.0000
0.7333 0.1804 0.0000
0.9333 0.1804 0.0000
0.0000 0.5137 0.0000
0.1333 0.4824 0.0000
0.3294 0.3882 0.0000
0.5961 0.3882 0.0000
0.8980 0.3882 0.0000
0.0000 0.7333 0.0000
0.1333 0.7373 0.0000
0.3294 0.6431 0.0000
0.5922 0.6392 0.0000
0.8902 0.6392 0.0000
0.0000 0.9333 0.0000
0.1333 0.9333 0.0000
0.3255 0.9059 0.0000
0.5922 0.9020 0.0000
0.8863 0.9020 0.0000
0.0000 0.0000 0.2784
0.2275 0.0000 0.2275
0.4824 0.0000 0.1804
0.7333 0.0000 0.1843
0.9333 0.0000 0.1843
0.0000 0.2275 0.2000
0.2745 0.2745 0.2745
0.5137 0.2039 0.2039
0.7333 0.1843 0.1843
0.9333 0.1843 0.1843
0.0000 0.4824 0.1333
0.1686 0.5098 0.1686
0.4000 0.4353 0.1922
0.6902 0.3882 0.2000
0.9333 0.3882 0.2118
0.0000 0.7333 0.1333
0.1333 0.7333 0.1373
0.3294 0.7059 0.1725
0.5922 0.6392 0.2000
0.8863 0.6392 0.2314
0.0000 0.9333 0.1333
0.1333 0.9333 0.1333
0.3294 0.9333 0.1765
0.5922 0.9020 0.2196
0.8863 0.9020 0.2588
0.0000 0.0000 0.5098
0.1804 0.0000 0.4824
0.3882 0.0000 0.3922
0.6431 0.0000 0.3922
0.9098 0.0000 0.3922
0.0000 0.1843 0.4667
0.2078 0.2078 0.5137
0.4353 0.2078 0.4353
0.7020 0.2039 0.3882
0.9333 0.2118 0.3882
0.0000 0.3922 0.3294
0.1922 0.4353 0.4000
0.5020 0.5020 0.5020
0.7333 0.4000 0.4000
0.9333 0.3922 0.3882
0.0000 0.6431 0.3294
0.1725 0.7059 0.3294
0.3451 0.7333 0.3451
0.6196 0.6588 0.3882
0.9020 0.6392 0.4314
0.0000 0.9098 0.3255
0.1804 0.9333 0.3255
0.3294 0.9333 0.3294
0.5922 0.9137 0.4039
0.8863 0.9020 0.4745
0.0000 0.0000 0.7333
0.1804 0.0000 0.7333
0.3882 0.0000 0.6431
0.6392 0.0000 0.6392
0.9020 0.0000 0.6392
0.0000 0.1843 0.7333
0.1843 0.1843 0.7333
0.3882 0.2039 0.7059
0.6392 0.2118 0.6392
0.9020 0.2353 0.6392
0.0000 0.3882 0.5961
0.2000 0.3882 0.6902
0.4000 0.4000 0.7333
0.6588 0.4118 0.6588
0.9137 0.4353 0.6392
0.0000 0.6392 0.5922
0.2000 0.6392 0.5922
0.3882 0.6588 0.6196
0.7137 0.7176 0.7137
0.9333 0.6431 0.6431
0.0000 0.9020 0.5922
0.2196 0.9020 0.5922
0.4039 0.9137 0.5922
0.5961 0.9333 0.5961
0.8902 0.9020 0.6784
0.0000 0.0000 0.9333
0.1843 0.0000 0.9333
0.3922 0.0000 0.9098
0.6392 0.0000 0.9020
0.9059 0.0000 0.9059
0.0000 0.1843 0.9333
0.1843 0.1843 0.9333
0.3882 0.2118 0.9333
0.6392 0.2392 0.9020
0.9020 0.2627 0.9020
0.0000 0.3882 0.8980
0.2118 0.3882 0.9333
0.3922 0.3922 0.9333
0.6392 0.4353 0.9137
0.9020 0.4784 0.9020
0.0000 0.6392 0.8863
0.2314 0.6392 0.8863
0.4314 0.6392 0.9059
0.6431 0.6431 0.9333
0.9020 0.6863 0.9020
0.0000 0.9020 0.8863
0.2588 0.9020 0.8863
0.4745 0.9020 0.8863
0.6784 0.9020 0.8902
0.9137 0.9176 0.9137
