luts/film_looks/Fuji3513_-_LOG.cube
LUT_3D_SIZE 9
0 0 0.0166781
0.0126497 0.00146487 0.0171359
0.0399023 0.0137484 0.0147555
0.143359 0.0242924 0
0.314977 0.0360266 0
0.44358 0.0416724 0
0.545098 0.0484169 0
0.607202 0.0523995 0
0.648844 0.0540475 0
0.00662242 0.0327001 0.0238193
0.0154726 0.033463 0.018967
0.041062 0.0378424 0.0202182
0.161639 0.0478981 0
0.34258 0.0610666 0
0.486702 0.0673991 0
0.593881 0.0745251 0
0.667964 0.0704814 0
0.691356 0.0889906 0
0 0.0719921 0.0342718
0 0.0767681 0.0358587
0.029572 0.0836194 0.0210422
0.196582 0.0983749 0
0.416632 0.114382 0
0.573236 0.127703 0
0.688716 0.135027 0
0.745846 0.147127 0
0.775189 0.164767 0
0 0.140551 0.0551003
0 0.15111 0.0573434
0 0.168963 0.0449683
0.203845 0.199542 0
0.470588 0.22269 0
0.647349 0.244373 0
0.767483 0.254765 0
0.817899 0.270146 0
0.841672 0.290227 0
0 0.251575 0.0859693
0 0.269093 0.085008
0 0.300862 0.0750591
0.169192 0.363928 0
0.493599 0.403143 0
0.687541 0.431464 0
0.816724 0.44683 0
0.870695 0.450568 0
0.887358 0.461326 0
0 0.38114 0.10956
0 0.408286 0.110918
0 0.452491 0.0716869
0.209995 0.542321 0
0.548058 0.585229 0
0.733822 0.604913 0
0.853758 0.609171 0
0.908858 0.606821 0
0.927703 0.613428 0
0 0.452003 0.123095
0 0.474723 0.116472
0 0.519677 0.076112
0.183413 0.614069 0
0.537026 0.670832 0
0.740444 0.708095 0
0.87631 0.7243 0
0.944244 0.730892 0
0.962524 0.736278 0
0 0.470008 0.127367
0 0.494545 0.121843
0 0.549172 0.0742351
0.172625 0.64387 0
0.536171 0.714992 0
0.752621 0.756924 0
0.899611 0.780087 0
0.96524 0.792325 0
0.991409 0.794339 0
0 0.526375 0.152346
0 0.570336 0.127733
0 0.641428 0.0169985
0.232654 0.697475 0
0.56965 0.757656 0
0.782254 0.793484 0
0.934707 0.816892 0
1 0.828733 0
1 0.832166 0
0 0.0150454 0.017792
0 0.0176699 0.0201114
0.0394598 0.0144198 0.0251164
0.158206 0.0230259 0.00546273
0.341131 0.0336004 0
0.473823 0.0377356 0
0.585092 0.0375982 0
0.646296 0.0415045 0
0.685191 0.044831 0
0.00943008 0.03505 0.0310674
0.0138399 0.037171 0.0331731
0.0443427 0.041062 0.0284886
0.173968 0.0466926 0.00389105
0.374624 0.0574044 0
0.522118 0.0651865 0
0.641108 0.0659342 0
0.706111 0.0708019 0
0.743511 0.0767987 0
0 0.0760815 0.0421454
0 0.081529 0.0466621
0.0274205 0.0921492 0.0368048
0.220081 0.103975 0
0.458717 0.118608 0
0.628641 0.13225 0
0.750454 0.134813 0
0.815717 0.140307 0
0.844877 0.159945 0
0 0.145968 0.0670481
0 0.159258 0.0714427
0 0.179141 0.0609293
0.22504 0.212741 0
0.51191 0.233692 0
0.708095 0.256779 0
0.836698 0.267506 0
0.891508 0.279286 0
0.916777 0.300816 0
0 0.267521 0.0954757
0 0.29543 0.104173
0 0.322683 0.0936599
0.180072 0.394537 0
0.535805 0.429511 0
0.743221 0.460456 0
0.873884 0.471214 0
0.931258 0.473625 0
0.943282 0.478248 0
0 0.408011 0.135729
0 0.43682 0.145495
0 0.479515 0.125597
0.217548 0.582147 0
0.583001 0.617868 0
0.785779 0.641489 0
0.910506 0.641627 0
0.965972 0.638926 0
0.98558 0.646555 0
0 0.478248 0.171115
0 0.498329 0.176745
0 0.54934 0.137224
0.165774 0.653284 0
0.570809 0.705272 0
0.787411 0.738994 0
0.928206 0.754482 0
1 0.762814 0
1 0.767956 0
0 0.496895 0.18793
0 0.521691 0.190463
0 0.576577 0.158984
0.110582 0.69659 0
0.570214 0.753094 0
0.802869 0.792691 0
0.956207 0.811734 0
1 0.82005 0
1 0.825406 0
0 0.550683 0.249577
0 0.599039 0.261769
0 0.669596 0.219303
0.0770428 0.764248 0
0.568551 0.803418 0
0.817884 0.84036 0
0.986328 0.856519 0
1 0.861173 0
1 0.861906 0
0 0.0200961 0.0706035
0 0.0208286 0.0770123
0.0368658 0.0181277 0.076524
0.166537 0.0254673 0.0571908
0.390555 0.00262455 0.0282292
0.532235 0.00479133 0.0146487
0.656626 0 0.00773632
0.729427 0 0.0108492
0.766979 0 0.00981155
0 0.0422675 0.0759747
0.00491341 0.0454261 0.0792859
0.0393378 0.047776 0.0823835
0.183856 0.0517891 0.0602274
0.413703 0.0534524 0.0295567
0.574502 0.0561532 0.0202792
0.711101 0.0333715 0.00849927
0.803372 0 0
0.838331 0 0
0.000411994 0.0830854 0.0883497
0.00146487 0.0937209 0.097673
0.0445869 0.100221 0.0995346
0.226886 0.116258 0.0810864
0.484672 0.129519 0.0582742
0.679957 0.125994 0.0363775
0.848615 0.0847639 0
0.947265 0.0343175 0
0.980407 0.0510109 0
0 0.161868 0.11194
0 0.178149 0.125551
0.0353094 0.189471 0.129473
0.237003 0.232441 0.0799725
0.540642 0.252949 0.0555276
0.750835 0.267369 0.0339971
0.921981 0.253788 0
1 0.247456 0
1 0.271534 0
0 0.292836 0.147356
0 0.322545 0.168093
0.0157931 0.347555 0.173358
0.185595 0.429572 0.0686351
0.565179 0.462425 0.0382849
0.775021 0.489982 0.0287022
0.927749 0.495857 0
1 0.492012 0
1 0.495171 0
0 0.441871 0.212284
0 0.470283 0.232456
0 0.511177 0.22533
0.195041 0.62417 0.0636301
0.598138 0.652781 0.0408637
0.8038 0.671473 0.0235752
0.94699 0.677409 0
1 0.67454 0
1 0.680339 0
0 0.509026 0.259342
0 0.533211 0.266178
0 0.573312 0.247272
0.0654154 0.705257 0.00218204
0.58024 0.748348 0
0.816892 0.776608 0
0.95877 0.791409 0
1 0.799466 0
1 0.805371 0
0 0.525444 0.282139
0 0.553155 0.297429
0 0.608392 0.285069
0 0.750347 0.0675975
0.56405 0.807507 0
0.835279 0.836835 0
1 0.854353 0
1 0.852232 0
1 0.858305 0
0 0.579492 0.357061
0 0.629938 0.38323
0 0.698756 0.369421
0 0.803082 0.208865
0.537575 0.845197 0.0516823
0.815335 0.873808 0
1 0.888655 0
1 0.887221 0.0859846
1 0.885496 0.173785
0 0.0516365 0.142535
0 0.0536507 0.155779
0.0250553 0.03122 0.192065
0.17406 0.019913 0.191241
0.407111 0 0.173022
0.556817 0 0.165774
0.677256 0 0.168994
0.737469 0 0.165408
0.774334 0 0.17023
0 0.0684062 0.164828
0 0.0738231 0.175143
0.0124056 0.0580301 0.209781
0.187304 0.055024 0.207095
0.434699 0.046479 0.182025
0.601709 0.0549172 0.18175
0.748089 0.0195621 0.19115
0.829999 0 0.203586
0.872602 0 0.216709
0 0.115587 0.197971
0 0.125643 0.215152
0.0415351 0.128283 0.213703
0.226276 0.131899 0.252827
0.504753 0.141756 0.235462
0.721721 0.128969 0.24242
0.888106 0.0717784 0.247425
0.973281 0.032105 0.261555
1 0.057496 0.276722
0 0.195315 0.231556
0 0.212345 0.25362
0.0347143 0.227771 0.265751
0.239078 0.259998 0.277699
0.580377 0.270924 0.25977
0.839719 0.25687 0.248203
0.97467 0.248005 0.246601
1 0.261021 0.252979
1 0.286229 0.260136
0 0.33608 0.278721
0 0.365515 0.308034
0.0237888 0.39353 0.326055
0.242527 0.453941 0.326833
0.563775 0.504921 0.275471
0.829343 0.525216 0.223758
0.999863 0.511406 0.166674
1 0.505196 0.142657
1 0.511269 0.123003
0 0.492744 0.370611
0 0.515526 0.395529
0.02121 0.554574 0.407095
0.173144 0.660471 0.34728
0.581048 0.705623 0.252186
0.804303 0.712306 0.281773
0.993957 0.714702 0.143877
1 0.708171 0.0568551
1 0.71693 0.0625162
0 0.55996 0.421851
0 0.578256 0.439902
0 0.614939 0.43592
0 0.744823 0.341726
0.540032 0.81236 0.181704
0.829557 0.834562 0.167895
0.968841 0.83714 0.231159
1 0.842145 0.1458
1 0.847288 0.162066
0 0.574807 0.444038
0 0.602457 0.468299
0 0.652323 0.480293
0 0.789059 0.407782
0.498222 0.856458 0.239292
0.812757 0.885374 0.193271
1 0.899214 0.159579
1 0.891707 0.2692
1 0.894026 0.284794
0 0.622339 0.509209
0 0.669871 0.545098
0 0.736858 0.561318
0 0.829099 0.495888
0.482567 0.880537 0.379477
0.775662 0.909041 0.353719
0.972839 0.922469 0.335668
1 0.922652 0.378698
1 0.918868 0.442344
0 0.0978866 0.252384
0 0.104677 0.2589
0 0.0507973 0.345983
0.171725 0.022797 0.372946
0.408682 0.00733959 0.370459
0.581231 0 0.375036
0.700298 0 0.3691
0.766018 0 0.373129
0.80206 0 0.382971
0 0.120699 0.281239
0 0.126818 0.292363
0.00408942 0.115831 0.316762
0.182681 0.064683 0.406561
0.444648 0.0593423 0.398489
0.626902 0.0522316 0.406332
0.771771 0.0167239 0.420752
0.853483 0 0.444022
0.892149 0 0.471015
0 0.168154 0.33521
0 0.181933 0.352346
0.0325628 0.186664 0.364157
0.212665 0.155032 0.484031
0.516365 0.163409 0.477943
0.722011 0.155001 0.502617
0.909941 0.0650034 0.54548
0.985473 0.0197299 0.57528
1 0.0575265 0.594217
0 0.247959 0.389715
0 0.269245 0.418936
0.0274205 0.285679 0.441459
0.191043 0.291722 0.567361
0.5664 0.309773 0.550393
0.832471 0.281926 0.582147
0.970718 0.270039 0.593133
1 0.281163 0.595453
1 0.311452 0.608499
0 0.396445 0.463355
0 0.424536 0.493889
0.0223545 0.457771 0.526436
0.256703 0.506432 0.545373
0.552514 0.552132 0.574701
0.826688 0.561578 0.55523
0.98056 0.544884 0.539025
1 0.5308 0.525109
1 0.538491 0.50985
0 0.555978 0.565225
0 0.581521 0.595438
0.00895705 0.612802 0.614679
0.208194 0.697917 0.627863
0.515633 0.761257 0.566369
0.799908 0.762707 0.558434
0.978973 0.759167 0.505623
1 0.747662 0.488426
1 0.753109 0.484459
0 0.618006 0.611261
0 0.636164 0.630625
0 0.67306 0.648692
0.0084535 0.7794 0.650645
0.455299 0.86508 0.565835
0.786725 0.887251 0.540261
0.956054 0.885725 0.560525
1 0.888624 0.543938
1 0.892882 0.542611
0 0.630991 0.623728
0 0.657877 0.653895
0 0.710689 0.690089
0 0.830213 0.709133
0.403952 0.903899 0.620539
0.755688 0.93022 0.594797
0.957748 0.940581 0.576242
1 0.940139 0.616495
1 0.938659 0.629297
0 0.673198 0.676005
0 0.718364 0.721706
0 0.781247 0.761166
0 0.87187 0.769863
0.398383 0.920256 0.70071
0.724178 0.943679 0.680629
0.926955 0.960525 0.665599
1 0.960632 0.673777
1 0.959869 0.718166
0 0.134264 0.324575
0 0.14052 0.33518
0 0.125856 0.375189
0.182223 0 0.525093
0.418158 0.00265507 0.516686
0.599313 0 0.532494
0.7149 0 0.525567
0.783459 0 0.528664
0.816159 0 0.542199
0 0.159167 0.369345
0 0.165698 0.38262
0 0.16083 0.409445
0.175967 0.0706798 0.559747
0.452583 0.07187 0.556313
0.63711 0.0746777 0.563836
0.772992 0.0524758 0.582879
0.864179 0 0.619089
0.905699 0 0.648661
0 0.21088 0.432944
0 0.222049 0.457298
0 0.229145 0.481041
0.205112 0.15668 0.67744
0.533242 0.163302 0.666987
0.731304 0.174578 0.676463
0.905074 0.0893568 0.736446
0.99649 0.0167391 0.786511
1 0.0611429 0.799237
0 0.293095 0.505531
0 0.315541 0.53785
0 0.331121 0.56968
0.140673 0.311177 0.772503
0.58735 0.300175 0.790188
0.829114 0.297841 0.794812
0.971374 0.280674 0.807492
1 0.291051 0.810452
1 0.323293 0.821378
0 0.440894 0.583688
0 0.474876 0.622873
0.00587472 0.499336 0.649775
0.242679 0.554498 0.6981
0.530251 0.582895 0.801297
0.804929 0.581064 0.789975
0.963211 0.564904 0.776226
1 0.551751 0.76321
1 0.559335 0.747051
0 0.594293 0.679423
0 0.619776 0.708782
0 0.650935 0.734874
0.233646 0.726055 0.775387
0.510887 0.778256 0.786923
0.773693 0.791714 0.7738
0.952438 0.783413 0.752865
1 0.77351 0.742046
1 0.78233 0.735821
0 0.652598 0.719188
0 0.670802 0.741207
0 0.702419 0.762921
0.0140078 0.80795 0.814115
0.399008 0.893431 0.799344
0.746288 0.914519 0.775998
0.938369 0.920348 0.771145
1 0.918853 0.761196
1 0.923537 0.757992
0 0.665125 0.727596
0 0.691859 0.760113
0 0.739788 0.797528
0 0.853605 0.861646
0.345357 0.931807 0.83241
0.720119 0.956054 0.811566
0.92755 0.967117 0.797528
0.997787 0.966445 0.816312
1 0.968261 0.816236
0 0.704326 0.77052
0 0.745983 0.813626
0 0.804974 0.858991
0 0.892821 0.906249
0.344289 0.946746 0.876646
0.693904 0.967407 0.855268
0.905287 0.978958 0.846448
0.994675 0.983078 0.844404
1 0.982452 0.87187
0 0.161242 0.391272
0 0.162295 0.395377
0 0.162448 0.429664
0.17052 0.0246128 0.62034
0.427008 0.00120546 0.641733
0.596536 0 0.642496
0.728435 0 0.649653
0.793667 0 0.654429
0.838026 0 0.676066
0 0.193118 0.435874
0 0.195819 0.452384
0 0.198886 0.484611
0.178637 0.0695964 0.695689
0.461707 0.0628061 0.697917
0.650309 0.0649424 0.705806
0.791943 0.0542458 0.721172
0.879072 0 0.756085
0.931838 0 0.799664
0 0.243915 0.504082
0 0.253529 0.532036
0 0.259495 0.57435
0.20618 0.130251 0.84683
0.565362 0.123674 0.846967
0.779583 0.127733 0.85243
0.905028 0.111879 0.862394
1 0.0291295 0.922698
1 0.0659495 0.935866
0 0.326253 0.590646
0 0.345144 0.612802
0 0.364492 0.666209
0.101152 0.324147 0.908293
0.584634 0.304112 0.936751
0.833036 0.298375 0.944549
0.967941 0.289311 0.947906
1 0.303288 0.95314
1 0.336034 0.952743
0 0.475135 0.673045
0 0.502434 0.700877
0 0.53196 0.732326
0.0915541 0.588754 0.854307
0.500969 0.593225 0.94966
0.789853 0.596475 0.943572
0.94847 0.575952 0.934844
1 0.556909 0.924315
1 0.568994 0.91632
0 0.623453 0.755703
0 0.646586 0.780957
0 0.674098 0.803998
0.145953 0.752377 0.876631
0.435172 0.800793 0.943999
0.748318 0.804929 0.931273
0.933135 0.796597 0.919371
1 0.790387 0.911955
1 0.798444 0.90779
0 0.674647 0.783337
0 0.690364 0.80238
0 0.725597 0.831052
0.0360876 0.823651 0.902998
0.355612 0.91162 0.945968
0.715572 0.931579 0.927214
0.921538 0.936736 0.914107
0.999268 0.93489 0.906462
1 0.940276 0.905806
0 0.683467 0.785443
0 0.711055 0.814404
0 0.758587 0.857343
0 0.871 0.944427
0.290517 0.949248 0.965362
0.693034 0.970718 0.942641
0.907408 0.97998 0.928527
0.989807 0.982986 0.926345
0.998932 0.985855 0.933944
0 0.720455 0.824933
0 0.75903 0.859281
0 0.820294 0.914199
0 0.905715 0.977996
0.299626 0.959655 0.980606
0.671885 0.979202 0.962219
0.887587 0.992157 0.948592
0.979919 0.995544 0.945373
0.995193 0.996307 0.956222
0 0.177859 0.428061
0 0.178836 0.434699
0 0.177508 0.472145
0.172885 0.0131228 0.693248
0.435264 0 0.724376
0.618479 0 0.739452
0.742382 0 0.728481
0.809262 0 0.735958
0.842451 0 0.748287
0 0.215518 0.485832
0 0.220996 0.495033
0 0.223819 0.528389
0.187411 0.0366827 0.803204
0.491096 0.0294957 0.814801
0.691447 0.0228122 0.827375
0.825849 0.0260624 0.830137
0.897002 0.0153353 0.845106
0.938796 0 0.881361
0 0.265446 0.548913
0 0.276127 0.567971
0 0.283253 0.614923
0.206088 0.116335 0.942199
0.585443 0.0923629 0.960189
0.812726 0.0834669 0.964752
0.948302 0.0599832 0.975845
1 0.0534524 0.994736
1 0.0860609 1
0 0.345144 0.627359
0 0.364324 0.652094
0 0.385763 0.708614
0.0766155 0.346288 0.959625
0.576547 0.317128 1
0.829084 0.314931 1
0.967971 0.301976 1
1 0.314076 1
1 0.337591 1
0 0.491569 0.712047
0 0.519127 0.736751
0 0.552895 0.782269
0 0.612421 0.95024
0.483452 0.602518 1
0.772442 0.59765 1
0.937118 0.579278 1
1 0.558068 1
1 0.570474 1
0 0.631586 0.784558
0 0.6533 0.808438
0 0.686732 0.844221
0 0.77229 0.951965
0.38703 0.80621 1
0.726818 0.806867 1
0.921965 0.801923 0.998184
0.994492 0.792493 0.996429
1 0.802411 0.993927
0 0.682338 0.809064
0 0.697826 0.824292
0 0.731929 0.856489
0 0.835355 0.948974
0.323461 0.920455 1
0.695811 0.939254 0.998779
0.906294 0.944091 0.989822
0.983154 0.946853 0.987106
1 0.947692 0.983597
0 0.694392 0.813474
0 0.718761 0.839475
0 0.767376 0.883207
0 0.87361 0.975891
0.259007 0.957702 1
0.674434 0.976516 1
0.893294 0.988067 0.988357
0.980713 0.990845 0.985428
0.995026 0.993683 0.987991
0 0.730251 0.846677
0 0.767208 0.881804
0 0.825391 0.934707
0 0.912428 1
0.268894 0.966384 1
0.654643 0.984131 1
0.877913 0.996857 0.996201
0.972473 0.999512 0.990509
0.99234 1 0.992676
0 0.204852 0.47808
0 0.211154 0.486534
0 0.212909 0.523674
0.184894 0 0.796353
0.465888 0 0.81648
0.658656 0 0.823301
0.788663 0 0.815259
0.858824 0 0.822171
0.890913 0 0.840833
0 0.245548 0.529809
0 0.253422 0.548943
0 0.257343 0.5823
0.184024 0.0408942 0.910613
0.520104 0.0192874 0.926986
0.748775 0 0.942519
0.884382 0.00666819 0.935424
0.953536 0.0121614 0.945449
1 0 0.986923
0 0.294774 0.589593
0 0.306401 0.607843
0 0.31693 0.658167
0.154803 0.190417 0.978454
0.573983 0.165988 0.999451
0.815198 0.150805 1
0.960647 0.125841 1
1 0.138613 1
1 0.177981 1
0 0.369375 0.652262
0 0.391867 0.678401
0 0.409842 0.736355
0.0327306 0.386328 0.992721
0.565957 0.361135 1
0.822644 0.357443 1
0.964233 0.34873 1
1 0.348547 1
1 0.380636 1
0 0.504891 0.729366
0 0.53521 0.757244
0 0.566217 0.799619
0 0.634913 0.977462
0.464378 0.617044 1
0.754192 0.610864 1
0.928527 0.589288 1
1 0.572976 1
1 0.57673 1
0 0.637415 0.797391
0 0.658518 0.818616
0 0.696406 0.858549
0 0.782483 0.978988
0.348409 0.803326 1
0.707088 0.809674 1
0.91162 0.803418 1
0.990005 0.797909 1
1 0.804227 1
0 0.681392 0.812085
0 0.698817 0.830915
0 0.743343 0.874128
0 0.849226 0.976699
0.270176 0.921355 1
0.682109 0.938567 1
0.899306 0.94316 1
0.982254 0.94551 1
0.998932 0.948379 1
0 0.698833 0.822309
0 0.720913 0.846006
0 0.772763 0.893507
0 0.874098 0.98233
0.222797 0.958984 1
0.655619 0.977218 1
0.885405 0.992172 1
0.973846 0.994919 1
0.994675 0.99321 1
0 0.732662 0.852735
0 0.76878 0.888411
0 0.826001 0.940627
0 0.911498 1
0.238834 0.968856 1
0.641932 0.984634 1
0.868437 0.997223 1
0.96875 1 1
0.992126 1 1
