luts/film_looks/Fuji3513_-_LOG.cube
LUT_3D_SIZE 5
0 0 0.0166781
0.0399023 0.0137484 0.0147555
0.314977 0.0360266 0
0.545098 0.0484169 0
0.648844 0.0540475 0
0 0.0719921 0.0342718
0.029572 0.0836194 0.0210422
0.416632 0.114382 0
0.688716 0.135027 0
0.775189 0.164767 0
0 0.251575 0.0859693
0 0.300862 0.0750591
0.493599 0.403143 0
0.816724 0.44683 0
0.887358 0.461326 0
0 0.452003 0.123095
0 0.519677 0.076112
0.537026 0.670832 0
0.87631 0.7243 0
0.962524 0.736278 0
0 0.526375 0.152346
0 0.641428 0.0169985
0.56965 0.757656 0
0.934707 0.816892 0
1 0.832166 0
0 0.0200961 0.0706035
0.0368658 0.0181277 0.076524
0.390555 0.00262455 0.0282292
0.656626 0 0.00773632
0.766979 0 0.00981155
0.000411994 0.0830854 0.0883497
0.0445869 0.100221 0.0995346
0.484672 0.129519 0.0582742
0.848615 0.0847639 0
0.980407 0.0510109 0
0 0.292836 0.147356
0.0157931 0.347555 0.173358
0.565179 0.462425 0.0382849
0.927749 0.495857 0
1 0.495171 0
0 0.509026 0.259342
0 0.573312 0.247272
0.58024 0.748348 0
0.95877 0.791409 0
1 0.805371 0
0 0.579492 0.357061
0 0.698756 0.369421
0.537575 0.845197 0.0516823
1 0.888655 0
1 0.885496 0.173785
0 0.0978866 0.252384
0 0.0507973 0.345983
0.408682 0.00733959 0.370459
0.700298 0 0.3691
0.80206 0 0.382971
0 0.168154 0.33521
0.0325628 0.186664 0.364157
0.516365 0.163409 0.477943
0.909941 0.0650034 0.54548
1 0.0575265 0.594217
0 0.396445 0.463355
0.0223545 0.457771 0.526436
0.552514 0.552132 0.574701
0.98056 0.544884 0.539025
1 0.538491 0.50985
0 0.618006 0.611261
0 0.67306 0.648692
0.455299 0.86508 0.565835
0.956054 0.885725 0.560525
1 0.892882 0.542611
0 0.673198 0.676005
0 0.781247 0.761166
0.398383 0.920256 0.70071
0.926955 0.960525 0.665599
1 0.959869 0.718166
0 0.161242 0.391272
0 0.162448 0.429664
0.427008 0.00120546 0.641733
0.728435 0 0.649653
0.838026 0 0.676066
0 0.243915 0.504082
0 0.259495 0.57435
0.565362 0.123674 0.846967
0.905028 0.111879 0.862394
1 0.0659495 0.935866
0 0.475135 0.673045
0 0.53196 0.732326
0.500969 0.593225 0.94966
0.94847 0.575952 0.934844
1 0.568994 0.91632
0 0.674647 0.783337
0 0.725597 0.831052
0.355612 0.91162 0.945968
0.921538 0.936736 0.914107
1 0.940276 0.905806
0 0.720455 0.824933
0 0.820294 0.914199
0.299626 0.959655 0.980606
0.887587 0.992157 0.948592
0.995193 0.996307 0.956222
0 0.204852 0.47808
0 0.212909 0.523674
0.465888 0 0.81648
0.788663 0 0.815259
0.890913 0 0.840833
0 0.294774 0.589593
0 0.31693 0.658167
0.573983 0.165988 0.999451
0.960647 0.125841 1
1 0.177981 1
0 0.504891 0.729366
0 0.566217 0.799619
0.464378 0.617044 1
0.928527 0.589288 1
1 0.57673 1
0 0.681392 0.812085
0 0.743343 0.874128
0.270176 0.921355 1
0.899306 0.94316 1
0.998932 0.948379 1
0 0.732662 0.852735
0 0.826001 0.940627
0.238834 0.968856 1
0.868437 0.997223 1
0.992126 1 1
