luts/film_looks/Fuji3513_-_LOG.cube
LUT_3D_SIZE 33
0 0 0.0166781
0.00251774 0 0.0166018
0.00563058 0.000167849 0.0165866
0.0087129 0.000518807 0.016556
0.0126497 0.00146487 0.0171359
0.0184634 0.00370794 0.0187839
0.0227512 0.00740063 0.0176547
0.0300145 0.0103456 0.0162661
0.0399023 0.0137484 0.0147555
0.056611 0.0173648 0.0116884
0.076463 0.0212558 0.0124514
0.103746 0.0248112 0.00485237
0.143359 0.0242924 0
0.187915 0.0255589 0
0.230671 0.0323033 0
0.275578 0.0342107 0
0.314977 0.0360266 0
0.353079 0.0374151 0
0.386694 0.0387121 0
0.415274 0.0401923 0
0.44358 0.0416724 0
0.470405 0.0434119 0
0.495125 0.0455024 0
0.51957 0.0475624 0
0.545098 0.0484169 0
0.564904 0.0479133 0
0.582269 0.0499275 0
0.593408 0.049958 0
0.607202 0.0523995 0
0.618051 0.0516518 0
0.628824 0.0521401 0
0.639597 0.0546273 0
0.648844 0.0540475 0
0.00173953 0.00633249 0.0188296
0.00444038 0.00668345 0.0188144
0.0075227 0.00706493 0.0187991
0.010605 0.00749218 0.0187686
0.0139162 0.00808728 0.0185855
0.0182193 0.00891127 0.0181582
0.023743 0.0132601 0.0162509
0.0300755 0.0150149 0.0154116
0.038407 0.0171359 0.0173037
0.0547341 0.020737 0.0153048
0.076112 0.0241703 0.0127565
0.106752 0.0270085 0.00732433
0.143343 0.027985 0
0.187167 0.0287785 0
0.23154 0.033463 0
0.276249 0.0357671 0
0.3149 0.0370947 0
0.352941 0.0383459 0
0.387518 0.0396277 0
0.416114 0.0411994 0
0.445075 0.0428168 0
0.472297 0.0446174 0
0.496773 0.0466316 0
0.521737 0.0487373 0
0.547189 0.0493172 0
0.566903 0.0483711 0
0.584024 0.0502785 0
0.595666 0.0503548 0
0.608957 0.0525978 0
0.619333 0.0517586 0
0.629602 0.0523995 0
0.640299 0.0545663 0
0.649241 0.0540322 0
0.00648508 0.0158694 0.0200046
0.00755322 0.0166018 0.0200198
0.00851453 0.0173953 0.0200656
0.0115358 0.018143 0.0199588
0.0146029 0.0186313 0.0198215
0.0187381 0.0187228 0.0195773
0.0232853 0.0192111 0.019028
0.0301213 0.020737 0.0177157
0.0404364 0.0214542 0.0168307
0.0564126 0.0239719 0.0149386
0.0768444 0.027451 0.0146334
0.110872 0.0300145 0.00808728
0.146181 0.032639 0
0.189395 0.0347143 0
0.237217 0.0372015 0
0.282612 0.0422522 0
0.323476 0.0436255 0
0.359045 0.0450599 0
0.398184 0.0463569 0
0.42707 0.0479438 0
0.455848 0.0494698 0
0.483879 0.0514382 0
0.508919 0.0535286 0
0.533684 0.0554971 0
0.559915 0.0552682 0
0.581262 0.0520638 0
0.599725 0.0535134 0
0.615076 0.0535134 0
0.62855 0.0557107 0
0.639521 0.0549477 0
0.64715 0.0575418 0
0.651026 0.0619364 0
0.659327 0.0637675 0
0.00767529 0.0243687 0.0217746
0.00846876 0.024918 0.021912
0.0101472 0.0253605 0.0219883
0.0131075 0.0258335 0.0203098
0.0163882 0.0261692 0.0181582
0.0200656 0.0264439 0.0178836
0.0239872 0.0279393 0.0170596
0.0311284 0.028809 0.0178988
0.0418555 0.0296483 0.0180209
0.0578012 0.0320287 0.0152895
0.0784161 0.0328374 0.0152895
0.114336 0.0360113 0.00700389
0.153124 0.0375219 0
0.196658 0.0386664 0
0.243366 0.0438849 0
0.289738 0.0461738 0
0.33106 0.051545 0
0.36849 0.0556497 0
0.404364 0.0569162 0
0.439017 0.0554513 0
0.468757 0.0565347 0
0.498421 0.0604105 0
0.525811 0.0623484 0
0.550271 0.0623941 0
0.574807 0.063386 0
0.599542 0.0606851 0
0.620081 0.0566262 0
0.63566 0.0569772 0
0.649378 0.0589303 0
0.659754 0.059968 0
0.666117 0.06598 0
0.665965 0.0721294 0
0.672343 0.0762188 0
0.00662242 0.0327001 0.0238193
0.00781262 0.0335851 0.0232395
0.00950637 0.0343633 0.0218051
0.0121309 0.0342412 0.0201114
0.0154726 0.033463 0.018967
0.0184024 0.035462 0.0185245
0.0224308 0.036759 0.0177005
0.0300298 0.0366522 0.0193484
0.041062 0.0378424 0.0202182
0.0588388 0.0410468 0.0170443
0.0817121 0.0413825 0.0140993
0.118044 0.0461585 0.00627146
0.161639 0.0478981 0
0.207828 0.049546 0
0.255299 0.0509499 0
0.297536 0.056672 0
0.34258 0.0610666 0
0.381415 0.0639963 0
0.417075 0.0676585 0
0.455985 0.0656291 0
0.486702 0.0673991 0
0.51809 0.0695964 0
0.545174 0.0715648 0
0.568872 0.0737469 0
0.593881 0.0745251 0
0.618662 0.0715343 0
0.638819 0.0679637 0
0.654719 0.0690013 0
0.667964 0.0704814 0
0.678462 0.072221 0
0.684825 0.076173 0
0.683513 0.0837568 0
0.691356 0.0889906 0
0.00733959 0.042771 0.0251316
0.007187 0.0434119 0.0239261
0.00703441 0.0441138 0.0219425
0.00941482 0.0433814 0.0222629
0.0127565 0.0423896 0.0230411
0.0157168 0.0446479 0.0212406
0.0200656 0.0450599 0.0200961
0.0278019 0.0449836 0.0206455
0.0398413 0.0468757 0.021561
0.0609445 0.0494545 0.018967
0.0872358 0.0518502 0.0144045
0.126116 0.0535134 0.00515755
0.170916 0.0550851 0
0.217212 0.057023 0
0.26479 0.0620584 0
0.311498 0.0671397 0
0.35787 0.0701152 0
0.397711 0.0737163 0
0.436545 0.0764019 0
0.47187 0.0797894 0
0.506844 0.079118 0
0.539391 0.0809186 0
0.565332 0.0832227 0
0.592355 0.08542 0
0.616968 0.0857404 0
0.642649 0.0821088 0
0.660197 0.0820478 0
0.674281 0.0830243 0
0.68748 0.0822766 0
0.697932 0.0850385 0
0.702281 0.0928054 0
0.70106 0.0980087 0
0.711101 0.101778 0
0.00515755 0.049958 0.0276341
0.00495918 0.0505684 0.0278477
0.004654 0.0516365 0.0280003
0.00639353 0.0525673 0.0280003
0.00848402 0.0532998 0.0276951
0.0116732 0.0540475 0.0250858
0.0160525 0.0542763 0.0231785
0.0250095 0.0554971 0.0211032
0.039765 0.0582589 0.021912
0.0630655 0.0608682 0.0200198
0.0876783 0.0635233 0.0150912
0.130053 0.0649882 0.00608835
0.179873 0.0661936 0
0.23154 0.0677501 0
0.279942 0.0741436 0
0.32813 0.0793469 0
0.376013 0.082536 0
0.419394 0.0859846 0
0.458579 0.0898146 0
0.493874 0.0924392 0
0.529091 0.0937362 0
0.561578 0.0963455 0
0.591043 0.0957809 0
0.616861 0.0977188 0
0.637888 0.100603 0
0.66508 0.0969863 0
0.678462 0.0990768 0
0.694133 0.0991073 0
0.705348 0.103029 0
0.715724 0.107271 0
0.721706 0.108156 0
0.724773 0.11603 0
0.729015 0.120592 0
0.00196841 0.0606241 0.0292058
0.00164797 0.0616922 0.0293584
0.00132753 0.0627756 0.0294957
0.0010071 0.0638437 0.0296941
0.00132753 0.0649271 0.0302129
0.004654 0.0654612 0.0296941
0.0093843 0.066392 0.026566
0.0203708 0.0679179 0.0231174
0.0369421 0.0704204 0.0234379
0.0614328 0.0729534 0.0212711
0.0925612 0.075349 0.0154269
0.137423 0.0768444 0.00393683
0.187396 0.0812848 0
0.243946 0.0831159 0
0.29752 0.0881056 0
0.347387 0.0925002 0
0.395026 0.0969558 0
0.442634 0.10042 0
0.482399 0.104448 0
0.517601 0.108019 0
0.552087 0.110399 0
0.584085 0.112383 0
0.614588 0.111238 0
0.64509 0.110353 0
0.665568 0.113741 0
0.686564 0.117037 0
0.697505 0.121035 0
0.713756 0.121355 0
0.724926 0.124971 0
0.736278 0.126497 0
0.744625 0.130861 0
0.750866 0.135164 0
0.751797 0.141756 0
0 0.0719921 0.0342718
0 0.073106 0.0348974
0 0.0742809 0.0355535
0 0.0755932 0.0363012
0 0.0767681 0.0358587
7.62951e-05 0.0785382 0.0318456
0.00315862 0.0812085 0.0305028
0.0130922 0.0821851 0.0249638
0.029572 0.0836194 0.0210422
0.0603189 0.0863508 0.0171969
0.0953689 0.0900282 0.0103609
0.142641 0.0929885 0.00134279
0.196582 0.0983749 0
0.256336 0.100237 0
0.31519 0.105425 0
0.367086 0.110628 0
0.416632 0.114382 0
0.463584 0.118212 0
0.504463 0.122103 0
0.5393 0.125017 0
0.573236 0.127703 0
0.607324 0.130068 0
0.637934 0.132006 0
0.667185 0.132311 0
0.688716 0.135027 0
0.707942 0.136492 0
0.720424 0.14049 0
0.7346 0.143526 0
0.745846 0.147127 0
0.755199 0.151369 0
0.764202 0.155276 0
0.771008 0.160327 0
0.775189 0.164767 0
0 0.0838483 0.0377356
0 0.0850538 0.0378729
0 0.086305 0.0380102
0 0.0878309 0.038117
0 0.0905013 0.0378271
0 0.0939956 0.0373083
0 0.0949874 0.0373388
0.00335698 0.0980087 0.031281
0.016434 0.101595 0.022446
0.052369 0.103639 0.0178073
0.0942855 0.105837 0.0100404
0.14197 0.110597 0
0.202731 0.11632 0
0.266484 0.121248 0
0.329534 0.125231 0
0.385016 0.13051 0
0.438605 0.13492 0
0.481102 0.138079 0
0.522713 0.142916 0
0.559503 0.146609 0
0.594079 0.149828 0
0.625498 0.152926 0
0.655802 0.15433 0
0.685588 0.155962 0
0.710719 0.157458 0
0.730739 0.159411 0
0.744671 0.162783 0
0.7561 0.166903 0
0.767407 0.170291 0
0.776547 0.174533 0
0.782315 0.182223 0
0.788479 0.18703 0
0.79762 0.190463 0
0 0.0991989 0.0419776
0 0.100969 0.0425879
0 0.102922 0.0432136
0 0.105089 0.0439002
0 0.108263 0.0443885
0 0.112749 0.0445563
0 0.114199 0.0419623
0 0.118669 0.0349584
0 0.122911 0.0294194
0.0418402 0.127123 0.0118715
0.090135 0.130495 0.000488289
0.141009 0.134005 0
0.207797 0.139193 0
0.270848 0.145144 0
0.337407 0.150134 0
0.396963 0.155779 0
0.453941 0.158495 0
0.498985 0.164019 0
0.541344 0.170413 0
0.579309 0.174166 0
0.616938 0.177493 0
0.650446 0.17937 0
0.681971 0.18201 0
0.708888 0.18378 0
0.732418 0.185 0
0.75082 0.187427 0
0.764675 0.191592 0
0.777401 0.195743 0
0.788952 0.198489 0
0.795224 0.205325 0
0.799329 0.211124 0
0.808911 0.215869 0
0.814481 0.220066 0
0 0.118013 0.0488899
0 0.119951 0.0495308
0 0.121813 0.0500649
0 0.123842 0.0507668
0 0.126726 0.0513161
0 0.131487 0.0511635
0 0.134081 0.0492714
0 0.139101 0.0424964
0 0.14406 0.0338293
0.0133059 0.150896 0.0153048
0.0758679 0.156313 0
0.139284 0.162158 0
0.205676 0.16817 0
0.273411 0.174136 0
0.343954 0.179507 0
0.407492 0.181765 0
0.46421 0.187182 0
0.515038 0.193194 0
0.558785 0.196338 0
0.596719 0.200717 0
0.633997 0.207675 0
0.667918 0.211521 0
0.701411 0.213413 0
0.729809 0.214893 0
0.752529 0.216968 0
0.770047 0.220172 0
0.784054 0.224018 0
0.794598 0.227848 0
0.804761 0.232212 0
0.812696 0.23827 0
0.81767 0.243305 0
0.822843 0.250721 0
0.829297 0.252216 0
0 0.140551 0.0551003
0 0.143145 0.0556954
0 0.145922 0.0563363
0 0.148699 0.0569162
0 0.15111 0.0573434
0 0.153338 0.0575723
0 0.156725 0.0574044
0 0.162539 0.0529641
0 0.168963 0.0449683
0 0.181018 0.0077821
0.0529183 0.188296 0
0.128969 0.193591 0
0.203845 0.199542 0
0.27361 0.205295 0
0.344579 0.210468 0
0.412482 0.216297 0
0.470588 0.22269 0
0.521828 0.229435 0
0.569818 0.232425 0
0.60911 0.23798 0
0.647349 0.244373 0
0.680934 0.249241 0
0.713405 0.251957 0
0.742763 0.253468 0
0.767483 0.254765 0
0.786755 0.257877 0
0.798978 0.262013 0
0.808896 0.266575 0
0.817899 0.270146 0
0.82739 0.276432 0
0.836057 0.282063 0
0.837491 0.287068 0
0.841672 0.290227 0
0 0.165652 0.0609445
0 0.168597 0.0616312
0 0.171511 0.0626688
0 0.174319 0.0639658
0 0.176989 0.0651713
0 0.180209 0.0657206
0 0.18262 0.0643931
0 0.188098 0.0603494
0 0.196231 0.0536202
0 0.211902 0.0181277
0.0142672 0.224002 0
0.113252 0.229389 0
0.194339 0.236927 0
0.270939 0.24242 0
0.34316 0.248631 0
0.411994 0.25536 0
0.47512 0.262074 0
0.529076 0.267308 0
0.576883 0.272648 0
0.619211 0.279072 0
0.658228 0.284321 0
0.694163 0.288853 0
0.726802 0.292973 0
0.755169 0.296468 0
0.779706 0.299153 0
0.800687 0.302113 0
0.814374 0.305989 0
0.824674 0.310903 0
0.833463 0.315633 0
0.841031 0.320409 0
0.850935 0.32549 0
0.85658 0.32932 0
0.859739 0.335393 0
0 0.190967 0.0719615
0 0.193957 0.0728161
0 0.19736 0.073167
0 0.20148 0.0732738
0 0.204593 0.0733654
0 0.20824 0.0733654
0 0.211902 0.0723735
0 0.217426 0.0686503
0 0.226215 0.0612345
0 0.245792 0.0312963
0 0.260838 0
0.0890822 0.268376 0
0.182879 0.273823 0
0.263996 0.282338 0
0.342061 0.291737 0
0.414237 0.299535 0
0.478004 0.306157 0
0.534936 0.311162 0
0.582803 0.316121 0
0.624308 0.322545 0
0.665125 0.328435 0
0.703349 0.332723 0
0.735851 0.33666 0
0.76553 0.340764 0
0.791379 0.345693 0
0.813367 0.349279 0
0.828321 0.351263 0
0.839765 0.35552 0
0.849805 0.360098 0
0.856809 0.36437 0
0.862181 0.369726 0
0.86775 0.374578 0
0.871687 0.377478 0
0 0.217548 0.0781415
0 0.221958 0.0792706
0 0.227344 0.0798047
0 0.232105 0.0802167
0 0.235096 0.0808728
0 0.23975 0.0812695
0 0.246036 0.0789502
0 0.253758 0.0738689
0 0.261784 0.0682078
0 0.281086 0.0410163
0 0.302052 0
0.0677348 0.310582 0
0.174868 0.320577 0
0.261341 0.328176 0
0.343862 0.339086 0
0.419028 0.347005 0
0.485985 0.353628 0
0.542687 0.360265 0
0.590295 0.367544 0
0.634989 0.37293 0
0.675669 0.378134 0
0.712367 0.383261 0
0.747051 0.387472 0
0.779126 0.39147 0
0.805005 0.396017 0
0.827543 0.399619 0
0.841077 0.402152 0
0.85211 0.403967 0
0.861189 0.406607 0
0.867704 0.410361 0
0.871977 0.414343 0
0.87689 0.418173 0
0.879255 0.421515 0
0 0.251575 0.0859693
0 0.255482 0.0864881
0 0.260121 0.0860914
0 0.265385 0.0854047
0 0.269093 0.085008
0 0.274998 0.0843061
0 0.281605 0.0840467
0 0.290303 0.0823224
0 0.300862 0.0750591
0 0.31812 0.0469978
0 0.339361 0.000579843
0.0573892 0.353674 0
0.169192 0.363928 0
0.259785 0.377493 0
0.349142 0.38674 0
0.425849 0.396567 0
0.493599 0.403143 0
0.549783 0.409613 0
0.600397 0.416739 0
0.64538 0.424704 0
0.687541 0.431464 0
0.725948 0.435859 0
0.76025 0.439628 0
0.791775 0.44332 0
0.816724 0.44683 0
0.838712 0.447639 0
0.852171 0.447181 0
0.86247 0.449195 0
0.870695 0.450568 0
0.876936 0.451606 0
0.880247 0.453285 0
0.884825 0.457664 0
0.887358 0.461326 0
0 0.284703 0.0911879
0 0.289921 0.0921035
0 0.295354 0.0921798
0 0.299657 0.0924544
0 0.303075 0.0925917
0 0.311635 0.0935683
0 0.319921 0.0937819
0 0.329793 0.0883192
0 0.340551 0.0813764
0 0.364218 0.0475319
0 0.384955 0
0.0631418 0.401297 0
0.171221 0.418051 0
0.269535 0.428717 0
0.357382 0.440116 0
0.435645 0.4495 0
0.507469 0.459174 0
0.567926 0.465064 0
0.618463 0.471977 0
0.659541 0.479561 0
0.702159 0.485328 0
0.73994 0.488716 0
0.772839 0.490959 0
0.802594 0.492378 0
0.826093 0.494194 0
0.847898 0.494209 0
0.861692 0.492012 0
0.874144 0.492699 0
0.881285 0.493263 0
0.884443 0.493858 0
0.892287 0.495033 0
0.894163 0.498543 0
0.898009 0.500267 0
0 0.318669 0.0996872
0 0.323186 0.100511
0 0.328939 0.100496
0 0.333394 0.100984
0 0.339864 0.10103
0 0.348547 0.100038
0 0.358465 0.0993668
0 0.36849 0.092134
0 0.382361 0.0796216
0 0.406928 0.0437171
0 0.430518 0
0.0712139 0.450202 0
0.18201 0.4636 0
0.282841 0.475807 0
0.37438 0.48777 0
0.452583 0.497002 0
0.52314 0.505928 0
0.581643 0.514427 0
0.633524 0.519524 0
0.676051 0.525521 0
0.714351 0.53138 0
0.750515 0.534463 0
0.784131 0.535515 0
0.812924 0.536507 0
0.835554 0.536126 0
0.857466 0.533486 0
0.869993 0.533501 0
0.882155 0.533349 0
0.889036 0.533059 0
0.892256 0.533745 0
0.901228 0.534417 0
0.907271 0.536171 0
0.909483 0.539483 0
0 0.349401 0.105516
0 0.354971 0.10573
0 0.361273 0.106233
0 0.367788 0.106172
0 0.376043 0.105898
0 0.384771 0.104707
0 0.392752 0.10103
0 0.402396 0.0941176
0 0.418143 0.0760967
0 0.44683 0.0383612
0 0.471382 0
0.0869154 0.489738 0
0.200275 0.504387 0
0.300206 0.520272 0
0.388235 0.529442 0
0.469184 0.540002 0
0.539879 0.547692 0
0.598154 0.55639 0
0.646036 0.561624 0
0.687282 0.566339 0
0.726528 0.568673 0
0.760494 0.57145 0
0.792813 0.573159 0
0.82269 0.572992 0
0.844709 0.573281 0
0.86569 0.572061 0
0.879149 0.569741 0
0.891386 0.569665 0
0.898665 0.569787 0
0.904387 0.570291 0
0.910414 0.571542 0
0.918349 0.574441 0
0.919448 0.576898 0
0 0.38114 0.10956
0 0.388037 0.109941
0 0.394629 0.110475
0 0.401053 0.110964
0 0.408286 0.110918
0 0.414801 0.10808
0 0.423728 0.102358
0 0.434669 0.0939498
0 0.452491 0.0716869
0 0.481971 0.0328832
0 0.508263 0
0.097261 0.527077 0
0.209995 0.542321 0
0.308675 0.554711 0
0.39791 0.56585 0
0.478126 0.576257 0
0.548058 0.585229 0
0.607004 0.593545 0
0.656153 0.599619 0
0.695155 0.601862 0
0.733822 0.604913 0
0.76791 0.607584 0
0.800061 0.609003 0
0.829984 0.609033 0
0.853758 0.609171 0
0.874556 0.608942 0
0.887892 0.607599 0
0.901122 0.606088 0
0.908858 0.606821 0
0.916854 0.607569 0
0.920668 0.60943 0
0.927718 0.614542 0
0.927703 0.613428 0
0 0.405615 0.113069
0 0.410178 0.113817
0 0.415656 0.115526
0 0.423255 0.115312
0 0.43267 0.114458
0 0.438209 0.110552
0 0.449302 0.10425
0 0.461555 0.0939498
0 0.480461 0.0681621
0 0.506981 0.0298619
0 0.534081 0
0.100328 0.554345 0
0.215412 0.566125 0
0.313313 0.580514 0
0.401022 0.591714 0
0.480354 0.602106 0
0.550835 0.61239 0
0.609155 0.621317 0
0.65832 0.628016 0
0.69865 0.632288 0
0.737469 0.635767 0
0.771878 0.638178 0
0.803967 0.63946 0
0.835019 0.640253 0
0.859556 0.641062 0
0.881346 0.641566 0
0.896193 0.642985 0
0.910384 0.642084 0
0.918608 0.643717 0
0.927047 0.64567 0
0.93135 0.648798 0
0.937942 0.653788 0
0.939223 0.653315 0
0 0.426459 0.1149
0 0.432334 0.114611
0 0.438621 0.115038
0 0.445792 0.114839
0 0.452796 0.114076
0 0.456352 0.112642
0 0.467552 0.106218
0 0.481605 0.0956436
0 0.502297 0.0686046
0 0.527947 0.032929
0 0.551736 0
0.087129 0.574166 0
0.205097 0.588373 0
0.307561 0.600641 0
0.399268 0.61413 0
0.476524 0.624842 0
0.548089 0.635706 0
0.607217 0.644282 0
0.655772 0.652003 0
0.698421 0.657984 0
0.738369 0.663325 0
0.774334 0.666178 0
0.807019 0.667048 0
0.839902 0.668681 0
0.863035 0.670024 0
0.886061 0.671199 0
0.903807 0.673228 0
0.918746 0.674632 0
0.92694 0.6766 0
0.935592 0.67921 0
0.939925 0.68278 0
0.944121 0.684718 0
0.948974 0.683909 0
0 0.442069 0.119219
0 0.446815 0.119188
0 0.451759 0.117388
0 0.458 0.116136
0 0.464179 0.114961
0 0.468559 0.113527
0 0.480491 0.107195
0 0.493156 0.0989853
0 0.510887 0.0730297
0 0.538811 0.0349432
0 0.562753 0
0.0775006 0.585672 0
0.195087 0.602747 0
0.300267 0.616892 0
0.394888 0.633021 0
0.471687 0.644663 0
0.541543 0.658106 0
0.6047 0.665766 0
0.653178 0.676692 0
0.69723 0.681758 0
0.738857 0.688167 0
0.7776 0.693111 0
0.812863 0.695506 0
0.846571 0.699733 0
0.86978 0.701747 0
0.89337 0.703288 0
0.907759 0.706218 0
0.927947 0.70489 0
0.936751 0.707179 0
0.945174 0.709911 0
0.94966 0.713634 0
0.953262 0.716213 0
0.954696 0.714366 0
0 0.452003 0.123095
0 0.456123 0.121843
0 0.462516 0.119203
0 0.468711 0.117632
0 0.474723 0.116472
0 0.481056 0.114992
0 0.491447 0.107744
0 0.503532 0.0981765
0 0.519677 0.076112
0 0.546761 0.034638
0 0.571389 0
0.069276 0.594797 0
0.183413 0.614069 0
0.292363 0.63006 0
0.388052 0.646891 0
0.466468 0.659693 0
0.537026 0.670832 0
0.60145 0.682155 0
0.651377 0.693614 0
0.695949 0.702037 0
0.740444 0.708095 0
0.782849 0.712856 0
0.818219 0.717723 0
0.852689 0.722362 0
0.87631 0.7243 0
0.901137 0.722301 0
0.914992 0.724819 0
0.929763 0.728099 0
0.944244 0.730892 0
0.947738 0.733623 0
0.95349 0.73312 0
0.961624 0.736126 0
0.962524 0.736278 0
0 0.459174 0.124758
0 0.464057 0.123598
0 0.469596 0.121843
0 0.474937 0.120333
0 0.480446 0.119005
0 0.486656 0.117144
0 0.496773 0.110552
0 0.511055 0.0975967
0 0.526284 0.0781262
0 0.552193 0.0366217
0 0.578531 0
0.0632029 0.60322 0
0.174884 0.623102 0
0.282765 0.641245 0
0.382208 0.658808 0
0.462913 0.676417 0
0.535241 0.689006 0
0.595941 0.700771 0
0.650889 0.709026 0
0.697704 0.717021 0
0.743526 0.726497 0
0.78883 0.735088 0
0.82417 0.736812 0
0.855512 0.741985 0
0.883925 0.743862 0
0.907744 0.745769 0
0.921996 0.748409 0
0.936385 0.751324 0
0.946334 0.754803 0
0.95642 0.754009 0
0.96054 0.75671 0
0.9664 0.755825 0
0.969512 0.756054 0
0 0.463813 0.125841
0 0.468345 0.12549
0 0.474388 0.124376
0 0.4804 0.122805
0 0.485924 0.120821
0 0.492058 0.117693
0 0.500832 0.111788
0 0.517296 0.0990158
0 0.534005 0.0785687
0 0.560586 0.0336461
0 0.586557 0
0.0576028 0.610971 0
0.174044 0.62797 0
0.283085 0.647791 0
0.377264 0.668711 0
0.463493 0.683467 0
0.5364 0.699916 0
0.597284 0.712581 0
0.652979 0.72079 0
0.699855 0.730373 0
0.745663 0.74023 0
0.792691 0.747616 0
0.828061 0.752438 0
0.863798 0.757443 0
0.887816 0.759762 0
0.912001 0.761975 0
0.92694 0.765042 0
0.942367 0.76405 0
0.952132 0.767376 0
0.961761 0.77055 0
0.96698 0.770184 0
0.972396 0.770062 0
0.976791 0.77229 0
0 0.468086 0.126406
0 0.472541 0.126879
0 0.478157 0.126055
0 0.484276 0.124331
0 0.490974 0.121752
0 0.498314 0.118166
0 0.506844 0.11191
0 0.522484 0.0988937
0 0.541405 0.0773327
