luts/film_looks/Kodak2393_-_Rec709.cube
LUT_3D_SIZE 33
0.00300603 0.0464332 0.0476387
0.0114595 0.0469825 0.0478065
0.0244907 0.0479438 0.0477302
0.0349126 0.0504921 0.0466468
0.0460822 0.0537118 0.0447395
0.0616159 0.0565652 0.0425422
0.074052 0.057557 0.0382391
0.0897536 0.059678 0.0318761
0.108278 0.0625467 0.0232242
0.124392 0.0652628 0.014847
0.153841 0.0665904 0.00360113
0.184558 0.0670481 0
0.213535 0.0679637 0
0.257694 0.0717479 0
0.297948 0.0738689 0
0.339727 0.0765393 0
0.380468 0.0799878 0
0.420981 0.084062 0
0.449134 0.0875257 0
0.464485 0.0900282 0
0.49131 0.0927901 0
0.518044 0.0957504 0
0.546014 0.100053 0
0.568856 0.104799 0
0.589807 0.108049 0
0.610178 0.110842 0
0.630182 0.114321 0
0.647242 0.120241 0
0.663203 0.126726 0
0.678492 0.134173 0
0.694072 0.14258 0
0.706264 0.14641 0
0.719722 0.148684 0
0 0.0497597 0.0482795
0.00726329 0.0501717 0.048661
0.0220798 0.0503548 0.0474861
0.0341497 0.0528725 0.046891
0.0465858 0.0563363 0.046128
0.0625315 0.0591897 0.0437629
0.0752728 0.0595407 0.0399481
0.0920119 0.0614633 0.0333257
0.110674 0.0642252 0.0242618
0.127108 0.067155 0.0160983
0.158785 0.0690318 0.00349432
0.189242 0.06981 0
0.220691 0.0715496 0
0.266117 0.0758068 0
0.306798 0.0789807 0
0.349081 0.0832074 0
0.391211 0.0878767 0
0.432609 0.0918441 0
0.468956 0.0961166 0
0.490913 0.0999313 0
0.510582 0.104021 0
0.536797 0.108568 0
0.562615 0.11313 0
0.582712 0.117128 0
0.603387 0.121782 0
0.623896 0.127123 0
0.643595 0.132464 0
0.657771 0.139559 0
0.672206 0.14612 0
0.687633 0.152956 0
0.702312 0.15845 0
0.714076 0.160189 0
0.727794 0.16025 0
0 0.0524453 0.0470741
0 0.0548867 0.0481575
0.0172732 0.0545052 0.0459754
0.0382696 0.0558175 0.0441749
0.0519112 0.0583963 0.0437171
0.065919 0.0609293 0.0418555
0.0784009 0.0618753 0.039292
0.0960708 0.0646372 0.0323796
0.114214 0.0680095 0.023743
0.131533 0.0710918 0.015671
0.165118 0.0742046 0.00276188
0.195956 0.0755322 0
0.232044 0.0783551 0
0.277562 0.0830091 0
0.318441 0.0860609 0
0.36173 0.0908675 0
0.40383 0.0957656 0
0.444648 0.100206 0
0.480522 0.104692 0
0.511635 0.109071 0
0.531899 0.114656 0
0.552636 0.119814 0
0.576028 0.124849 0
0.596292 0.129137 0
0.616053 0.13373 0
0.636225 0.138582 0
0.653803 0.144411 0
0.667552 0.152178 0
0.681697 0.15964 0
0.696788 0.167651 0
0.710185 0.172076 0
0.722744 0.17319 0
0.736324 0.173144 0
0 0.0572976 0.0464637
0 0.0607004 0.0473945
0.00648508 0.0616617 0.0470893
0.0341955 0.061799 0.0433661
0.0569009 0.0607156 0.0399176
0.0711986 0.0616922 0.0382086
0.0847486 0.0640116 0.0343938
0.103593 0.067689 0.0256046
0.120485 0.0713817 0.0175326
0.142092 0.075349 0.00909438
0.175006 0.0805371 0
0.20618 0.0831922 0
0.244877 0.0873579 0
0.289952 0.092546 0
0.33193 0.0963149 0
0.378103 0.102861 0
0.421576 0.109255 0
0.461891 0.11516 0
0.496956 0.118914 0
0.532006 0.123796 0
0.562966 0.131014 0
0.583597 0.136782 0
0.602197 0.14229 0
0.618952 0.147051 0
0.635279 0.151843 0
0.653254 0.156558 0
0.667231 0.162402 0
0.681727 0.16878 0
0.695262 0.175433 0
0.708904 0.182559 0
0.721355 0.184726 0
0.733562 0.189212 0
0.745113 0.194217 0
0 0.0646372 0.0451209
0 0.0664073 0.0450904
0.00146487 0.0677043 0.0441596
0.0198062 0.0690471 0.0453346
0.052781 0.0683146 0.0408331
0.0726635 0.0666972 0.0366979
0.0915389 0.0675822 0.0290837
0.111604 0.0702068 0.0184482
0.127642 0.0739757 0.0107576
0.15729 0.0784161 0.000488289
0.190387 0.0831311 0
0.221378 0.0871748 0
0.265995 0.0937057 0
0.308141 0.0994736 0
0.350057 0.105135 0
0.397757 0.113741 0
0.439979 0.120912 0
0.479866 0.127306 0
0.516457 0.132097 0
0.549966 0.139757 0
0.580911 0.148272 0
0.603815 0.154421 0
0.624475 0.16025 0
0.641642 0.166064 0
0.657664 0.171847 0
0.671839 0.178439 0
0.683864 0.184405 0
0.696208 0.190066 0
0.709819 0.195789 0
0.722728 0.200885 0
0.733425 0.206729 0
0.743435 0.213657 0
0.754772 0.221653 0
0 0.0707713 0.0435035
0 0.0725719 0.0423438
0 0.0728313 0.0411536
0.0189059 0.0746319 0.0419165
0.0492714 0.0758831 0.0414893
0.0730144 0.0745098 0.0333867
0.0936904 0.0739147 0.028275
0.116487 0.0745861 0.01561
0.138979 0.0773175 0.00326543
0.1738 0.0820325 0
0.206516 0.0863966 0
0.244205 0.091783 0
0.289723 0.0982071 0
0.332662 0.105364 0
0.379858 0.114794 0
0.425513 0.123522 0
0.467765 0.131945 0
0.505364 0.139559 0
0.539696 0.148516 0
0.571633 0.15845 0
0.598459 0.166323 0
0.620203 0.17229 0
0.639719 0.179263 0
0.655634 0.185885 0
0.671717 0.192355 0
0.685802 0.197894 0
0.698528 0.202838 0
0.711315 0.208392 0
0.724743 0.213657 0
0.734554 0.22092 0
0.743633 0.229297 0
0.755047 0.23682 0
0.766781 0.241932 0
0 0.0757305 0.0418555
0 0.0786297 0.0407568
0 0.0781262 0.0396887
0.0174563 0.080415 0.038819
0.0475013 0.0810559 0.0392157
0.0729229 0.0841535 0.0334783
0.0964828 0.08159 0.0230259
0.118868 0.0816815 0.0156863
0.145739 0.083299 0.00148013
0.188098 0.0869306 0
0.222934 0.0905928 0
0.268925 0.0966812 0
0.312703 0.104463 0
0.359686 0.113802 0
0.410193 0.123766 0
0.458106 0.134035 0
0.497444 0.143923 0
0.53492 0.154818 0
0.566796 0.165408 0
0.595911 0.174914 0
0.615686 0.181796 0
0.634409 0.188891 0
0.653696 0.196902 0
0.672526 0.204456 0
0.685817 0.210376 0
0.698558 0.216205 0
0.711696 0.221973 0
0.724346 0.227985 0
0.735531 0.233371 0
0.745098 0.239689 0
0.755444 0.24596 0
0.768002 0.251057 0
0.777035 0.257786 0
0 0.0832685 0.043473
0 0.0849622 0.0399786
0 0.0859846 0.0382239
0.00817884 0.0882277 0.0356451
0.0442359 0.0877394 0.0353552
0.0737774 0.0914321 0.0294804
0.0990616 0.0940261 0.018555
0.121248 0.0915694 0.0124971
0.150423 0.0922408 0.00189212
0.192767 0.0942397 0
0.237491 0.0970321 0
0.289876 0.103273 0
0.339055 0.112978 0
0.389334 0.122957 0
0.439612 0.134157 0
0.486748 0.147036 0
0.524208 0.158282 0
0.55816 0.168841 0
0.587823 0.178561 0
0.610117 0.186282 0
0.631235 0.193973 0
0.652461 0.201755 0
0.672374 0.210224 0
0.686152 0.216098 0
0.699001 0.222614 0
0.712657 0.229465 0
0.72607 0.236027 0
0.737881 0.242512 0
0.747616 0.248997 0
0.758389 0.256336 0
0.769406 0.262654 0
0.779706 0.269322 0
0.787915 0.277546 0
0 0.0909285 0.043595
0 0.0917067 0.0389105
0 0.0950942 0.0367132
0 0.0965133 0.0324559
0.0380255 0.0970016 0.0301518
0.0703288 0.101122 0.0268406
0.108629 0.108217 0.00474556
0.12871 0.109941 0
0.158389 0.105898 0
0.200656 0.104433 0
0.246403 0.107362 0
0.30309 0.112642 0
0.361135 0.121202 0
0.418021 0.132647 0
0.468879 0.146761 0
0.511574 0.159518 0
0.542336 0.169253 0
0.577142 0.179446 0
0.605859 0.188602 0
0.629633 0.196994 0
0.651011 0.205921 0
0.67245 0.213825 0
0.687556 0.220798 0
0.700816 0.227588 0
0.714733 0.23444 0
0.728008 0.241184 0
0.73933 0.247349 0
0.750362 0.254185 0
0.760861 0.261006 0
0.771221 0.267781 0
0.781689 0.275746 0
0.789517 0.283284 0
0.798001 0.292485 0
0 0.0988022 0.0429389
0 0.0989242 0.0397192
0 0.103258 0.0360266
0 0.104585 0.0306249
0.0288243 0.106279 0.0264897
0.0650492 0.110033 0.0252995
0.109834 0.119036 0
0.138918 0.124514 0
0.172274 0.128252 0
0.21326 0.124147 0
0.261692 0.125643 0
0.316197 0.128573 0
0.375692 0.13492 0
0.436332 0.145327 0
0.49247 0.159686 0
0.528542 0.170214 0
0.568078 0.180606 0
0.601984 0.190753 0
0.626215 0.19942 0
0.650034 0.208804 0
0.671382 0.217273 0
0.68777 0.224613 0
0.701915 0.232456 0
0.715816 0.239643 0
0.72958 0.246387 0
0.74136 0.252461 0
0.752667 0.258869 0
0.762875 0.26598 0
0.772717 0.272618 0
0.782818 0.279713 0
0.790707 0.28748 0
0.798871 0.29546 0
0.806241 0.306737 0
0 0.10576 0.0426184
0 0.106767 0.0404974
0 0.111727 0.0356909
0 0.113191 0.0291905
0.0192111 0.115023 0.0237888
0.0612192 0.119631 0.0214542
0.105089 0.127001 0
0.149889 0.137148 0
0.188373 0.143496 0
0.228168 0.148135 0
0.277241 0.146517 0
0.33666 0.149187 0
0.395407 0.154772 0
0.454383 0.163775 0
0.509026 0.174441 0
0.549096 0.182452 0
0.591714 0.193027 0
0.621592 0.202594 0
0.646143 0.211978 0
0.669429 0.220691 0
0.687709 0.228229 0
0.701915 0.235859 0
0.716487 0.243839 0
0.730007 0.251011 0
0.743221 0.257618 0
0.754314 0.264164 0
0.764675 0.271107 0
0.774258 0.278035 0
0.783871 0.284688 0
0.791623 0.291615 0
0.799786 0.29926 0
0.806439 0.309133 0
0.813397 0.320867 0
0 0.116304 0.0459449
0 0.118181 0.0415656
0 0.123598 0.0361028
0 0.126894 0.0273747
0.0129397 0.127352 0.0179599
0.0587778 0.13138 0.0137942
0.103182 0.136263 0
0.157504 0.153262 0
0.210025 0.16405 0
0.249546 0.172885 0
0.296269 0.17438 0
0.356481 0.169619 0
0.418097 0.175937 0
0.475639 0.18526 0
0.527703 0.193683 0
0.566995 0.199847 0
0.608988 0.20795 0
0.636881 0.215961 0
0.664469 0.224582 0
0.687266 0.232059 0
0.702159 0.239567 0
0.715221 0.246983 0
0.730144 0.255222 0
0.743694 0.261769 0
0.755001 0.268513 0
0.765194 0.276173 0
0.774517 0.282612 0
0.784054 0.289403 0
0.792355 0.296086 0
0.800092 0.304204 0
0.807126 0.312947 0
0.81387 0.323842 0
0.821942 0.338155 0
0 0.126238 0.0483558
0 0.129824 0.0426642
0 0.135073 0.0355688
0 0.13994 0.0255589
0.00663767 0.140978 0.00888075
0.0560769 0.144503 0.00320439
0.107301 0.15079 0
0.1617 0.168627 0
0.231754 0.186892 0
0.274495 0.195697 0
0.330709 0.208652 0
0.372869 0.205478 0
0.440085 0.204181 0
0.499153 0.210864 0
0.549523 0.217517 0
0.589197 0.22182 0
0.624979 0.227695 0
0.652277 0.234134 0
0.678279 0.238392 0
0.698772 0.244678 0
0.714107 0.251926 0
0.729107 0.259541 0
0.745068 0.266926 0
0.755611 0.273381 0
0.765774 0.280888 0
0.775143 0.287587 0
0.784298 0.294179 0
0.792782 0.301137 0
0.800153 0.308629 0
0.807645 0.317357 0
0.814282 0.327901 0
0.821408 0.34023 0
0.829297 0.355474 0
0 0.135409 0.0495613
0 0.140185 0.0435645
0 0.147219 0.0349889
0 0.151064 0.0230259
0.0071107 0.153719 0.00321965
0.0571298 0.158038 0
0.112428 0.166751 0
0.165469 0.181765 0
0.240955 0.203815 0
0.306554 0.219013 0
0.357427 0.232242 0
0.414603 0.247578 0
0.460105 0.242924 0
0.522423 0.242084 0
0.57406 0.246296 0
0.616556 0.251942 0
0.646693 0.255711 0
0.671702 0.259556 0
0.695338 0.263386 0
0.711437 0.2654 0
0.725567 0.267994 0
0.741299 0.27364 0
0.75642 0.27985 0
0.76582 0.286259 0
0.77525 0.292607 0
0.784222 0.298833 0
0.792981 0.305776 0
0.800381 0.31371 0
0.807462 0.321111 0
0.814176 0.331655 0
0.821469 0.344213 0
0.828717 0.35761 0
0.835431 0.371206 0
0 0.144854 0.0497902
0 0.150942 0.0444343
0 0.15877 0.0343938
0 0.161608 0.0188144
0.0110475 0.165438 0
0.0590982 0.172137 0
0.113893 0.180255 0
0.172213 0.195514 0
0.248585 0.219333 0
0.329809 0.243229 0
0.388006 0.258915 0
0.443107 0.278111 0
0.499443 0.291508 0
0.541344 0.282292 0
0.595529 0.279133 0
0.639628 0.283787 0
0.668772 0.285512 0
0.693004 0.288136 0
0.713512 0.290929 0
0.726864 0.289372 0
0.741222 0.290654 0
0.756207 0.292439 0
0.766247 0.295247 0
0.775509 0.300938 0
0.784527 0.305974 0
0.7935 0.31136 0
0.801068 0.318364 0
0.807874 0.326284 0
0.814282 0.336034 0
0.821302 0.347509 0
0.828656 0.359365 0
0.835065 0.372137 0
0.842374 0.385824 0
0 0.154772 0.0500801
0 0.163821 0.0464332
0 0.171893 0.034165
0 0.174289 0.015198
0.012314 0.178317 0
0.0630961 0.186145 0
0.120073 0.194217 0
0.180606 0.209888 0
0.256977 0.238529 0
0.346487 0.269963 0
0.420401 0.290288 0
0.46334 0.301915 0
0.532799 0.329702 0
0.578058 0.337682 0
0.611337 0.326589 0
0.660533 0.318227 0
0.688365 0.317128 0
0.71252 0.318349 0
0.731563 0.318257 0
0.745022 0.316716 0
0.757656 0.315404 0
0.771328 0.31606 0
0.778988 0.317082 0
0.786145 0.318181 0
0.793835 0.321187 0
0.802304 0.32694 0
0.80882 0.333791 0
0.815183 0.341711 0
0.821546 0.351217 0
0.828641 0.362158 0
0.834913 0.373358 0
0.841169 0.385412 0
0.849012 0.398627 0
0 0.168612 0.0535439
0 0.178347 0.0499886
0 0.185916 0.0339055
0 0.188815 0.0106508
0.00903334 0.19408 0
0.0695506 0.203479 0
0.128878 0.212268 0
0.190539 0.227939 0
0.265232 0.256413 0
0.358907 0.292165 0
0.444175 0.317723 0
0.502815 0.334936 0
0.550622 0.353429 0
0.612634 0.380941 0
0.642756 0.382071 0
0.675883 0.367514 0
0.705531 0.353338 0
0.730694 0.353567 0
0.749233 0.352911 0
0.763806 0.350759 0
0.774868 0.348348 0
0.785534 0.34638 0
0.79173 0.345998 0
0.798138 0.345983 0
0.805798 0.347875 0
0.812284 0.349004 0
0.816724 0.352331 0
0.822141 0.358618 0
0.828382 0.366522 0
0.835111 0.375463 0
0.840833 0.386404 0
0.847532 0.39826 0
0.855467 0.411261 0
0 0.182803 0.0569772
0 0.192493 0.0503243
0 0.200015 0.0332799
0 0.202136 0.00370794
0.00531014 0.209445 0
0.0796216 0.220462 0
0.13872 0.230381 0
0.205325 0.246876 0
0.273045 0.272511 0
0.370672 0.312154 0
0.460716 0.342 0
0.534737 0.365759 0
0.58262 0.384894 0
0.63093 0.408789 0
0.680415 0.431586 0
0.701045 0.424018 0
0.719249 0.402228 0
0.749111 0.392386 0
0.766567 0.387884 0
0.780789 0.386267 0
0.791775 0.382269 0
0.800977 0.380728 0
0.806622 0.378653 0
0.811933 0.376349 0
0.818616 0.375708 0
0.823926 0.375433 0
0.826322 0.375265 0
0.829938 0.377203 0
0.835813 0.383551 0
0.841672 0.391226 0
0.847242 0.399908 0
0.853758 0.410498 0
0.861341 0.423087 0
0 0.196201 0.0602731
0 0.205982 0.0492409
0 0.213123 0.0331426
0 0.215335 0
0.00833143 0.223499 0
0.088014 0.236515 0
0.15108 0.24802 0
0.217456 0.264973 0
0.285939 0.291157 0
0.38291 0.33022 0
0.477134 0.367254 0
0.555871 0.395972 0
0.614466 0.418662 0
0.645731 0.431159 0
0.697887 0.461067 0
0.732296 0.475181 0
0.743023 0.460838 0
0.762921 0.441566 0
0.783886 0.427192 0
0.795666 0.420783 0
0.807401 0.416983 0
0.815763 0.412665 0
0.823529 0.411063 0
0.828382 0.408469 0
0.833204 0.40621 0
0.836088 0.403494 0
0.838132 0.401694 0
0.840574 0.400946 0
0.843442 0.401556 0
0.848112 0.40679 0
0.853819 0.414862 0
0.860349 0.423957 0
0.866819 0.43682 0
0 0.20943 0.062623
0 0.219852 0.0484169
0 0.224765 0.0302586
0 0.229007 0
0.0181735 0.237934 0
0.0954452 0.251957 0
0.163943 0.266056 0
0.228779 0.283574 0
0.301778 0.311421 0
0.396262 0.3514 0
0.491554 0.393606 0
0.57174 0.42504 0
0.637186 0.450202 0
0.674983 0.465492 0
0.703075 0.47924 0
0.750881 0.509651 0
0.776379 0.515389 0
0.783825 0.498482 0
0.799084 0.479835 0
0.813092 0.461158 0
0.823743 0.45742 0
0.830777 0.452506 0
0.836622 0.446708 0
0.841886 0.442725 0
0.846464 0.439155 0
0.84863 0.435752 0
0.849958 0.431464 0
0.851453 0.42826 0
0.853056 0.426184 0
0.855741 0.426429 0
0.860594 0.432578 0
0.866087 0.44065 0
0.872236 0.451499 0
0 0.222217 0.0634165
0 0.232822 0.0481117
0 0.236576 0.0248722
0 0.241428 0
0.0250858 0.252522 0
0.104189 0.267781 0
0.174334 0.28394 0
0.239185 0.302449 0
0.314977 0.332341 0
0.405646 0.371649 0
0.501457 0.415625 0
0.58558 0.450446 0
0.652216 0.477485 0
0.699474 0.497368 0
0.726619 0.510201 0
0.758114 0.528115 0
0.7935 0.548913 0
0.813107 0.551537 0
0.816876 0.532113 0
0.83003 0.515419 0
0.84152 0.501869 0
0.845808 0.490684 0
0.850111 0.483116 0
0.854444 0.477928 0
0.858915 0.473365 0
0.860334 0.469276 0
0.861372 0.464179 0
0.862089 0.459831 0
0.862928 0.456107 0
0.864729 0.453529 0
0.867445 0.452125 0
0.872114 0.457984 0
0.877974 0.467567 0
0 0.235584 0.0636606
0 0.245731 0.0500649
0 0.250462 0.0208438
0 0.255024 0
0.031693 0.268925 0
0.112139 0.285527 0
0.185199 0.304891 0
0.253513 0.325261 0
0.329564 0.354574 0
0.416266 0.391363 0
0.509682 0.434607 0
0.596765 0.472969 0
0.663279 0.501442 0
0.716976 0.524025 0
0.74876 0.538094 0
0.768734 0.547433 0
0.801678 0.571237 0
0.830289 0.587625 0
0.84184 0.586313 0
0.844572 0.566339 0
0.855238 0.549065 0
0.862119 0.534157 0
0.86424 0.523339 0
0.867445 0.514168 0
0.871061 0.506706 0
0.871183 0.502235 0
0.871443 0.497444 0
0.872862 0.492699 0
0.873411 0.486763 0
0.874723 0.482795 0
0.876371 0.47866 0
0.878553 0.476646 0
0.883726 0.485283 0
0 0.249866 0.0665904
0 0.260227 0.0538796
0 0.266194 0.0165408
0 0.271733 0
0.039704 0.286336 0
0.119814 0.303288 0
0.197528 0.325475 0
0.265797 0.346685 0
0.343084 0.374929 0
0.426062 0.410071 0
0.515007 0.451865 0
0.605173 0.491936 0
0.672526 0.52253 0
0.725963 0.545251 0
0.764752 0.562387 0
0.784405 0.571405 0
0.804852 0.583917 0
0.83888 0.609689 0
0.857786 0.620371 0
0.86569 0.614588 0
0.869535 0.597742 0
0.878294 0.581994 0
0.882307 0.568032 0
0.88275 0.553292 0
0.885023 0.543847 0
0.884947 0.537804 0
0.883909 0.531411 0
0.884276 0.525338 0
0.884886 0.518593 0
0.88426 0.511833 0
0.884565 0.506645 0
0.885893 0.502068 0
0.888869 0.502144 0
0 0.26389 0.069276
0 0.274327 0.0567636
0 0.281117 0.0122683
0 0.287709 0
0.0475319 0.301579 0
0.127993 0.320256 0
0.209796 0.344305 0
0.277073 0.36556 0
0.355184 0.393851 0
0.437232 0.429343 0
0.520394 0.468025 0
0.61088 0.508965 0
0.680598 0.542565 0
0.734386 0.565408 0
0.774868 0.583902 0
0.800702 0.596124 0
0.816785 0.60383 0
0.840864 0.620157 0
0.865019 0.639841 0
0.879622 0.64622 0
0.886961 0.64152 0
0.891218 0.62884 0
0.895216 0.61323 0
0.898421 0.596521 0
0.900145 0.583459 0
0.900511 0.57467 0
0.900908 0.567437 0
0.899611 0.560616 0
0.898512 0.552804 0
0.896834 0.54522 0
0.895308 0.538308 0
0.89485 0.530587 0
0.896025 0.525917 0
0 0.277073 0.0716716
0 0.28809 0.0560464
0 0.29514 0.0104829
0 0.30248 0
0.0554513 0.316533 0
0.136217 0.336599 0
0.218479 0.361501 0
0.28864 0.384192 0
0.365286 0.411322 0
0.448478 0.447776 0
0.528191 0.484367 0
0.614618 0.523568 0
0.686839 0.559548 0
0.740887 0.583337 0
0.781384 0.602228 0
0.813062 0.617685 0
0.833814 0.627329 0
0.847318 0.633661 0
0.864988 0.647272 0
0.885527 0.664225 0
0.898039 0.669062 0
0.903777 0.665156 0
0.905531 0.652705 0
0.909895 0.639216 0
0.915373 0.626505 0
0.915709 0.613993 0
0.91574 0.604303 0
0.914031 0.595575 0
0.912474 0.587503 0
0.910689 0.580087 0
0.908583 0.572122 0
0.907912 0.562219 0
0.908171 0.554818 0
0 0.289586 0.0740673
0 0.30071 0.0524605
0 0.307851 0.0083772
0 0.315587 0
0.0652628 0.33135 0
0.143801 0.351705 0
0.224857 0.375906 0
0.299977 0.40029 0
0.374426 0.427008 0
0.458274 0.463966 0
0.536568 0.500221 0
0.618189 0.53727 0
0.690852 0.573495 0
0.745327 0.599542 0
0.786557 0.619455 0
0.82034 0.634241 0
0.847547 0.645747 0
0.859007 0.65156 0
0.867933 0.656779 0
0.885435 0.671504 0
0.904341 0.686992 0
0.914153 0.692241 0
0.917494 0.687541 0
0.919753 0.676982 0
0.923674 0.663478 0
0.927169 0.651514 0
0.929 0.641764 0
0.928267 0.632364 0
0.926863 0.62295 0
0.925399 0.614816 0
0.923506 0.606012 0
0.922606 0.597009 0
0.921477 0.58674 0
0 0.3019 0.077348
0 0.313146 0.0512093
0 0.319524 0.00575265
0.00244144 0.328618 0
0.0719921 0.344182 0
0.149722 0.36492 0
0.231739 0.390723 0
0.310353 0.41648 0
0.380926 0.441154 0
0.46685 0.478706 0
0.544579 0.515984 0
0.622293 0.550591 0
0.692729 0.586038 0
0.748165 0.613657 0
0.79089 0.632837 0
0.824201 0.647272 0
0.854658 0.660624 0
0.869825 0.669093 0
0.878492 0.673945 0
0.887388 0.679728 0
0.904097 0.693843 0
0.91957 0.709117 0
0.926574 0.712001 0
0.930968 0.709651 0
0.933623 0.700755 0
0.936446 0.687785 0
0.938689 0.677134 0
0.938994 0.665476 0
0.938064 0.655589 0
0.936767 0.646647 0
0.936492 0.639094 0
0.937072 0.631312 0
0.935012 0.620188 0
0 0.313542 0.0808881
0 0.325109 0.0499428
0 0.331243 0.00242618
0.00892653 0.34078 0
0.0767071 0.355962 0
0.155673 0.37734 0
0.237842 0.403113 0
0.318624 0.430884 0
0.391012 0.456382 0
