luts/film_looks/Kodak2393_-_Rec709.cube
LUT_3D_SIZE 9
0.00300603 0.0464332 0.0476387
0.0460822 0.0537118 0.0447395
0.108278 0.0625467 0.0232242
0.213535 0.0679637 0
0.380468 0.0799878 0
0.49131 0.0927901 0
0.589807 0.108049 0
0.663203 0.126726 0
0.719722 0.148684 0
0 0.0646372 0.0451209
0.052781 0.0683146 0.0408331
0.127642 0.0739757 0.0107576
0.265995 0.0937057 0
0.439979 0.120912 0
0.580911 0.148272 0
0.657664 0.171847 0
0.709819 0.195789 0
0.754772 0.221653 0
0 0.0909285 0.043595
0.0380255 0.0970016 0.0301518
0.158389 0.105898 0
0.361135 0.121202 0
0.542336 0.169253 0
0.651011 0.205921 0
0.714733 0.23444 0
0.760861 0.261006 0
0.798001 0.292485 0
0 0.126238 0.0483558
0.00663767 0.140978 0.00888075
0.231754 0.186892 0
0.440085 0.204181 0
0.624979 0.227695 0
0.714107 0.251926 0
0.765774 0.280888 0
0.800153 0.308629 0
0.829297 0.355474 0
0 0.168612 0.0535439
0.00903334 0.19408 0
0.265232 0.256413 0
0.550622 0.353429 0
0.705531 0.353338 0
0.774868 0.348348 0
0.805798 0.347875 0
0.828382 0.366522 0
0.855467 0.411261 0
0 0.222217 0.0634165
0.0250858 0.252522 0
0.314977 0.332341 0
0.652216 0.477485 0
0.7935 0.548913 0
0.84152 0.501869 0
0.858915 0.473365 0
0.862928 0.456107 0
0.877974 0.467567 0
0 0.277073 0.0716716
0.0554513 0.316533 0
0.365286 0.411322 0
0.686839 0.559548 0
0.833814 0.627329 0
0.898039 0.669062 0
0.915373 0.626505 0
0.912474 0.587503 0
0.908171 0.554818 0
0 0.324987 0.0842908
0.0796979 0.367163 0
0.39971 0.471061 0
0.695399 0.608774 0
0.860151 0.68423 0
0.913649 0.714504 0
0.946792 0.74316 0
0.957702 0.719432 0
0.953017 0.678981 0
0 0.361715 0.0904707
0.074464 0.407721 0
0.410788 0.515465 0
0.697917 0.648402 0
0.851545 0.718837 0
0.924926 0.753979 0
0.954818 0.771435 0
0.974075 0.788479 0
0.983368 0.777646 0
0 0.0522164 0.0627604
0.0615244 0.0601358 0.0660105
0.1299 0.068925 0.0451362
0.272236 0.0675517 0
0.444617 0.0659953 0
0.575753 0.0679026 0
0.654856 0.0884565 0
0.702052 0.116213 0
0.72575 0.136431 0
0 0.0691691 0.0822614
3.0518e-05 0.0758679 0.0853285
0.112413 0.0927901 0.0767529
0.259174 0.101823 0.0344701
0.441718 0.0933242 0
0.583597 0.0964523 0
0.666545 0.109819 0
0.717906 0.136584 0
0.757748 0.155077 0
0 0.105196 0.0865034
0 0.112444 0.0734722
0.142245 0.126711 0.0478523
0.328176 0.140032 0
0.528862 0.161975 0
0.661921 0.191333 0
0.740551 0.219455 0
0.784695 0.245747 0
0.814115 0.27985 0
0 0.124315 0.078294
0 0.160006 0.0709087
0.151919 0.190112 0.027863
0.412009 0.225162 0
0.632975 0.229572 0
0.729839 0.266484 0
0.783459 0.303777 0
0.817884 0.335912 0
0.846113 0.378668 0
0 0.145205 0.0809949
0 0.215808 0.0650797
0.18735 0.260517 0
0.548379 0.373831 0
0.712306 0.382635 0
0.786419 0.369894 0
0.814267 0.367254 0
0.83798 0.393683 0
0.86302 0.436912 0
0 0.180713 0.0956588
0 0.277226 0.0470588
0.240238 0.343069 0
0.613138 0.486625 0
0.790326 0.563088 0
0.849561 0.529534 0
0.862181 0.49424 0
0.867414 0.47425 0
0.882017 0.48687 0
0 0.262303 0.135012
0 0.334737 0.0392462
0.285801 0.413489 0
0.627359 0.546151 0
0.838544 0.644053 0
0.898161 0.680171 0
0.917769 0.640986 0
0.91606 0.599313 0
0.911543 0.566369 0
0 0.312871 0.161746
0 0.378912 0.0331426
0.319875 0.469978 0
0.645594 0.596231 0
0.85153 0.693965 0
0.917006 0.72221 0
0.945754 0.746715 0
0.957992 0.723674 0
0.952331 0.679973 0
0 0.34995 0.178027
0 0.414343 0.0273442
0.332311 0.506981 0
0.643198 0.627253 0
0.841566 0.726055 0
0.924117 0.759258 0
0.955428 0.774273 0
0.972519 0.787579 0
0.983154 0.77702 0
0 0.0612802 0.0837873
0.00996414 0.06421 0.0918135
0.172427 0.0844739 0.0768292
0.324971 0.0849165 0.0269932
0.504341 0.0621805 0
0.624582 0.052491 0
0.699031 0.0416266 0
0.742306 0.0581521 0
0.770504 0.0746624 0
0 0.078706 0.106004
0 0.0886854 0.123323
0.144549 0.104173 0.115587
0.317067 0.117098 0.0895705
0.50782 0.0977951 0.0372473
0.63238 0.0675364 0
0.710185 0.0342412 0
0.759503 0.0433967 0
0.786435 0.0784009 0
0 0.128908 0.155138
0 0.149142 0.187198
0.00141909 0.147738 0.184314
0.282765 0.179232 0.164187
0.510475 0.189456 0.125978
0.660746 0.179553 0.0795453
0.74638 0.166125 0.0227207
0.79765 0.159472 0
0.834165 0.174304 0
0 0.234836 0.241123
0 0.221302 0.212482
0 0.217563 0.148028
0.377432 0.264866 0.101488
0.607324 0.259342 0.0709239
0.746471 0.286778 0.0130007
0.831724 0.321935 0
0.881071 0.358251 0
0.907179 0.38613 0
0 0.271199 0.238331
0 0.257023 0.200992
0 0.283436 0.116701
0.435615 0.379049 0.0177768
0.703792 0.404532 0
0.812314 0.370321 0
0.860914 0.383398 0
0.893919 0.427893 0
0.916213 0.483726 0
0 0.285573 0.231113
0 0.295598 0.200595
0 0.356023 0.0823377
0.471565 0.459037 0
0.787579 0.573159 0
0.867628 0.559167 0
0.897307 0.520821 0
0.898177 0.503151 0
0.91516 0.53843 0
0 0.318669 0.255314
0 0.329397 0.20737
0 0.415091 0.0220493
0.517952 0.529335 0
0.819409 0.648905 0
0.905043 0.694469 0
0.934173 0.666667 0
0.940612 0.630915 0
0.933318 0.595438 0
0 0.329412 0.261189
0 0.361929 0.217716
0.0489357 0.461952 0
0.548135 0.579355 0
0.81651 0.683101 0
0.926024 0.741131 0
0.957473 0.761212 0
0.96495 0.735058 0
0.961593 0.695872 0
0 0.321431 0.251621
0 0.399115 0.227955
0.0586557 0.495583 0
0.556268 0.613901 0
0.80914 0.71783 0
0.921096 0.768765 0
0.966186 0.787518 0
0.984009 0.798764 0
0.983413 0.778881 0
0 0.0821546 0.120378
0 0.0781415 0.122011
0.12668 0.0959029 0.125917
0.392706 0.106905 0.0728923
0.565744 0.0732128 0.0269474
0.664958 0.0553292 0
0.734966 0.0146181 0
0.777737 0.0248417 0
0.811719 0.0476387 0
0 0.0989548 0.144015
0 0.117815 0.175204
0.0320745 0.10277 0.176226
0.380972 0.141802 0.134463
0.561227 0.124422 0.0900587
0.677317 0.0922866 0.030045
0.747204 0.0598917 0.0187686
0.79205 0.06981 0.0267033
0.819898 0.0885176 0.016495
0 0.148653 0.200671
0 0.180728 0.245243
0 0.178729 0.266346
0.34052 0.201678 0.230991
0.563302 0.209369 0.201114
0.695415 0.195438 0.174075
0.768383 0.183917 0.154223
0.812833 0.177554 0.136858
0.839811 0.176013 0.106416
0 0.245274 0.296223
0 0.29221 0.352331
0 0.330037 0.397238
0.21117 0.306111 0.355566
0.544442 0.337285 0.335866
0.721187 0.358663 0.320211
0.81825 0.369802 0.305653
0.871443 0.369787 0.287221
0.901335 0.367025 0.246281
0 0.387564 0.417838
0 0.431357 0.46099
0 0.434241 0.440299
0.0730144 0.395315 0.272847
0.654154 0.468162 0.255253
0.803479 0.467613 0.280858
0.884871 0.508186 0.274495
0.937743 0.546029 0.265843
0.971466 0.575326 0.230304
0 0.500359 0.51371
0 0.461402 0.455817
0 0.453346 0.400702
0.127642 0.475013 0.227329
0.710491 0.593301 0.18204
0.873503 0.602213 0.0996109
0.927047 0.564996 0.161837
0.963531 0.570672 0.11191
0.994125 0.610391 0.0675059
0 0.513344 0.503532
0 0.454414 0.422599
0 0.473152 0.384192
0.254505 0.54284 0.18172
0.715572 0.646265 0.186923
0.920272 0.709606 0
0.972305 0.696635 0
0.997833 0.659831 0
1 0.651698 0
0 0.497414 0.467704
0 0.454444 0.411353
0 0.474205 0.350042
0.341207 0.583322 0.113207
0.73077 0.680171 0.135561
0.927092 0.751919 0
0.992966 0.781613 0
0.999741 0.760647 0
1 0.731914 0
0 0.470039 0.429206
0 0.448295 0.39443
0 0.474479 0.312825
0.366339 0.610925 0.0175021
0.729549 0.709987 0.0262303
0.909819 0.776669 0
0.999115 0.811704 0
1 0.825376 0
1 0.795575 0
0 0.105394 0.161975
0 0.101534 0.161547
0.0565805 0.097612 0.178119
0.327245 0.137957 0.142611
0.615702 0.0959793 0.0369116
0.714855 0.0496834 0
0.76141 0.0193332 0
0.798108 0.0548104 0
0.825971 0.0984665 0.00199893
0 0.126024 0.182818
0 0.164416 0.243854
0 0.133288 0.227008
0.308431 0.165621 0.203113
0.622232 0.150072 0.124117
0.715984 0.11986 0.0759136
0.769177 0.0970626 0.0697185
0.808789 0.126894 0.0824598
0.83888 0.158602 0.0936599
0 0.188251 0.261936
0 0.222049 0.3066
0 0.245319 0.35552
0.234028 0.1991 0.319448
0.61294 0.23125 0.245945
0.730098 0.223987 0.226215
0.793835 0.223606 0.219898
0.834638 0.228824 0.215824
0.860136 0.237812 0.2103
0 0.274891 0.354925
0 0.314305 0.406302
0 0.352987 0.458701
0.00863661 0.318288 0.450629
0.586282 0.357809 0.400504
0.745449 0.37644 0.390219
0.82858 0.386725 0.392493
0.873075 0.381903 0.378073
0.897093 0.365103 0.342931
0 0.378317 0.452796
0 0.417899 0.497871
0 0.470146 0.5552
0 0.517937 0.594278
0.52285 0.519432 0.537636
0.74699 0.555871 0.537011
0.857862 0.582483 0.5337
0.919722 0.595422 0.521859
0.952041 0.586984 0.489174
0 0.49572 0.55288
0 0.535332 0.59176
0 0.572274 0.62797
0 0.620615 0.640146
0.468437 0.618616 0.48658
0.822141 0.67454 0.469978
0.90544 0.680659 0.509514
0.957641 0.712123 0.510613
0.989578 0.7364 0.494575
0 0.592447 0.641352
0 0.609735 0.664561
0 0.587808 0.625788
0 0.614313 0.577234
0.499626 0.673014 0.441337
0.851987 0.753353 0.42739
0.949706 0.757763 0.365011
0.980484 0.73669 0.433829
1 0.75523 0.412665
0 0.634714 0.687495
0 0.606653 0.640208
0 0.56878 0.575784
0 0.608347 0.527199
0.568627 0.710933 0.388052
0.846387 0.778073 0.421363
0.969635 0.819379 0.343221
1 0.808042 0.244556
1 0.786252 0.327764
0 0.613336 0.640528
0 0.574517 0.574929
0 0.562905 0.540124
0 0.591745 0.444068
0.581765 0.729747 0.2851
0.840574 0.796536 0.337346
0.957641 0.841535 0.362387
1 0.862928 0.310704
1 0.836515 0.03299
0 0.141497 0.211429
0 0.13608 0.21146
0 0.118349 0.219867
0.302251 0.160571 0.191287
0.579446 0.152377 0.125887
0.737026 0.0968185 0.00248722
0.790814 0.097612 0.0052491
0.813687 0.110842 0.0139925
0.839033 0.143862 0.0417945
0 0.161486 0.235019
0 0.200092 0.294087
0 0.174075 0.286091
0.282826 0.173587 0.274189
0.567193 0.193545 0.208087
0.742687 0.148989 0.105394
0.796231 0.15787 0.118135
0.823819 0.165316 0.128954
0.850736 0.193072 0.166979
0 0.23238 0.31928
0 0.256291 0.353368
0 0.302983 0.429648
0.0838941 0.207752 0.370962
0.542306 0.264805 0.325475
0.761456 0.249165 0.261997
0.818112 0.259007 0.278431
0.850294 0.275669 0.294499
0.879301 0.303319 0.323995
0 0.30695 0.405844
0 0.345006 0.454658
0 0.37908 0.502892
0 0.367147 0.533425
0.524987 0.363027 0.483787
0.770748 0.391318 0.441428
0.841123 0.415991 0.452796
0.887221 0.442161 0.478264
0.917296 0.453696 0.482155
0 0.394461 0.497246
0 0.428763 0.539132
0 0.468452 0.587152
0 0.508385 0.632303
0.385595 0.51725 0.631388
0.765469 0.565133 0.595605
0.863569 0.601389 0.603281
0.916823 0.61651 0.610376
0.944762 0.588129 0.572992
0 0.485283 0.577386
0 0.520333 0.614542
0 0.551659 0.651637
0 0.627726 0.713939
0.128817 0.660182 0.715908
0.750973 0.713039 0.683909
0.874388 0.736171 0.686473
0.937743 0.748898 0.682033
0.973495 0.750393 0.66302
0 0.576074 0.655787
0 0.600977 0.682918
0 0.625727 0.709102
0 0.689784 0.755962
0 0.730144 0.733394
0.749691 0.773419 0.65272
0.920043 0.809506 0.632837
0.965194 0.821103 0.668757
0.994385 0.843427 0.668727
0 0.642969 0.718532
0 0.654017 0.73402
0 0.66067 0.742214
0 0.680598 0.731975
0 0.716915 0.652171
0.762219 0.80206 0.610468
0.932433 0.853178 0.601099
0.993317 0.859129 0.541558
1 0.852049 0.597009
0 0.679194 0.76672
0 0.667094 0.740581
0 0.644587 0.699916
0 0.665583 0.669108
0 0.702495 0.564828
0.766827 0.829129 0.517082
0.9178 0.867018 0.56788
0.99202 0.895048 0.560113
1 0.877302 0.417395
0 0.17792 0.264363
0 0.170962 0.258167
0 0.147204 0.252872
0.290654 0.172473 0.242771
0.552544 0.187259 0.190951
0.729366 0.14789 0.0831464
0.803616 0.144213 0.060502
0.8336 0.169406 0.12929
0.849607 0.17789 0.13962
0 0.196643 0.285313
0 0.237049 0.342061
0 0.226795 0.345113
0.199939 0.178271 0.333593
0.532372 0.229419 0.272267
0.732769 0.21004 0.210513
0.813275 0.202701 0.208453
0.846311 0.232273 0.253162
0.863737 0.241642 0.260685
0 0.270359 0.37113
0 0.28687 0.39527
0 0.332967 0.473686
0 0.245823 0.430823
0.521447 0.285969 0.396674
0.729519 0.299504 0.367086
0.833234 0.304845 0.3691
0.868101 0.329442 0.393301
0.892485 0.353246 0.414145
0 0.340337 0.454154
0 0.371023 0.493141
0 0.398871 0.53669
0 0.425986 0.598444
0.424857 0.364508 0.550881
0.732662 0.415137 0.525353
0.858808 0.442771 0.526909
0.895476 0.468788 0.541314
0.924681 0.494514 0.556878
0 0.410285 0.529366
0 0.443809 0.570062
0 0.482826 0.618585
0 0.527977 0.671046
0.222202 0.528313 0.696757
0.732113 0.555184 0.677714
0.878004 0.600595 0.657252
0.921324 0.630259 0.660456
0.95108 0.643732 0.665339
0 0.506661 0.624674
0 0.533974 0.657572
0 0.553979 0.68159
0 0.611399 0.730816
0.065156 0.631937 0.753399
0.680156 0.708476 0.758968
0.879805 0.73959 0.737545
0.935225 0.761318 0.741802
0.968856 0.762356 0.731838
0 0.564782 0.670909
0 0.590799 0.696086
0 0.611414 0.722164
0 0.672084 0.772442
0 0.737041 0.813199
0.597406 0.8047 0.81178
0.875944 0.836652 0.795117
0.943343 0.848875 0.793881
0.980285 0.851408 0.784802
0 0.63006 0.727382
0 0.646342 0.744076
0 0.66099 0.760479
0 0.688624 0.787457
0 0.778332 0.839216
0.465705 0.835248 0.805264
0.884123 0.870436 0.773724
0.970596 0.893416 0.748287
0.99649 0.902983 0.775967
0 0.67744 0.774365
0 0.684245 0.782589
0 0.689113 0.790631
0 0.684047 0.778454
0 0.758999 0.78471
0.377935 0.82034 0.704311
0.872892 0.891325 0.709484
0.969604 0.921416 0.736263
1 0.915999 0.655039
0 0.223011 0.32401
0 0.211124 0.310658
0 0.183337 0.297276
0.238636 0.179217 0.309133
0.52813 0.226734 0.252674
0.719036 0.209308 0.200473
0.806912 0.203433 0.20531
0.848295 0.225177 0.239765
0.874678 0.266224 0.308553
0 0.243091 0.346349
0 0.280003 0.398413
0 0.280659 0.407538
0.0537118 0.192523 0.374823
0.510384 0.260945 0.340795
0.709529 0.265064 0.322789
0.814725 0.266484 0.328801
0.861387 0.285069 0.357687
0.886442 0.321477 0.405386
0 0.309697 0.426032
0 0.313909 0.435355
0 0.36051 0.511894
0 0.31191 0.503426
0.489281 0.298299 0.493904
0.710872 0.338674 0.46453
0.824231 0.354543 0.469917
0.881483 0.372168 0.495018
0.905501 0.403998 0.519295
0 0.373281 0.500359
0 0.398077 0.534173
0 0.41648 0.564324
0 0.465507 0.648432
0.27454 0.374853 0.614145
0.718685 0.423423 0.629465
0.844526 0.46302 0.612253
0.906874 0.492561 0.626337
0.930678 0.523827 0.627054
0 0.437552 0.570535
0 0.468894 0.60827
0 0.499107 0.644724
0 0.542718 0.696574
0.045243 0.54931 0.755032
0.626688 0.551629 0.731472
0.856733 0.591455 0.732448
0.928725 0.62324 0.722637
0.952117 0.658534 0.716213
0 0.513726 0.649348
0 0.535897 0.674586
0 0.555169 0.695903
0 0.610986 0.747997
0 0.638209 0.791074
0.583291 0.707912 0.816129
0.855711 0.728038 0.802686
0.941451 0.751049 0.788342
0.967224 0.77435 0.784924
0 0.585458 0.712963
0 0.601389 0.730571
0 0.611322 0.742229
0 0.659815 0.783993
0 0.710369 0.826352
0.534844 0.778729 0.845563
0.844022 0.833646 0.849287
0.943496 0.848676 0.838544
0.975204 0.860838 0.837446
0 0.621592 0.738384
0 0.635523 0.750515
0 0.650401 0.766751
0 0.679713 0.796338
0 0.763027 0.851637
0.349584 0.838834 0.883772
0.801022 0.895705 0.885573
0.942367 0.913252 0.876585
0.98201 0.918196 0.87483
0 0.667857 0.779431
0 0.676768 0.788891
0 0.685893 0.798718
0 0.694072 0.807431
0 0.757366 0.852369
0 0.842222 0.894438
0.691661 0.90866 0.866133
0.945953 0.937652 0.858061
0.996811 0.9458 0.834119
0 0.285405 0.405051
0 0.273304 0.387366
0 0.256291 0.375387
0.0555123 0.196353 0.361837
0.501396 0.270253 0.333959
0.701442 0.281849 0.347555
0.805463 0.292165 0.369085
0.862257 0.310033 0.40499
0.895171 0.348974 0.471382
0 0.301381 0.424781
0 0.324346 0.461875
0 0.327932 0.469917
0 0.257664 0.440848
0.489464 0.281361 0.45452
0.69369 0.316732 0.446647
0.803937 0.336095 0.467781
0.868528 0.352346 0.500664
0.905715 0.391058 0.554879
0 0.348928 0.48246
0 0.346441 0.48394
0 0.390585 0.551583
0 0.394415 0.581186
0.29572 0.30074 0.563378
0.699565 0.357092 0.598764
0.81622 0.387289 0.589944
0.88043 0.413367 0.607691
0.919615 0.452522 0.649439
0 0.416403 0.560174
0 0.431876 0.58085
0 0.436088 0.593057
0 0.496101 0.681895
0.0377813 0.424002 0.699367
0.596704 0.435462 0.714809
0.828489 0.473808 0.730465
0.901076 0.506905 0.721065
0.93817 0.54583 0.738827
0 0.480827 0.628763
0 0.499229 0.651621
0 0.514229 0.671565
0 0.550088 0.713207
0 0.585077 0.794705
0.4607 0.555993 0.793912
0.799146 0.594141 0.811963
0.913527 0.615106 0.804273
0.954269 0.649958 0.801785
0 0.535149 0.684153
0 0.55314 0.701869
0 0.568109 0.71841
0 0.613352 0.760678
0 0.651545 0.813718
0.436805 0.708156 0.862501
0.761074 0.715145 0.850248
0.921294 0.735073 0.857786
0.968399 0.754696 0.847623
0 0.588739 0.731746
0 0.602274 0.745113
0 0.609293 0.752651
0 0.64831 0.790631
0 0.707286 0.840543
0.381231 0.763577 0.87541
0.765728 0.826871 0.895644
0.922744 0.839109 0.889128
0.978592 0.84979 0.881468
0 0.632334 0.76614
0 0.639841 0.774395
0 0.646418 0.781765
0 0.668711 0.80145
0 0.742107 0.854887
0.25301 0.806546 0.89958
0.739712 0.87361 0.911604
0.921111 0.912703 0.915007
0.981842 0.9196 0.914488
0 0.659724 0.786542
0 0.667018 0.79205
0 0.675135 0.799863
0 0.684092 0.810391
0 0.749722 0.857877
0 0.83209 0.914137
0.619959 0.909911 0.936065
0.896635 0.94786 0.938582
0.98024 0.960708 0.936172
