luts/film_looks/Kodak2393_-_Rec709.cube
LUT_3D_SIZE 5
0.00300603 0.0464332 0.0476387
0.108278 0.0625467 0.0232242
0.380468 0.0799878 0
0.589807 0.108049 0
0.719722 0.148684 0
0 0.0909285 0.043595
0.158389 0.105898 0
0.542336 0.169253 0
0.714733 0.23444 0
0.798001 0.292485 0
0 0.168612 0.0535439
0.265232 0.256413 0
0.705531 0.353338 0
0.805798 0.347875 0
0.855467 0.411261 0
0 0.277073 0.0716716
0.365286 0.411322 0
0.833814 0.627329 0
0.915373 0.626505 0
0.908171 0.554818 0
0 0.361715 0.0904707
0.410788 0.515465 0
0.851545 0.718837 0
0.954818 0.771435 0
0.983368 0.777646 0
0 0.0612802 0.0837873
0.172427 0.0844739 0.0768292
0.504341 0.0621805 0
0.699031 0.0416266 0
0.770504 0.0746624 0
0 0.128908 0.155138
0.00141909 0.147738 0.184314
0.510475 0.189456 0.125978
0.74638 0.166125 0.0227207
0.834165 0.174304 0
0 0.271199 0.238331
0 0.283436 0.116701
0.703792 0.404532 0
0.860914 0.383398 0
0.916213 0.483726 0
0 0.318669 0.255314
0 0.415091 0.0220493
0.819409 0.648905 0
0.934173 0.666667 0
0.933318 0.595438 0
0 0.321431 0.251621
0.0586557 0.495583 0
0.80914 0.71783 0
0.966186 0.787518 0
0.983413 0.778881 0
0 0.105394 0.161975
0.0565805 0.097612 0.178119
0.615702 0.0959793 0.0369116
0.76141 0.0193332 0
0.825971 0.0984665 0.00199893
0 0.188251 0.261936
0 0.245319 0.35552
0.61294 0.23125 0.245945
0.793835 0.223606 0.219898
0.860136 0.237812 0.2103
0 0.378317 0.452796
0 0.470146 0.5552
0.52285 0.519432 0.537636
0.857862 0.582483 0.5337
0.952041 0.586984 0.489174
0 0.592447 0.641352
0 0.587808 0.625788
0.499626 0.673014 0.441337
0.949706 0.757763 0.365011
1 0.75523 0.412665
0 0.613336 0.640528
0 0.562905 0.540124
0.581765 0.729747 0.2851
0.957641 0.841535 0.362387
1 0.836515 0.03299
0 0.17792 0.264363
0 0.147204 0.252872
0.552544 0.187259 0.190951
0.803616 0.144213 0.060502
0.849607 0.17789 0.13962
0 0.270359 0.37113
0 0.332967 0.473686
0.521447 0.285969 0.396674
0.833234 0.304845 0.3691
0.892485 0.353246 0.414145
0 0.410285 0.529366
0 0.482826 0.618585
0.222202 0.528313 0.696757
0.878004 0.600595 0.657252
0.95108 0.643732 0.665339
0 0.564782 0.670909
0 0.611414 0.722164
0 0.737041 0.813199
0.875944 0.836652 0.795117
0.980285 0.851408 0.784802
0 0.67744 0.774365
0 0.689113 0.790631
0 0.758999 0.78471
0.872892 0.891325 0.709484
1 0.915999 0.655039
0 0.285405 0.405051
0 0.256291 0.375387
0.501396 0.270253 0.333959
0.805463 0.292165 0.369085
0.895171 0.348974 0.471382
0 0.348928 0.48246
0 0.390585 0.551583
0.29572 0.30074 0.563378
0.81622 0.387289 0.589944
0.919615 0.452522 0.649439
0 0.480827 0.628763
0 0.514229 0.671565
0 0.585077 0.794705
0.799146 0.594141 0.811963
0.954269 0.649958 0.801785
0 0.588739 0.731746
0 0.609293 0.752651
0 0.707286 0.840543
0.765728 0.826871 0.895644
0.978592 0.84979 0.881468
0 0.659724 0.786542
0 0.675135 0.799863
0 0.749722 0.857877
0.619959 0.909911 0.936065
0.98024 0.960708 0.936172
