luts/film_looks/Kodak2393_-_LOG.cube
LUT_3D_SIZE 33
0.00262455 0.00834669 0.00267033
0.00518807 0.00828565 0.00570687
0.0083772 0.00869764 0.00816358
0.0133974 0.011017 0.00735485
0.0179141 0.0126345 0.00697337
0.021561 0.0131533 0.00747692
0.0259251 0.0153811 0.00642405
0.0351415 0.0161593 0.00202945
0.0488136 0.0180514 0
0.0613107 0.0218967 0
0.0823377 0.0214847 0
0.106859 0.0251316 0
0.14284 0.0279545 0
0.193256 0.0256046 0
0.255192 0.0256352 0
0.316228 0.0227207 0
0.377813 0.0229953 0
0.432532 0.0232242 0
0.476097 0.0243534 0
0.520592 0.0281987 0
0.556191 0.0357061 0
0.591897 0.0464179 0
0.624994 0.0519875 0
0.653712 0.0499886 0
0.679591 0.0505531 0
0.697093 0.0586404 0
0.712352 0.0684977 0
0.721508 0.0721294 0
0.730877 0.0758373 0
0.740429 0.0796368 0
0.750134 0.0834363 0
0.758083 0.0873579 0
0.763012 0.0895552 0
0 0.0121462 0.00645457
0.00122072 0.0121309 0.00675975
0.00656138 0.0122377 0.00680552
0.0115663 0.0146334 0.00605783
0.0165103 0.0162051 0.00634775
0.0207065 0.016083 0.0090486
0.0246738 0.0184939 0.00862135
0.0350195 0.0191501 0.00468452
0.0477302 0.0212406 0
0.0635691 0.0250553 0
0.0836957 0.0242466 0
0.107927 0.0274815 0
0.14406 0.0297856 0
0.191791 0.027451 0
0.254307 0.0270237 0
0.314931 0.0237278 0
0.375525 0.0242008 0
0.431418 0.024506 0
0.475486 0.0262913 0
0.520104 0.0297704 0
0.556771 0.0368048 0
0.592523 0.0471962 0
0.625711 0.0539712 0
0.654734 0.0527657 0
0.68101 0.05243 0
0.698756 0.0588693 0
0.713863 0.0688029 0
0.723033 0.0724804 0
0.732128 0.0761425 0
0.741344 0.0798657 0
0.750713 0.0836194 0
0.758221 0.08748 0
0.763256 0.0895247 0
0 0.0187686 0.00933852
0 0.0190585 0.00926223
0.00335698 0.0192416 0.00906386
0.00894179 0.0197604 0.00880446
0.0147555 0.019913 0.00888075
0.0184939 0.0200351 0.00901808
0.0248264 0.0218204 0.00791943
0.034287 0.0228122 0.0062562
0.0455634 0.0243992 0.00320439
0.0616617 0.028336 0
0.0853437 0.027451 0
0.109392 0.0306401 0
0.145861 0.033051 0
0.193744 0.0310674 0
0.25713 0.0305791 0
0.319249 0.0276951 0
0.383139 0.0308843 0
0.439796 0.0322881 0
0.486549 0.040177 0
0.532479 0.0408789 0
0.567788 0.0450446 0
0.603525 0.0539101 0
0.636637 0.0634928 0
0.66389 0.0676127 0
0.691157 0.0653391 0
0.71191 0.0629282 0
0.727474 0.0719921 0
0.736904 0.075639 0
0.746197 0.0793774 0
0.755825 0.0832074 0
0.763729 0.0872206 0
0.768322 0.0895705 0
0.773114 0.0915084 0
0 0.0238651 0.0124971
0 0.024033 0.012665
0 0.0240482 0.0126802
0.00434882 0.0239414 0.0125734
0.0126345 0.0235904 0.0122225
0.0159915 0.0256809 0.01149
0.0222934 0.026978 0.0105745
0.0320745 0.0279698 0.00906386
0.0451667 0.0290379 0.00509651
0.0624857 0.0316167 0
0.0844892 0.0329595 0
0.111116 0.0354925 0
0.147326 0.0369726 0
0.198703 0.0350042 0
0.258244 0.0343481 0
0.324193 0.0341955 0
0.393545 0.0345769 0
0.450416 0.03888 0
0.501198 0.0465858 0
0.546532 0.0540475 0
0.582132 0.0599374 0
0.61944 0.0631113 0
0.654521 0.0678111 0
0.679438 0.0785992 0
0.700954 0.0851606 0
0.721462 0.07953 0
0.738018 0.0759442 0
0.751431 0.079408 0
0.761105 0.0832532 0
0.770794 0.0870069 0
0.778561 0.0909285 0
0.783475 0.0929732 0
0.788357 0.0954452 0
0 0.0289006 0.0156558
0 0.0294804 0.0158083
0 0.0298924 0.0158236
0 0.0301061 0.015671
0.00682078 0.0301976 0.0153658
0.0125734 0.0309758 0.014786
0.020325 0.0310979 0.0140536
0.0303502 0.0319677 0.0113985
0.0437324 0.0346227 0.00602731
0.0626688 0.035584 0
0.0836042 0.038941 0
0.113558 0.041825 0
0.150988 0.0423285 0
0.205081 0.0412299 0
0.269322 0.0412909 0
0.335103 0.0415351 0
0.404059 0.0449073 0
0.462943 0.0497292 0
0.518486 0.0573434 0
0.563607 0.0652934 0
0.598642 0.0737621 0
0.636378 0.0784314 0
0.671351 0.0838636 0
0.69575 0.0944533 0
0.716045 0.100374 0
0.734829 0.0952163 0
0.753414 0.0923629 0
0.76318 0.096437 0
0.7729 0.100282 0
0.783352 0.102266 0
0.791455 0.103929 0
0.79675 0.105531 0
0.801617 0.108446 0
0 0.035462 0.0175021
0 0.035874 0.017319
0 0.0369268 0.016846
0 0.0377203 0.0163424
0 0.037995 0.0158694
0.00607309 0.0378576 0.015198
0.0159609 0.0372015 0.0144961
0.0270542 0.0377813 0.012192
0.0421607 0.0402838 0.00674449
0.0624399 0.0409705 0
0.0871748 0.0433661 0
0.118547 0.0458686 0
0.157916 0.0477455 0
0.212772 0.0485847 0
0.27924 0.0485389 0
0.350134 0.0523995 0
0.420172 0.0563516 0
0.481651 0.0612802 0
0.535088 0.0693065 0
0.584527 0.0773632 0
0.619226 0.0863813 0
0.65745 0.0926986 0
0.687343 0.100908 0
0.71133 0.111604 0
0.733745 0.115221 0
0.751598 0.110552 0
0.765957 0.109682 0
0.77583 0.113603 0
0.786404 0.11545 0
0.796948 0.1178 0
0.808164 0.118883 0
0.814603 0.122026 0
0.820478 0.12224 0
0 0.0390784 0.0164645
0 0.0404669 0.0163424
0 0.0432441 0.0159915
0 0.0447395 0.0159152
0 0.0457313 0.0158083
0 0.045655 0.0153353
0.0089723 0.0450446 0.0146639
0.022446 0.0458228 0.012192
0.0409247 0.0464637 0.00700389
0.0648508 0.0478676 0
0.0915694 0.0511025 0
0.12343 0.0535744 0
0.16759 0.0552224 0
0.225345 0.0560464 0
0.300801 0.0621958 0
0.373358 0.064744 0
0.443915 0.0709392 0
0.506096 0.0756237 0
0.560449 0.0820783 0
0.609628 0.0899825 0
0.64361 0.0961471 0
0.682857 0.104601 0
0.712184 0.114931 0
0.735821 0.125841 0
0.753933 0.128908 0
0.771664 0.125704 0
0.785214 0.123919 0
0.795453 0.126604 0
0.804318 0.134051 0
0.814694 0.139574 0
0.825971 0.139803 0
0.831662 0.143908 0
0.838193 0.144076 0
0 0.0462043 0.0188754
0 0.0470588 0.019089
0 0.0477455 0.0193332
0 0.0503395 0.0187686
0 0.0535134 0.0178683
0 0.0536049 0.01738
0.000137331 0.0535134 0.0165103
0.0162203 0.0547646 0.0117494
0.0386969 0.0547799 0.00721752
0.0650034 0.0562753 0
0.0927443 0.0593729 0
0.12723 0.0617685 0
0.177249 0.066041 0
0.24065 0.0672465 0
0.321309 0.0733501 0
0.398978 0.0793164 0
0.471839 0.0858625 0
0.534325 0.091722 0
0.589029 0.0969863 0
0.63476 0.103639 0
0.669474 0.112093 0
0.709651 0.118502 0
0.736614 0.129427 0
0.764096 0.140612 0
0.776547 0.141146 0
0.792721 0.140627 0
0.804593 0.140749 0
0.811337 0.141085 0
0.823957 0.152407 0
0.836133 0.159487 0
0.843381 0.161975 0
0.852644 0.164813 0
0.858503 0.168063 0
0 0.053666 0.0178225
0 0.0555886 0.0172732
0 0.0587472 0.0163729
0 0.0603189 0.0161898
0 0.0612955 0.0164645
0 0.0628367 0.0164187
0 0.0651255 0.015259
0.00762951 0.0655222 0.00965896
0.0333562 0.0664225 0.00485237
0.0644388 0.0689708 0
0.0966201 0.0734722 0
0.134081 0.0774548 0
0.193011 0.0818647 0
0.258503 0.0835889 0
0.344762 0.0904097 0
0.427024 0.0988022 0
0.502586 0.108186 0
0.565042 0.114107 0
0.61828 0.119631 0
0.658122 0.128344 0
0.694453 0.137133 0
0.730434 0.142992 0
0.755398 0.149172 0
0.781125 0.161349 0
0.800565 0.161135 0
0.814115 0.158755 0
0.824674 0.162234 0
0.834913 0.163409 0
0.844846 0.169192 0
0.852247 0.177539 0
0.859113 0.183352 0
0.866529 0.186648 0
0.872206 0.190631 0
0 0.0640879 0.0179294
0 0.0659342 0.0179294
0 0.067689 0.0179904
0 0.068986 0.0184634
0 0.0710002 0.0174105
0 0.0745098 0.0139315
0 0.0764935 0.0131075
0 0.077821 0.00924697
0.0256504 0.0799878 0.00189212
0.0588388 0.0826734 0
0.0971237 0.0873274 0
0.137819 0.0914015 0
0.20354 0.0962387 0
0.278019 0.101991 0
0.366278 0.110536 0
0.452674 0.12285 0
0.534203 0.132479 0
0.591852 0.14081 0
0.646448 0.14667 0
0.684367 0.15642 0
0.719844 0.166476 0
0.750027 0.173373 0
0.776501 0.176959 0
0.80058 0.179538 0
0.819898 0.181079 0
0.836072 0.183078 0
0.846433 0.186374 0
0.855924 0.189334 0
0.864271 0.19379 0
0.871061 0.200977 0
0.875868 0.206806 0
0.88069 0.212467 0
0.886427 0.213962 0
0 0.0768292 0.0196536
0 0.0791791 0.0195621
0 0.0828107 0.0191501
0 0.0851148 0.0195163
0 0.0881361 0.0188602
0 0.0921645 0.0146487
0 0.0944076 0.00967422
0 0.0977646 0
0 0.10071 0
0.052369 0.102403 0
0.0949721 0.108293 0
0.142138 0.112902 0
0.213931 0.121187 0
0.291814 0.127367 0
0.383352 0.136706 0
0.472892 0.149691 0
0.55285 0.159548 0
0.615076 0.172656 0
0.667384 0.18233 0
0.704875 0.187289 0
0.740459 0.19707 0
0.771801 0.204059 0
0.79855 0.208423 0
0.819593 0.212009 0
0.839185 0.21265 0
0.853513 0.214618 0
0.862837 0.219593 0
0.871778 0.22414 0
0.881727 0.226169 0
0.887556 0.232853 0
0.892485 0.238163 0
0.896849 0.244083 0
0.900649 0.248051 0
0 0.0931258 0.0207828
0 0.0954604 0.020737
0 0.0978561 0.0206912
0 0.101396 0.0203403
0 0.10602 0.0199588
0 0.109361 0.0164034
0 0.113573 0.0112154
0 0.118532 0
0 0.123476 0
0.0180972 0.125948 0
0.0823987 0.130816 0
0.139071 0.137179 0
0.214618 0.146944 0
0.300847 0.156832 0
0.396658 0.168612 0
0.484718 0.179507 0
0.566705 0.19292 0
0.631296 0.207095 0
0.687068 0.217334 0
0.724407 0.225986 0
0.761868 0.231983 0
0.791394 0.236378 0
0.818631 0.241779 0
0.840696 0.246632 0
0.857939 0.248905 0
0.871504 0.251499 0
0.881239 0.257725 0
0.888899 0.263172 0
0.895705 0.266926 0
0.90312 0.273304 0
0.909178 0.27805 0
0.913527 0.28426 0
0.915785 0.290547 0
0 0.118166 0.0233616
0 0.121721 0.0236973
0 0.127489 0.0234226
0 0.132357 0.0234226
0 0.135531 0.0238499
0 0.141588 0.019791
0 0.144961 0.0140688
0 0.148913 0
0 0.154086 0
0 0.157397 0
0.0610513 0.164263 0
0.131044 0.172992 0
0.215686 0.186481 0
0.304051 0.198474 0
0.405936 0.213016 0
0.497108 0.22768 0
0.581994 0.2383 0
0.648249 0.248936 0
0.703655 0.262272 0
0.741421 0.270787 0
0.778073 0.277485 0
0.809995 0.282841 0
0.838087 0.286351 0
0.859495 0.290608 0
0.876036 0.294652 0
0.889204 0.297948 0
0.898726 0.302693 0
0.906859 0.308003 0
0.912261 0.313024 0
0.920195 0.318715 0
0.926375 0.324132 0
0.930251 0.33164 0
0.93489 0.336934 0
0 0.147845 0.0318303
0 0.151217 0.0330053
0 0.158129 0.0306096
0 0.165423 0.0298924
0 0.170504 0.0306554
0 0.177371 0.0274662
0 0.183307 0.0211643
0 0.188373 0.0062562
0 0.19266 0
0 0.195987 0
0.026688 0.203616 0
0.115846 0.21445 0
0.209445 0.229694 0
0.304097 0.244892 0
0.41059 0.262013 0
0.50898 0.277882 0
0.595346 0.292409 0
0.660487 0.30396 0
0.717296 0.312123 0
0.755917 0.321401 0
0.791577 0.330663 0
0.824414 0.336645 0
0.852979 0.340703 0
0.875685 0.343862 0
0.893339 0.349081 0
0.906294 0.353246 0
0.915587 0.356558 0
0.922927 0.361822 0
0.929503 0.367346 0
0.935241 0.372244 0
0.940139 0.377462 0
0.945571 0.385382 0
0.948775 0.394156 0
0 0.190829 0.0440986
0 0.196201 0.046128
0 0.203983 0.0472572
0 0.212024 0.0470283
0 0.21886 0.0463111
0 0.226703 0.0437018
0 0.234089 0.0370184
0 0.239063 0.0231022
0 0.24242 0
0 0.247471 0
0 0.25481 0
0.0902724 0.26688 0
0.197925 0.28426 0
0.303471 0.30219 0
0.418006 0.322255 0
0.517952 0.339254 0
0.609216 0.35552 0
0.673716 0.365545 0
0.727108 0.376257 0
0.766079 0.38349 0
0.804776 0.389487 0
0.839139 0.3935 0
0.866972 0.396399 0
0.891783 0.401297 0
0.907973 0.405264 0
0.921843 0.408347 0
0.9308 0.412039 0
0.937942 0.416846 0
0.94403 0.421653 0
0.949935 0.427634 0
0.955184 0.43418 0
0.958297 0.44126 0
0.962036 0.447822 0
0 0.23772 0.0634775
0 0.244648 0.0662852
0 0.253788 0.0661326
0 0.263386 0.0651255
0 0.270939 0.067628
0 0.280537 0.0637064
0 0.290288 0.0555886
0 0.296895 0.0387579
0 0.300069 0.0125277
0 0.304341 0
0 0.311116 0
0.0655222 0.323751 0
0.194888 0.346487 0
0.308537 0.366598 0
0.428611 0.387823 0
0.531807 0.406104 0
0.621546 0.42475 0
0.688518 0.436362 0
0.744762 0.445777 0
0.786099 0.452613 0
0.822522 0.45832 0
0.854551 0.461906 0
0.88249 0.463996 0
0.906828 0.465492 0
0.919829 0.466545 0
0.932815 0.468788 0
0.941543 0.470527 0
0.948333 0.473884 0
0.954391 0.476905 0
0.959854 0.481758 0
0.96698 0.488594 0
0.97203 0.494423 0
0.974395 0.500114 0
0 0.291722 0.0847028
0 0.298192 0.0869459
0 0.30692 0.0873884
0 0.316213 0.0886244
0 0.3252 0.0908522
0 0.336751 0.0850996
0 0.346471 0.0775311
0 0.353613 0.0599069
0 0.359823 0.0260014
0 0.365606 0
0 0.370245 0
0.0531624 0.385504 0
0.188678 0.406027 0
0.319966 0.432959 0
0.441764 0.455512 0
0.546838 0.475502 0
0.63975 0.494224 0
0.707698 0.501747 0
0.762982 0.512581 0
0.802853 0.519097 0
0.840146 0.523125 0
0.871702 0.526055 0
0.897642 0.52842 0
0.921401 0.528161 0
0.934218 0.52578 0
0.94406 0.523751 0
0.95169 0.523369 0
0.956436 0.525002 0
0.963928 0.526452 0
0.968368 0.529244 0
0.974075 0.537148 0
0.979919 0.542351 0
0.982238 0.547478 0
0 0.342458 0.105776
0 0.349722 0.109438
0 0.359808 0.112459
0 0.369909 0.114015
0 0.379889 0.11281
0 0.393179 0.106844
0 0.40293 0.100801
0 0.409857 0.0830549
0 0.416052 0.049897
0 0.421042 0
0 0.428061 0
0.0567788 0.445151 0
0.201846 0.471412 0
0.336309 0.497871 0
0.463996 0.520211 0
0.572412 0.542916 0
0.660822 0.557046 0
0.725322 0.566766 0
0.780194 0.573419 0
0.820966 0.578439 0
0.857099 0.583474 0
0.886595 0.584833 0
0.910872 0.583764 0
0.932097 0.581796 0
0.945937 0.580194 0
0.956527 0.577707 0
0.965133 0.575952 0
0.968917 0.576028 0
0.976898 0.573678 0
0.980102 0.574563 0
0.982177 0.579141 0
0.98883 0.583627 0
0.991592 0.588129 0
0 0.392737 0.131075
0 0.400656 0.133867
0 0.410086 0.136233
0 0.422263 0.138354
0 0.434226 0.137179
0 0.444953 0.130465
0 0.453651 0.120348
0 0.461326 0.0999771
0 0.46717 0.0588846
0 0.472114 0
0 0.481559 0
0.0684672 0.500511 0
0.219471 0.530297 0
0.359396 0.558236 0
0.487709 0.582483 0
0.593439 0.603784 0
0.68188 0.618509 0
0.745373 0.623636 0
0.797726 0.628244 0
0.834882 0.630716 0
0.869703 0.633326 0
0.897353 0.633188 0
0.920241 0.630854 0
0.94052 0.628519 0
0.954757 0.625971 0
0.9682 0.623484 0
0.97763 0.620752 0
0.984771 0.621042 0
0.988388 0.620905 0
0.992386 0.618296 0
0.993622 0.622171 0
0.997543 0.623117 0
1 0.626139 0
0 0.430854 0.148058
0 0.438849 0.147829
0 0.448432 0.147555
0 0.459113 0.147677
0 0.470542 0.145464
0 0.4813 0.140047
0 0.491585 0.129259
0 0.49987 0.107637
0 0.506706 0.0568093
0 0.512688 0
0 0.524865 0
0.0901961 0.546548 0
0.245914 0.575555 0
0.385977 0.604685 0
0.508247 0.628702 0
0.611902 0.646952 0
0.697917 0.659693 0
0.759335 0.664988 0
0.811337 0.667994 0
0.846021 0.667506 0
0.878813 0.668727 0
0.90483 0.66772 0
0.92723 0.664958 0
0.947799 0.662501 0
0.962905 0.66183 0
0.973526 0.658976 0
0.983078 0.656458 0
0.992111 0.654887 0
0.995254 0.65597 0
0.999252 0.655482 0
1 0.656352 0
1 0.659205 0
1 0.661357 0
0 0.464057 0.15938
0 0.47245 0.158892
0 0.483436 0.157931
0 0.494423 0.155505
0 0.503761 0.151232
0 0.514046 0.146807
0 0.524147 0.134813
0 0.532433 0.112993
0 0.541451 0.0599527
0 0.548623 0
0 0.563607 0
0.111131 0.58677 0
0.263584 0.615991 0
0.398596 0.643442 0
0.520684 0.66894 0
0.624994 0.685496 0
0.708522 0.69659 0
0.769192 0.701015 0
0.819287 0.703929 0
0.853101 0.703548 0
0.885664 0.703105 0
0.91133 0.700969 0
0.934401 0.698619 0
0.955627 0.696986 0
0.970138 0.69514 0
0.98175 0.692424 0
0.988983 0.690425 0
0.997971 0.689647 0
1 0.689296 0
1 0.6907 0
1 0.688365 0
1 0.693049 0
1 0.695048 0
0 0.490822 0.165774
0 0.499046 0.164355
0 0.508995 0.161379
0 0.517891 0.157946
0 0.526238 0.154116
0 0.536965 0.148592
0 0.545708 0.134447
0 0.552773 0.113222
0 0.563897 0.0593729
0 0.57142 0
0 0.586114 0
0.118257 0.609842 0
0.272541 0.639155 0
0.406439 0.667567 0
0.525582 0.691875 0
0.625299 0.709407 0
0.710536 0.722118 0
0.771221 0.727932 0
0.820386 0.730694 0
0.853971 0.729747 0
0.887877 0.729015 0
0.91487 0.727611 0
0.937758 0.726253 0
0.959518 0.725795 0
0.973922 0.723873 0
0.987716 0.721721 0
0.994614 0.720531 0
1 0.721767 0
1 0.72137 0
1 0.722988 0
1 0.72256 0
1 0.725185 0
1 0.727916 0
0 0.510109 0.169955
0 0.518364 0.168414
0 0.528634 0.166873
0 0.536477 0.162768
0 0.544457 0.157061
0 0.554284 0.147524
0 0.561929 0.13373
0 0.568627 0.114031
0 0.578271 0.0512245
0 0.591745 0
0 0.607675 0
0.109331 0.629511 0
0.266392 0.657832 0
0.401785 0.686656 0
0.522576 0.711711 0
0.619135 0.72845 0
0.705608 0.742153 0
0.767483 0.749981 0
0.819379 0.75375 0
0.852369 0.751583 0
0.886595 0.751553 0
0.916472 0.750988 0
0.939803 0.74995 0
0.960784 0.750179 0
0.975235 0.748592 0
0.9897 0.746914 0
0.998611 0.745632 0
1 0.744183 0
1 0.746609 0
1 0.746181 0
1 0.748592 0
1 0.747921 0
1 0.751232 0
0 0.526329 0.172488
0 0.533501 0.170291
0 0.540139 0.166537
0 0.548623 0.161807
0 0.557549 0.155779
0 0.565438 0.147539
0 0.571954 0.134173
0 0.578012 0.114488
0 0.588479 0.034287
0 0.599313 0
0 0.618891 0
0.0997024 0.639063 0
0.257191 0.668482 0
0.392279 0.69749 0
0.51458 0.726024 0
0.612375 0.74406 0
0.697581 0.759991 0
0.76054 0.769696 0
0.817502 0.775967 0
0.853086 0.774929 0
0.88603 0.774609 0
0.916899 0.773953 0
0.942763 0.773098 0
0.964416 0.77435 0
0.979202 0.773129 0
0.994049 0.771832 0
0.999878 0.771084 0
1 0.769985 0
1 0.769116 0
1 0.772625 0
1 0.772061 0
1 0.774548 0
1 0.774563 0
0 0.53817 0.17554
0 0.544305 0.172641
0 0.549599 0.170504
0 0.557031 0.164691
0 0.56585 0.156359
0 0.575494 0.150225
0 0.583261 0.136721
0 0.589303 0.113466
0 0.598978 0.0417487
0 0.611444 0
0 0.627909 0
0.0874952 0.648386 0
0.246296 0.677668 0
0.382818 0.705135 0
0.504524 0.731456 0
0.603464 0.752636 0
0.694026 0.772259 0
0.758099 0.783307 0
0.81297 0.790249 0
0.852842 0.792264 0
0.887831 0.79147 0
0.918776 0.789456 0
0.942168 0.788693 0
0.964385 0.790112 0
0.979217 0.788876 0
0.994186 0.787564 0
1 0.786587 0
1 0.785595 0
1 0.784741 0
1 0.788312 0
1 0.788022 0
1 0.787594 0
1 0.788144 0
0 0.545052 0.177783
0 0.551827 0.174197
0 0.55848 0.171954
0 0.565759 0.167025
0 0.573983 0.158907
0 0.581598 0.15024
0 0.58938 0.135805
0 0.597116 0.111498
0 0.605158 0.0518196
0 0.619455 0
0 0.63653 0
0.0789654 0.655756 0
0.235386 0.686427 0
0.376425 0.713924 0
0.498726 0.739345 0
0.597421 0.762127 0
0.688823 0.782223 0
0.754116 0.793713 0
0.812345 0.803906 0
0.852232 0.807828 0
0.887449 0.809049 0
0.921584 0.809308 0
0.945006 0.807538 0
0.968673 0.805875 0
0.983627 0.804776 0
0.998657 0.803388 0
1 0.802747 0
1 0.801877 0
1 0.801221 0
1 0.804822 0
1 0.80441 0
1 0.803601 0
1 0.803052 0
0 0.549584 0.17911
0 0.556985 0.175586
0 0.564599 0.17113
0 0.572366 0.165652
0 0.580056 0.158892
0 0.58648 0.149477
0 0.59202 0.134554
0 0.601328 0.11078
0 0.61146 0.063508
0 0.624659 0
0 0.643183 0
0.0762341 0.66067 0
0.226551 0.691035 0
0.370123 0.719402 0
0.49192 0.744595 0
0.593378 0.768612 0
0.685435 0.78938 0
0.751949 0.801236 0
0.808362 0.809323 0
0.850492 0.814466 0
0.887404 0.817258 0
0.922805 0.817548 0
0.946395 0.815793 0
0.970382 0.813931 0
0.985412 0.812879 0
1 0.81178 0
1 0.811337 0
1 0.810529 0
1 0.813809 0
1 0.813672 0
1 0.813596 0
1 0.81326 0
1 0.812833 0
0 0.55288 0.181079
0 0.560494 0.177157
0 0.568276 0.172061
0 0.576257 0.165972
0 0.582971 0.157366
0 0.589487 0.146334
0 0.595728 0.131014
0 0.6065 0.105623
0 0.618311 0.0681315
