luts/film_looks/Kodak2393_-_LOG.cube
LUT_3D_SIZE 5
0.00262455 0.00834669 0.00267033
0.0488136 0.0180514 0
0.377813 0.0229953 0
0.679591 0.0505531 0
0.763012 0.0895552 0
0 0.053666 0.0178225
0.0333562 0.0664225 0.00485237
0.502586 0.108186 0
0.800565 0.161135 0
0.872206 0.190631 0
0 0.291722 0.0847028
0 0.359823 0.0260014
0.63975 0.494224 0
0.934218 0.52578 0
0.982238 0.547478 0
0 0.53817 0.17554
0 0.598978 0.0417487
0.694026 0.772259 0
0.979217 0.788876 0
1 0.788144 0
0 0.614343 0.17818
0 0.673564 0
0.677317 0.810269 0
0.983459 0.839673 0
1 0.843412 0
0 0.0203555 0.0705425
0.0385138 0.0216983 0.0745403
0.38819 0 0
0.723751 0 0
0.83061 0 0
0 0.067628 0.08365
0 0.0783246 0.0873274
0.521996 0.0593729 0
0.890974 0 0
0.97113 0.0178988 0
0 0.354238 0.182101
0 0.428428 0.172457
0.645579 0.497108 0
0.983642 0.529427 0
1 0.54165 0
0 0.579416 0.304662
0 0.649607 0.255787
0.661662 0.778897 0
1 0.810452 0
1 0.812329 0
0 0.668757 0.406561
0 0.741238 0.354162
0.599252 0.828641 0
1 0.877562 0
1 0.879637 0.0142367
0 0.157473 0.370016
0 0.12401 0.395529
0.402258 0 0.398032
0.748486 0 0.412039
0.85452 0 0.430457
0 0.237797 0.464973
0 0.238788 0.515846
0.540612 0.00462348 0.533165
0.917174 0 0.582727
0.983551 0.00373846 0.608042
0 0.493477 0.601648
0 0.576791 0.67509
0.553918 0.548333 0.56495
0.966598 0.559289 0.538827
1 0.559884 0.513512
0 0.70164 0.730465
0 0.770687 0.751049
0.485313 0.845884 0.541695
0.969192 0.881788 0.495338
1 0.890455 0.487968
0 0.765957 0.77641
0 0.837446 0.803677
0.439948 0.905241 0.647211
0.933944 0.948257 0.619471
1 0.956847 0.623758
0 0.235584 0.546777
0 0.23476 0.575769
0.417258 0 0.66363
0.775418 0 0.690333
0.888197 0 0.709743
0 0.323476 0.6598
0 0.335195 0.714595
0.560586 0 0.849729
0.939483 0 0.89659
1 0 0.919081
0 0.558038 0.804608
0 0.617456 0.860761
0.504204 0.588891 0.928054
0.936965 0.582269 0.91194
1 0.58613 0.893431
0 0.730007 0.881529
0 0.792447 0.922347
0.371542 0.89807 0.926162
0.919341 0.928603 0.894713
1 0.936446 0.884321
0 0.786664 0.917159
0 0.855741 0.957473
0.348837 0.948211 0.952087
0.890761 0.985641 0.925765
0.996551 0.995041 0.923247
0 0.284916 0.638041
0 0.284337 0.667292
0.443153 0 0.80206
0.818463 0 0.839124
0.925597 0 0.856275
0 0.369985 0.731762
0 0.382712 0.787152
0.559762 0.066865 0.963577
0.941054 0.0274968 0.996735
1 0.108537 1
0 0.57995 0.857832
0 0.636423 0.911406
0.470802 0.606073 1
0.918898 0.587304 1
1 0.584268 1
0 0.735454 0.915969
0 0.795987 0.957641
0.277241 0.907439 1
0.894591 0.934813 1
0.998291 0.944198 1
0 0.793774 0.948547
0 0.856275 0.988037
0.280964 0.957443 1
0.8692 0.996292 1
0.992126 1 1
