luts/film_looks/Kodak2393_-_LOG.cube
LUT_3D_SIZE 9
0.00262455 0.00834669 0.00267033
0.0179141 0.0126345 0.00697337
0.0488136 0.0180514 0
0.14284 0.0279545 0
0.377813 0.0229953 0
0.556191 0.0357061 0
0.679591 0.0505531 0
0.730877 0.0758373 0
0.763012 0.0895552 0
0 0.0289006 0.0156558
0.00682078 0.0301976 0.0153658
0.0437324 0.0346227 0.00602731
0.150988 0.0423285 0
0.404059 0.0449073 0
0.598642 0.0737621 0
0.716045 0.100374 0
0.7729 0.100282 0
0.801617 0.108446 0
0 0.053666 0.0178225
0 0.0612955 0.0164645
0.0333562 0.0664225 0.00485237
0.193011 0.0818647 0
0.502586 0.108186 0
0.694453 0.137133 0
0.800565 0.161135 0
0.844846 0.169192 0
0.872206 0.190631 0
0 0.118166 0.0233616
0 0.135531 0.0238499
0 0.154086 0
0.215686 0.186481 0
0.581994 0.2383 0
0.778073 0.277485 0
0.876036 0.294652 0
0.912261 0.313024 0
0.93489 0.336934 0
0 0.291722 0.0847028
0 0.3252 0.0908522
0 0.359823 0.0260014
0.188678 0.406027 0
0.63975 0.494224 0
0.840146 0.523125 0
0.934218 0.52578 0
0.963928 0.526452 0
0.982238 0.547478 0
0 0.464057 0.15938
0 0.503761 0.151232
0 0.541451 0.0599527
0.263584 0.615991 0
0.708522 0.69659 0
0.885664 0.703105 0
0.970138 0.69514 0
1 0.689296 0
1 0.695048 0
0 0.53817 0.17554
0 0.56585 0.156359
0 0.598978 0.0417487
0.246296 0.677668 0
0.694026 0.772259 0
0.887831 0.79147 0
0.979217 0.788876 0
1 0.784741 0
1 0.788144 0
0 0.556893 0.184176
0 0.587442 0.157961
0 0.625315 0.0668803
0.224414 0.70135 0
0.676234 0.799786 0
0.885054 0.826734 0
0.985641 0.826001 0
1 0.827451 0
1 0.826078 0
0 0.614343 0.17818
0 0.633936 0.119997
0 0.673564 0
0.290425 0.729274 0
0.677317 0.810269 0
0.87808 0.838499 0
0.983459 0.839673 0
1 0.840604 0
1 0.843412 0
0 0.0157015 0.0313878
0.0112764 0.0164645 0.0327001
0.0471809 0.0211185 0.0273136
0.147616 0.0255589 0
0.383627 0 0
0.568307 0.00737011 0
0.701946 0.00679026 0
0.752605 0.0532082 0
0.777798 0.0704662 0
0 0.0312657 0.0327153
0 0.0357824 0.034226
0.0417487 0.0374609 0.0283818
0.154803 0.0414893 0
0.411917 0.0304112 0
0.613443 0.0529641 0
0.738918 0.0683604 0
0.796429 0.0769665 0
0.825193 0.0868849 0
0 0.0602731 0.0378729
0 0.0693217 0.0399634
0.0251316 0.0714427 0.0309758
0.195575 0.0818799 0
0.516289 0.091249 0
0.719951 0.113085 0
0.823026 0.136797 0
0.871366 0.141207 0
0.894881 0.165576 0
0 0.132723 0.0474708
0 0.150149 0.0516823
0 0.165042 0.0186007
0.223133 0.193698 0
0.596353 0.233677 0
0.804959 0.26952 0
0.899107 0.288563 0
0.939223 0.302052 0
0.957855 0.332815 0
0 0.314458 0.113695
0 0.357061 0.121996
0 0.381872 0.0591287
0.168872 0.416739 0
0.650187 0.498405 0
0.855222 0.531518 0
0.950683 0.536416 0
0.980392 0.534524 0
0.998306 0.549676 0
0 0.488258 0.190494
0 0.528084 0.188357
0 0.563699 0.118212
0.215824 0.62298 0
0.708324 0.702235 0
0.892393 0.711269 0
0.977432 0.700648 0
1 0.698405 0
1 0.702693 0
0 0.553231 0.217853
0 0.585779 0.209567
0 0.617807 0.130785
0.16672 0.682612 0
0.69044 0.775891 0
0.890318 0.796658 0
0.991211 0.795666 0
1 0.793042 0
1 0.797894 0
0 0.571725 0.22797
0 0.606516 0.215427
0 0.641291 0.143816
0.139956 0.70692 0
0.66659 0.803113 0
0.887861 0.832975 0
0.992462 0.832639 0
1 0.833753 0
1 0.833936 0
0 0.629633 0.270298
0 0.666468 0.255863
0 0.694087 0.117327
0.183825 0.742519 0
0.647288 0.813352 0
0.88101 0.848447 0
1 0.853498 0
1 0.857694 0
1 0.856458 0
0 0.0203555 0.0705425
0 0.022034 0.0755627
0.0385138 0.0216983 0.0745403
0.146715 0.0208286 0.0496986
0.38819 0 0
0.582147 0 0
0.723751 0 0
0.794232 0 0
0.83061 0 0
0 0.0374762 0.0721294
0 0.0400854 0.0779889
0.0316777 0.0400244 0.0751659
0.154726 0.0406043 0.0477455
0.427527 0 0
0.643595 0 0
0.785855 0 0
0.849119 0 0
0.883421 0 0
0 0.067628 0.08365
0 0.0741741 0.0929732
0 0.0783246 0.0873274
0.196689 0.085832 0.0588693
0.521996 0.0593729 0
0.752895 0.0148928 0
0.890974 0 0
0.951293 0 0
0.97113 0.0178988 0
0 0.149981 0.101549
0 0.175006 0.118639
0 0.182284 0.101869
0.213733 0.204013 0.0353399
0.60296 0.222217 0
0.834257 0.230137 0
0.954437 0.229923 0
1 0.244923 0
1 0.282353 0
0 0.354238 0.182101
0 0.401022 0.212467
0 0.428428 0.172457
0.118959 0.436667 0
0.645579 0.497108 0
0.877668 0.524208 0
0.983642 0.529427 0
1 0.530236 0
1 0.54165 0
0 0.518151 0.264393
0 0.551186 0.272267
0 0.603098 0.233143
0.121309 0.631724 0
0.68217 0.695705 0
0.901564 0.7131 0
1 0.710384 0
1 0.702785 0
1 0.71281 0
0 0.579416 0.304662
0 0.605432 0.303792
0 0.649607 0.255787
0.0354009 0.695659 0
0.661662 0.778897 0
0.898375 0.807355 0
1 0.810452 0
1 0.81059 0
1 0.812329 0
0 0.596826 0.330175
0 0.639017 0.336217
0 0.680919 0.290944
0 0.726131 0
0.630304 0.806378 0
0.891051 0.84535 0
1 0.850584 0
1 0.850401 0
1 0.852491 0
0 0.668757 0.406561
0 0.702373 0.41149
0 0.741238 0.354162
0 0.774914 0.121263
0.599252 0.828641 0
0.859434 0.861112 0
1 0.877562 0
1 0.882719 0
1 0.879637 0.0142367
0 0.0484627 0.183444
0 0.0544442 0.195468
0.00509651 0.00526436 0.198962
0.1458 0 0.188678
0.384237 0 0.165881
0.588113 0 0.16376
0.731411 0 0.16846
0.799252 0 0.174456
0.836423 0 0.180606
0 0.06981 0.194186
0 0.0744793 0.209506
0 0.0448615 0.206409
0.147158 0.0256657 0.196948
0.425803 0 0.180713
0.643488 0 0.179553
0.790814 0 0.190219
0.859388 0 0.203189
0.894133 0 0.218402
0 0.118868 0.233371
0 0.131212 0.263874
0 0.111131 0.265263
0.185077 0.0877852 0.248188
0.523842 0.0590219 0.229831
0.764218 0 0.250492
0.908476 0 0.268986
0.967193 0 0.289265
0.978027 0.00325017 0.295125
0 0.218494 0.28925
0 0.256184 0.330495
0 0.25536 0.332036
0.174807 0.225834 0.276829
0.592706 0.233616 0.243305
0.832746 0.232868 0.244327
0.950957 0.226627 0.248112
0.998184 0.24622 0.267094
1 0.290852 0.269795
0 0.419165 0.365286
0 0.469352 0.411399
0 0.50985 0.422141
0.0191043 0.481483 0.270604
0.607584 0.511391 0.177539
0.867414 0.532845 0.148852
0.99971 0.525399 0.122942
1 0.522484 0.108751
1 0.535027 0.0846265
0 0.581155 0.466087
0 0.622248 0.501335
0 0.662318 0.488777
0 0.678981 0.288228
0.61294 0.711284 0.139834
0.881025 0.724865 0.0600595
1 0.720928 0.000503548
1 0.71722 0
1 0.72842 0
0 0.643473 0.510765
0 0.672465 0.52784
0 0.710979 0.509575
0 0.74966 0.308598
0.577081 0.798444 0.109499
0.870436 0.828244 0.0218814
1 0.839933 0
1 0.841581 0
1 0.846571 0.0150607
0 0.658595 0.532158
0 0.697169 0.556497
0 0.738552 0.540703
0 0.784909 0.374426
0.53962 0.837964 0.188098
0.844923 0.871443 0.131212
1 0.887449 0.099443
1 0.890562 0.108812
1 0.887984 0.161318
0 0.716197 0.591196
0 0.752529 0.611704
0 0.788312 0.591073
0 0.817044 0.443122
0.525582 0.863264 0.333227
0.806745 0.894835 0.304967
0.980362 0.909392 0.286305
1 0.917021 0.284733
1 0.915099 0.318669
0 0.157473 0.370016
0 0.167926 0.39057
0 0.12401 0.395529
0.146197 0 0.395605
0.402258 0 0.398032
0.602686 0 0.408392
0.748486 0 0.412039
0.81474 0 0.420783
0.85452 0 0.430457
0 0.182559 0.406638
0 0.192126 0.423484
0 0.170901 0.432334
0.157504 0 0.431525
0.438056 0 0.433295
0.661707 0 0.448737
0.807462 0 0.461311
0.877287 0 0.476967
0.911208 0 0.494987
0 0.237797 0.464973
0 0.254505 0.497414
0 0.238788 0.515846
0.175814 0.0726329 0.51519
0.540612 0.00462348 0.533165
0.773693 0 0.555932
0.917174 0 0.582727
0.97438 0 0.601083
0.983551 0.00373846 0.608042
0 0.325734 0.527535
0 0.353964 0.567758
0 0.363699 0.599222
0.0919203 0.254734 0.578363
0.578058 0.254658 0.573281
0.819379 0.249516 0.585595
0.942702 0.249271 0.593759
0.989914 0.269001 0.60737
1 0.308095 0.609491
0 0.493477 0.601648
0 0.535271 0.643931
0 0.576791 0.67509
0 0.552895 0.625086
0.553918 0.548333 0.56495
0.825895 0.566064 0.551507
0.966598 0.559289 0.538827
1 0.544976 0.522622
1 0.559884 0.513512
0 0.647974 0.697643
0 0.684947 0.72842
0 0.72665 0.74284
0 0.747417 0.663264
0.535546 0.754192 0.552575
0.816495 0.762524 0.519402
0.974289 0.758373 0.49836
1 0.755962 0.48159
1 0.765332 0.476509
0 0.70164 0.730465
0 0.730922 0.75111
0 0.770687 0.751049
0 0.813581 0.676997
0.485313 0.845884 0.541695
0.803601 0.873747 0.515908
0.969192 0.881788 0.495338
1 0.884901 0.489464
1 0.890455 0.487968
0 0.716121 0.737514
0 0.754116 0.765896
0 0.796033 0.77467
0 0.843931 0.706264
0.441962 0.885328 0.581155
0.779477 0.916503 0.558358
0.957504 0.928878 0.542016
1 0.932952 0.535607
1 0.935302 0.54081
0 0.765957 0.77641
0 0.799207 0.801831
0 0.837446 0.803677
0 0.870604 0.738689
0.439948 0.905241 0.647211
0.751949 0.932525 0.628367
0.933944 0.948257 0.619471
1 0.953277 0.616083
1 0.956847 0.623758
0 0.205829 0.475761
0 0.209659 0.487236
0 0.19118 0.507424
0.151827 0 0.52871
0.414023 0 0.548653
0.61619 0 0.564736
0.763668 0 0.569039
0.834882 0 0.574197
0.872023 0 0.589853
0 0.237522 0.519722
0 0.242985 0.535912
0 0.238605 0.552804
0.157366 0 0.580835
0.454185 0 0.600931
0.679713 0 0.619974
0.823835 0 0.631708
0.891432 0 0.647562
0.924102 0 0.667323
0 0.293538 0.582605
0 0.301839 0.608042
0 0.299855 0.640497
0.179232 0.0389715 0.690425
0.552728 0 0.717952
0.787869 0 0.740124
0.928435 0 0.767895
0.98616 0 0.785779
0.994842 0.00122072 0.791791
0 0.377081 0.651926
0 0.402518 0.68632
0 0.399161 0.713832
0.0595102 0.279728 0.761074
0.577478 0.262303 0.767697
0.821256 0.261738 0.782788
0.943694 0.260166 0.791699
0.989868 0.283253 0.797604
1 0.320226 0.802625
0 0.530556 0.724407
0 0.564813 0.757321
0 0.600732 0.789273
0 0.592966 0.814572
0.527657 0.577966 0.776318
0.807523 0.586847 0.768612
0.950103 0.576486 0.756802
1 0.56321 0.743084
1 0.58088 0.734142
0 0.66865 0.801373
0 0.702953 0.828916
0 0.743267 0.850492
0 0.781353 0.847059
0.478523 0.77525 0.770809
0.786267 0.786496 0.749523
0.947784 0.784634 0.730083
1 0.781231 0.71899
1 0.791882 0.716899
0 0.720256 0.827924
0 0.745556 0.846754
0 0.788846 0.863401
0 0.849393 0.857832
0.426429 0.87538 0.767803
0.763516 0.901198 0.745541
0.94316 0.908064 0.731487
1 0.911269 0.719738
1 0.917479 0.720882
0 0.732845 0.83122
0 0.766644 0.857404
0 0.810697 0.878096
0 0.875196 0.877546
0.387304 0.91577 0.795026
0.740795 0.94345 0.771969
0.92723 0.955154 0.760922
1 0.958801 0.756024
1 0.961883 0.75346
0 0.77882 0.861738
0 0.808194 0.887114
0 0.852155 0.904021
0 0.900511 0.897307
0.391455 0.931289 0.829755
0.719753 0.953872 0.813046
0.911116 0.971084 0.799695
0.99295 0.975738 0.801328
1 0.979583 0.804974
0 0.235584 0.546777
0 0.241886 0.554559
0 0.23476 0.575769
0.160601 0 0.636042
0.417258 0 0.66363
0.630564 0 0.684352
0.775418 0 0.690333
0.850675 0 0.69485
0.888197 0 0.709743
0 0.272221 0.599359
0 0.278294 0.612985
0 0.271733 0.627665
0.161257 0 0.701885
0.460075 0 0.731365
0.688609 0 0.754742
0.840024 0 0.764736
0.909209 0 0.775952
0.940536 0 0.800153
0 0.323476 0.6598
0 0.334371 0.683436
0 0.335195 0.714595
0.181125 0.0263371 0.817853
0.560586 0 0.849729
0.811719 0 0.887861
0.939483 0 0.89659
0.996475 0 0.916228
1 0 0.919081
0 0.402411 0.718761
0 0.421057 0.747478
0 0.430152 0.787228
0.0337987 0.306798 0.877729
0.572946 0.270741 0.903868
0.820829 0.270558 0.917403
0.944625 0.269566 0.923461
0.98941 0.288808 0.927855
1 0.325612 0.930556
0 0.558038 0.804608
0 0.588464 0.830137
0 0.617456 0.860761
0 0.611811 0.925109
0.504204 0.588891 0.928054
0.792172 0.596582 0.919188
0.936965 0.582269 0.91194
0.995056 0.571267 0.904097
1 0.58613 0.893431
0 0.684184 0.863005
0 0.712886 0.885069
0 0.748074 0.915434
0 0.789822 0.946365
0.438163 0.792493 0.923812
0.760906 0.799619 0.907744
0.925719 0.796124 0.894545
0.997436 0.793606 0.888151
1 0.806104 0.88687
0 0.730007 0.881529
0 0.754406 0.898863
0 0.792447 0.922347
0 0.860502 0.952529
0.371542 0.89807 0.926162
0.733303 0.9196 0.903761
0.919341 0.928603 0.894713
0.991821 0.927398 0.887282
1 0.936446 0.884321
0 0.742657 0.889754
0 0.77554 0.910582
0 0.816449 0.932113
0 0.887907 0.967025
0.327489 0.936599 0.937514
0.714595 0.962234 0.917067
0.904158 0.976242 0.907744
0.986481 0.979416 0.900328
1 0.982315 0.896147
0 0.786664 0.917159
0 0.812299 0.934356
0 0.855741 0.957473
0 0.911101 0.98352
0.348837 0.948211 0.952087
0.695674 0.972671 0.93312
0.890761 0.985641 0.925765
0.976364 0.991867 0.918837
0.996551 0.995041 0.923247
0 0.253285 0.588785
0 0.258595 0.598901
0 0.253574 0.622339
0.158389 0 0.699641
0.427482 0 0.744228
0.637934 0 0.760128
0.793622 0 0.774075
0.86569 0 0.776471
0.897734 0 0.791638
0 0.296925 0.649836
0 0.298955 0.658228
0 0.291386 0.674632
0.159731 0 0.777493
0.47303 0 0.818082
0.698573 0 0.840482
0.853742 0 0.853483
0.923552 0 0.863645
0.956329 0 0.88539
0 0.345266 0.699962
0 0.351598 0.722362
0 0.352575 0.755489
0.169894 0.0321965 0.884184
0.570733 0 0.927199
0.810254 0 0.95436
0.951476 0 0.975082
1 0 0.989761
1 0.00588998 0.983703
0 0.420401 0.75642
0 0.439216 0.782635
0 0.446082 0.819532
0.0204013 0.323842 0.935241
0.570794 0.280446 0.974319
0.818875 0.277928 0.986694
0.942046 0.274144 0.990951
0.990707 0.294835 0.993271
1 0.328542 0.997314
0 0.570153 0.845365
0 0.598917 0.864393
0 0.626459 0.894804
0 0.624475 0.974945
0.488136 0.594156 1
0.771908 0.596078 0.997253
0.925582 0.58468 0.996643
0.990478 0.567895 0.992218
1 0.584863 0.985809
0 0.693629 0.894682
0 0.716335 0.911604
0 0.750332 0.942046
0 0.7897 0.989029
0.406958 0.792218 1
0.739757 0.802869 0.994949
0.914687 0.801526 0.986236
0.987945 0.796765 0.980377
1 0.811292 0.979126
0 0.733303 0.908797
0 0.757855 0.924239
0 0.793851 0.950683
0 0.859037 0.993698
0.331151 0.906813 1
0.716609 0.926787 0.986221
0.904051 0.935958 0.976226
0.980697 0.938766 0.973404
1 0.943938 0.97351
0 0.747845 0.912734
0 0.778927 0.931426
0 0.821607 0.960189
0 0.888365 1
0.280583 0.946761 1
0.692058 0.96997 0.990631
0.889555 0.984268 0.978866
0.971969 0.987228 0.976074
0.996674 0.989639 0.972625
0 0.78819 0.938964
0 0.818692 0.959442
0 0.858961 0.982589
0 0.918105 1
0.315831 0.95581 1
0.677714 0.978927 0.996536
0.880171 0.992645 0.985931
0.967468 1 0.979721
0.99292 1 0.980697
0 0.284916 0.638041
0 0.291875 0.65153
0 0.284337 0.667292
0.155352 0 0.763836
0.443153 0 0.80206
0.658412 0 0.82266
0.818463 0 0.839124
0.890486 0 0.840711
0.925597 0 0.856275
0 0.324178 0.68365
0 0.331182 0.701259
0 0.329747 0.729946
0.152605 0 0.842527
0.488136 0 0.887968
0.723064 0 0.911238
0.879683 0 0.922255
0.953872 0 0.937118
0.988128 0 0.959731
0 0.369985 0.731762
0 0.382712 0.753216
0 0.382712 0.787152
0.1019 0.111604 0.923522
0.559762 0.066865 0.963577
0.806287 0.0337072 0.987808
0.941054 0.0274968 0.996735
0.993423 0.0445563 1
1 0.108537 1
0 0.441108 0.780972
0 0.460487 0.802106
0 0.4663 0.839536
0 0.360204 0.967407
0.559625 0.32076 1
0.812116 0.322927 1
0.942428 0.320989 1
0.989502 0.3252 1
1 0.363485 1
0 0.57995 0.857832
0 0.609003 0.877409
0 0.636423 0.911406
0 0.634974 0.99263
0.470802 0.606073 1
0.760327 0.605249 1
0.918898 0.587304 1
0.98436 0.577264 1
1 0.584268 1
0 0.694804 0.903212
0 0.720806 0.922957
0 0.750698 0.949615
0 0.787442 1
0.366629 0.790875 1
0.719905 0.800824 1
0.904662 0.798825 1
0.979416 0.800397 1
1 0.809033 1
0 0.735454 0.915969
0 0.75819 0.934112
0 0.795987 0.957641
0 0.858808 1
0.277241 0.907439 1
0.697414 0.92607 1
0.894591 0.934813 1
0.97435 0.937789 1
0.998291 0.944198 1
0 0.751537 0.923964
0 0.780957 0.940642
0 0.820829 0.968399
0 0.890059 1
0.233845 0.949645 1
0.678798 0.971038 1
0.882887 0.983871 1
0.969894 0.990921 1
0.99472 0.993255 1
0 0.793774 0.948547
0 0.819303 0.964034
0 0.856275 0.988037
0 0.912718 1
0.280964 0.957443 1
0.66212 0.982895 1
0.8692 0.996292 1
0.963516 0.999908 1
0.992126 1 1
